HIRO-group/drake-franka-driver/joint_angles.csv
timestamp,joint1,joint2,joint3,joint4,joint5,joint6,joint7
0.000000,0.000000,0.000000,0.000000,0.000000,0.000000,0.000000,0.000000
0.010000,0.042724,-0.780480,-0.000387,-2.356431,0.002699,1.569509,0.779041
0.020000,0.042726,-0.780478,-0.000385,-2.356429,0.002703,1.569512,0.779044
0.030000,0.042722,-0.780476,-0.000383,-2.356432,0.002703,1.569507,0.779047
0.040000,0.042720,-0.780482,-0.000381,-2.356431,0.002702,1.569510,0.779047
0.050000,0.042719,-0.780478,-0.000379,-2.356429,0.002702,1.569507,0.779049
0.060000,0.042724,-0.780476,-0.000383,-2.356429,0.002702,1.569507,0.779046
0.070000,0.042725,-0.780480,-0.000379,-2.356434,0.002701,1.569506,0.779046
0.080000,0.042720,-0.780476,-0.000385,-2.356431,0.002703,1.569511,0.779049
0.090000,0.042722,-0.780476,-0.000379,-2.356432,0.002702,1.569507,0.779048
0.100000,0.042720,-0.780480,-0.000383,-2.356431,0.002701,1.569506,0.779047
0.110000,0.042719,-0.780480,-0.000381,-2.356432,0.002702,1.569507,0.779044
0.120000,0.042720,-0.780478,-0.000385,-2.356432,0.002701,1.569507,0.779049
0.130000,0.042722,-0.780480,-0.000383,-2.356432,0.002699,1.569506,0.779049
0.140000,0.042720,-0.780478,-0.000386,-2.356431,0.002701,1.569510,0.779043
0.150000,0.042720,-0.780478,-0.000382,-2.356431,0.002701,1.569508,0.779049
0.160000,0.042720,-0.780478,-0.000387,-2.356432,0.002701,1.569507,0.779049
0.170000,0.042720,-0.780480,-0.000389,-2.356431,0.002701,1.569507,0.779046
0.180000,0.042721,-0.780478,-0.000383,-2.356432,0.002700,1.569508,0.779044
0.190000,0.042718,-0.780482,-0.000383,-2.356432,0.002698,1.569507,0.779049
0.200000,0.042719,-0.780478,-0.000379,-2.356431,0.002703,1.569507,0.779045
0.210000,0.042722,-0.780480,-0.000379,-2.356431,0.002699,1.569506,0.779044
0.220000,0.042720,-0.780480,-0.000385,-2.356431,0.002702,1.569507,0.779043
0.230000,0.042724,-0.780478,-0.000385,-2.356431,0.002702,1.569507,0.779042
0.240000,0.042722,-0.780480,-0.000381,-2.356431,0.002701,1.569507,0.779042
0.250000,0.042725,-0.780478,-0.000381,-2.356432,0.002701,1.569508,0.779047
0.260000,0.042720,-0.780482,-0.000389,-2.356432,0.002703,1.569508,0.779048
0.270000,0.042722,-0.780480,-0.000389,-2.356434,0.002700,1.569506,0.779047
0.280000,0.042723,-0.780480,-0.000379,-2.356431,0.002702,1.569507,0.779047
0.290000,0.042724,-0.780483,-0.000381,-2.356429,0.002701,1.569506,0.779044
0.300000,0.042725,-0.780480,-0.000381,-2.356429,0.002703,1.569507,0.779047
0.310000,0.042724,-0.780480,-0.000383,-2.356432,0.002700,1.569507,0.779049
0.320000,0.042724,-0.780478,-0.000383,-2.356431,0.002702,1.569508,0.779050
0.330000,0.042723,-0.780482,-0.000384,-2.356434,0.002700,1.569507,0.779048
0.340000,0.042724,-0.780482,-0.000386,-2.356432,0.002698,1.569507,0.779045
0.350000,0.042724,-0.780482,-0.000382,-2.356429,0.002702,1.569507,0.779046
0.360000,0.042722,-0.780482,-0.000384,-2.356432,0.002702,1.569507,0.779047
0.370000,0.042722,-0.780476,-0.000383,-2.356431,0.002702,1.569507,0.779046
0.380000,0.042727,-0.780478,-0.000383,-2.356434,0.002703,1.569506,0.779045
0.390000,0.042724,-0.780480,-0.000381,-2.356431,0.002702,1.569506,0.779041
0.400000,0.042723,-0.780480,-0.000383,-2.356433,0.002699,1.569506,0.779042
0.410000,0.042725,-0.780478,-0.000385,-2.356436,0.002703,1.569507,0.779045
0.420000,0.042724,-0.780480,-0.000381,-2.356429,0.002702,1.569506,0.779046
0.430000,0.042727,-0.780480,-0.000381,-2.356429,0.002702,1.569506,0.779047
0.440000,0.042721,-0.780478,-0.000378,-2.356432,0.002702,1.569505,0.779049
0.450000,0.042722,-0.780476,-0.000379,-2.356432,0.002702,1.569506,0.779045
0.460000,0.042723,-0.780478,-0.000385,-2.356431,0.002702,1.569505,0.779051
0.470000,0.042723,-0.780476,-0.000382,-2.356432,0.002701,1.569505,0.779048
0.480000,0.042725,-0.780476,-0.000380,-2.356432,0.002702,1.569503,0.779046
0.490000,0.042723,-0.780478,-0.000382,-2.356434,0.002701,1.569507,0.779045
0.500000,0.042723,-0.780482,-0.000381,-2.356432,0.002702,1.569506,0.779042
0.510000,0.042725,-0.780480,-0.000381,-2.356431,0.002702,1.569504,0.779047
0.520000,0.042722,-0.780480,-0.000381,-2.356432,0.002702,1.569508,0.779047
0.530000,0.042724,-0.780478,-0.000383,-2.356429,0.002700,1.569503,0.779046
0.540000,0.042726,-0.780480,-0.000384,-2.356431,0.002701,1.569503,0.779051
0.550000,0.042719,-0.780483,-0.000387,-2.356431,0.002699,1.569503,0.779048
0.560000,0.042728,-0.780478,-0.000381,-2.356431,0.002701,1.569505,0.779044
0.570000,0.042725,-0.780480,-0.000383,-2.356431,0.002702,1.569503,0.779049
0.580000,0.042725,-0.780478,-0.000380,-2.356429,0.002701,1.569502,0.779050
0.590000,0.042719,-0.780478,-0.000383,-2.356432,0.002702,1.569507,0.779050
0.600000,0.042721,-0.780480,-0.000379,-2.356431,0.002702,1.569503,0.779045
0.610000,0.042725,-0.780480,-0.000386,-2.356431,0.002703,1.569504,0.779046
0.620000,0.042725,-0.780478,-0.000383,-2.356429,0.002702,1.569501,0.779044
0.630000,0.042722,-0.780478,-0.000381,-2.356429,0.002702,1.569503,0.779044
0.640000,0.042727,-0.780480,-0.000381,-2.356432,0.002700,1.569503,0.779041
0.650000,0.042725,-0.780480,-0.000383,-2.356432,0.002701,1.569503,0.779046
0.660000,0.042722,-0.780483,-0.000386,-2.356429,0.002701,1.569504,0.779046
0.670000,0.042722,-0.780478,-0.000383,-2.356434,0.002702,1.569500,0.779047
0.680000,0.042723,-0.780478,-0.000385,-2.356431,0.002701,1.569502,0.779042
0.690000,0.042723,-0.780480,-0.000382,-2.356429,0.002702,1.569501,0.779044
0.700000,0.042722,-0.780476,-0.000385,-2.356434,0.002699,1.569503,0.779046
0.710000,0.042723,-0.780478,-0.000385,-2.356434,0.002702,1.569501,0.779041
0.720000,0.042723,-0.780482,-0.000383,-2.356434,0.002701,1.569501,0.779044
0.730000,0.042724,-0.780480,-0.000383,-2.356432,0.002701,1.569503,0.779047
0.740000,0.042723,-0.780480,-0.000379,-2.356432,0.002702,1.569500,0.779042
0.750000,0.042723,-0.780480,-0.000387,-2.356434,0.002701,1.569502,0.779042
0.760000,0.042722,-0.780480,-0.000383,-2.356431,0.002697,1.569503,0.779048
0.770000,0.042725,-0.780480,-0.000381,-2.356431,0.002697,1.569503,0.779042
0.780000,0.042725,-0.780482,-0.000385,-2.356431,0.002701,1.569503,0.779044
0.790000,0.042725,-0.780480,-0.000381,-2.356430,0.002702,1.569502,0.779049
0.800000,0.042723,-0.780480,-0.000383,-2.356432,0.002703,1.569501,0.779047
0.810000,0.042723,-0.780480,-0.000381,-2.356432,0.002699,1.569503,0.779045
0.820000,0.042725,-0.780480,-0.000384,-2.356432,0.002702,1.569503,0.779049
0.830000,0.042724,-0.780480,-0.000383,-2.356432,0.002702,1.569503,0.779049
0.840000,0.042727,-0.780478,-0.000385,-2.356429,0.002702,1.569502,0.779043
0.850000,0.042721,-0.780482,-0.000385,-2.356434,0.002701,1.569503,0.779050
0.860000,0.042725,-0.780480,-0.000381,-2.356429,0.002703,1.569502,0.779046
0.870000,0.042727,-0.780480,-0.000381,-2.356431,0.002702,1.569503,0.779041
0.880000,0.042723,-0.780478,-0.000383,-2.356431,0.002703,1.569501,0.779042
0.890000,0.042722,-0.780482,-0.000385,-2.356432,0.002703,1.569501,0.779041
0.900000,0.042723,-0.780480,-0.000386,-2.356432,0.002701,1.569503,0.779047
0.910000,0.042723,-0.780482,-0.000383,-2.356429,0.002703,1.569502,0.779045
0.920000,0.042725,-0.780480,-0.000379,-2.356432,0.002701,1.569503,0.779053
0.930000,0.042725,-0.780476,-0.000379,-2.356432,0.002703,1.569502,0.779048
0.940000,0.042725,-0.780478,-0.000385,-2.356434,0.002703,1.569502,0.779048
0.950000,0.042722,-0.780478,-0.000381,-2.356431,0.002701,1.569502,0.779044
0.960000,0.042722,-0.780480,-0.000383,-2.356434,0.002701,1.569503,0.779045
0.970000,0.042722,-0.780480,-0.000379,-2.356431,0.002700,1.569502,0.779047
0.980000,0.042723,-0.780482,-0.000383,-2.356434,0.002701,1.569502,0.779046
0.990000,0.042727,-0.780483,-0.000381,-2.356432,0.002703,1.569502,0.779046
1.000000,0.042725,-0.780480,-0.000385,-2.356432,0.002702,1.569501,0.779049
1.010000,0.042727,-0.780480,-0.000386,-2.356434,0.002701,1.569500,0.779050
1.020000,0.042722,-0.780482,-0.000385,-2.356429,0.002703,1.569501,0.779045
1.030000,0.042723,-0.780476,-0.000383,-2.356431,0.002701,1.569502,0.779045
1.040000,0.042725,-0.780480,-0.000383,-2.356432,0.002702,1.569501,0.779046
1.050000,0.042727,-0.780480,-0.000381,-2.356430,0.002703,1.569502,0.779049
1.060000,0.042727,-0.780478,-0.000382,-2.356427,0.002703,1.569502,0.779044
1.070000,0.042725,-0.780480,-0.000381,-2.356432,0.002702,1.569498,0.779048
1.080000,0.042723,-0.780480,-0.000383,-2.356434,0.002702,1.569500,0.779047
1.090000,0.042727,-0.780478,-0.000383,-2.356429,0.002703,1.569499,0.779046
1.100000,0.042725,-0.780478,-0.000378,-2.356431,0.002703,1.569497,0.779046
1.110000,0.042727,-0.780480,-0.000381,-2.356436,0.002701,1.569499,0.779041
1.120000,0.042727,-0.780480,-0.000383,-2.356431,0.002701,1.569501,0.779044
1.130000,0.042725,-0.780478,-0.000385,-2.356431,0.002701,1.569498,0.779044
1.140000,0.042723,-0.780480,-0.000380,-2.356434,0.002699,1.569501,0.779052
1.150000,0.042725,-0.780478,-0.000383,-2.356431,0.002700,1.569497,0.779046
1.160000,0.042723,-0.780482,-0.000383,-2.356431,0.002703,1.569497,0.779044
1.170000,0.042723,-0.780478,-0.000384,-2.356431,0.002701,1.569498,0.779044
1.180000,0.042723,-0.780480,-0.000383,-2.356432,0.002702,1.569497,0.779047
1.190000,0.042723,-0.780480,-0.000382,-2.356431,0.002699,1.569498,0.779046
1.200000,0.042725,-0.780480,-0.000383,-2.356434,0.002699,1.569497,0.779047
1.210000,0.042725,-0.780478,-0.000383,-2.356431,0.002702,1.569498,0.779041
1.220000,0.042727,-0.780478,-0.000388,-2.356432,0.002703,1.569497,0.779046
1.230000,0.042723,-0.780476,-0.000383,-2.356432,0.002703,1.569498,0.779041
1.240000,0.042725,-0.780480,-0.000385,-2.356429,0.002702,1.569498,0.779046
1.250000,0.042723,-0.780482,-0.000381,-2.356429,0.002702,1.569497,0.779053
1.260000,0.042725,-0.780478,-0.000386,-2.356429,0.002703,1.569498,0.779046
1.270000,0.042725,-0.780476,-0.000380,-2.356432,0.002701,1.569498,0.779046
1.280000,0.042723,-0.780482,-0.000381,-2.356432,0.002703,1.569498,0.779049
1.290000,0.042727,-0.780478,-0.000381,-2.356431,0.002701,1.569497,0.779045
1.300000,0.042725,-0.780480,-0.000383,-2.356431,0.002702,1.569498,0.779048
1.310000,0.042725,-0.780482,-0.000381,-2.356431,0.002703,1.569498,0.779049
1.320000,0.042725,-0.780482,-0.000385,-2.356434,0.002700,1.569498,0.779045
1.330000,0.042722,-0.780478,-0.000381,-2.356431,0.002701,1.569498,0.779047
1.340000,0.042725,-0.780482,-0.000384,-2.356432,0.002703,1.569496,0.779046
1.350000,0.042725,-0.780482,-0.000381,-2.356432,0.002701,1.569498,0.779049
1.360000,0.042723,-0.780482,-0.000386,-2.356432,0.002702,1.569498,0.779043
1.370000,0.042725,-0.780478,-0.000385,-2.356430,0.002703,1.569497,0.779044
1.380000,0.042727,-0.780478,-0.000382,-2.356434,0.002702,1.569498,0.779047
1.390000,0.042727,-0.780480,-0.000385,-2.356429,0.002701,1.569498,0.779044
1.400000,0.042723,-0.780478,-0.000381,-2.356432,0.002702,1.569497,0.779044
1.410000,0.042723,-0.780480,-0.000386,-2.356431,0.002699,1.569497,0.779043
1.420000,0.042725,-0.780482,-0.000383,-2.356432,0.002702,1.569498,0.779047
1.430000,0.042725,-0.780480,-0.000378,-2.356429,0.002702,1.569498,0.779040
1.440000,0.042725,-0.780478,-0.000383,-2.356432,0.002703,1.569499,0.779045
1.450000,0.042725,-0.780480,-0.000383,-2.356436,0.002703,1.569498,0.779046
1.460000,0.042725,-0.780478,-0.000378,-2.356434,0.002703,1.569498,0.779044
1.470000,0.042723,-0.780480,-0.000381,-2.356431,0.002701,1.569498,0.779044
1.480000,0.042727,-0.780480,-0.000381,-2.356434,0.002700,1.569496,0.779042
1.490000,0.042729,-0.780480,-0.000381,-2.356432,0.002702,1.569497,0.779049
1.500000,0.042725,-0.780480,-0.000385,-2.356429,0.002702,1.569498,0.779046
1.510000,0.042727,-0.780478,-0.000380,-2.356432,0.002702,1.569497,0.779046
1.520000,0.042725,-0.780478,-0.000381,-2.356431,0.002702,1.569497,0.779048
1.530000,0.042723,-0.780480,-0.000381,-2.356432,0.002700,1.569497,0.779049
1.540000,0.042727,-0.780478,-0.000383,-2.356431,0.002701,1.569498,0.779045
1.550000,0.042727,-0.780478,-0.000385,-2.356431,0.002702,1.569497,0.779044
1.560000,0.042723,-0.780483,-0.000385,-2.356432,0.002701,1.569496,0.779044
1.570000,0.042723,-0.780482,-0.000381,-2.356429,0.002700,1.569498,0.779041
1.580000,0.042725,-0.780480,-0.000380,-2.356432,0.002703,1.569498,0.779046
1.590000,0.042727,-0.780482,-0.000384,-2.356432,0.002701,1.569495,0.779045
1.600000,0.042725,-0.780480,-0.000383,-2.356431,0.002702,1.569493,0.779044
1.610000,0.042725,-0.780476,-0.000385,-2.356431,0.002702,1.569496,0.779050
1.620000,0.042725,-0.780478,-0.000383,-2.356431,0.002702,1.569497,0.779048
1.630000,0.042725,-0.780480,-0.000383,-2.356430,0.002703,1.569497,0.779050
1.640000,0.042725,-0.780480,-0.000383,-2.356434,0.002703,1.569494,0.779049
1.650000,0.042727,-0.780478,-0.000382,-2.356432,0.002702,1.569494,0.779047
1.660000,0.042723,-0.780480,-0.000383,-2.356427,0.002703,1.569491,0.779045
1.670000,0.042727,-0.780482,-0.000380,-2.356429,0.002702,1.569497,0.779048
1.680000,0.042725,-0.780478,-0.000381,-2.356430,0.002702,1.569492,0.779042
1.690000,0.042720,-0.780476,-0.000381,-2.356429,0.002701,1.569493,0.779045
1.700000,0.042725,-0.780482,-0.000383,-2.356429,0.002702,1.569493,0.779042
1.710000,0.042723,-0.780482,-0.000385,-2.356432,0.002701,1.569494,0.779044
1.720000,0.042725,-0.780478,-0.000383,-2.356431,0.002702,1.569493,0.779047
1.730000,0.042723,-0.780480,-0.000383,-2.356424,0.002703,1.569493,0.779046
1.740000,0.042725,-0.780480,-0.000381,-2.356434,0.002702,1.569493,0.779046
1.750000,0.042723,-0.780480,-0.000379,-2.356434,0.002702,1.569492,0.779047
1.760000,0.042723,-0.780482,-0.000385,-2.356431,0.002701,1.569494,0.779047
1.770000,0.042724,-0.780480,-0.000383,-2.356430,0.002702,1.569492,0.779046
1.780000,0.042727,-0.780478,-0.000383,-2.356432,0.002703,1.569491,0.779044
1.790000,0.042722,-0.780478,-0.000389,-2.356432,0.002703,1.569494,0.779048
1.800000,0.042727,-0.780482,-0.000381,-2.356431,0.002700,1.569494,0.779048
1.810000,0.042725,-0.780480,-0.000382,-2.356431,0.002703,1.569494,0.779046
1.820000,0.042727,-0.780478,-0.000383,-2.356431,0.002700,1.569491,0.779049
1.830000,0.042720,-0.780482,-0.000383,-2.356432,0.002702,1.569494,0.779043
1.840000,0.042725,-0.780480,-0.000383,-2.356427,0.002698,1.569492,0.779041
1.850000,0.042727,-0.780478,-0.000383,-2.356434,0.002698,1.569492,0.779048
1.860000,0.042727,-0.780480,-0.000383,-2.356431,0.002702,1.569493,0.779047
1.870000,0.042727,-0.780480,-0.000383,-2.356427,0.002704,1.569495,0.779044
1.880000,0.042723,-0.780480,-0.000381,-2.356432,0.002701,1.569495,0.779045
1.890000,0.042727,-0.780480,-0.000383,-2.356431,0.002702,1.569492,0.779041
1.900000,0.042725,-0.780478,-0.000383,-2.356434,0.002701,1.569494,0.779044
1.910000,0.042723,-0.780478,-0.000381,-2.356432,0.002702,1.569492,0.779052
1.920000,0.042725,-0.780476,-0.000383,-2.356431,0.002701,1.569491,0.779047
1.930000,0.042723,-0.780478,-0.000383,-2.356431,0.002703,1.569493,0.779043
1.940000,0.042722,-0.780480,-0.000389,-2.356429,0.002703,1.569493,0.779043
1.950000,0.042724,-0.780478,-0.000383,-2.356431,0.002701,1.569492,0.779052
1.960000,0.042723,-0.780478,-0.000383,-2.356429,0.002703,1.569492,0.779044
1.970000,0.042720,-0.780483,-0.000379,-2.356432,0.002701,1.569492,0.779044
1.980000,0.042726,-0.780476,-0.000383,-2.356431,0.002702,1.569489,0.779050
1.990000,0.042725,-0.780480,-0.000385,-2.356431,0.002701,1.569493,0.779044
2.000000,0.042725,-0.780482,-0.000381,-2.356432,0.002703,1.569494,0.779046
2.010000,0.042725,-0.780482,-0.000381,-2.356431,0.002701,1.569493,0.779049
2.020000,0.042723,-0.780478,-0.000385,-2.356429,0.002703,1.569494,0.779046
2.030000,0.042725,-0.780482,-0.000381,-2.356432,0.002702,1.569493,0.779049
2.040000,0.042725,-0.780480,-0.000381,-2.356431,0.002703,1.569489,0.779046
2.050000,0.042726,-0.780480,-0.000383,-2.356429,0.002701,1.569491,0.779050
2.060000,0.042722,-0.780478,-0.000387,-2.356432,0.002701,1.569494,0.779047
2.070000,0.042726,-0.780480,-0.000385,-2.356432,0.002703,1.569491,0.779047
2.080000,0.042722,-0.780480,-0.000386,-2.356432,0.002702,1.569493,0.779042
2.090000,0.042723,-0.780480,-0.000385,-2.356432,0.002702,1.569488,0.779046
2.100000,0.042722,-0.780478,-0.000379,-2.356427,0.002702,1.569492,0.779044
2.110000,0.042725,-0.780480,-0.000383,-2.356432,0.002701,1.569494,0.779049
2.120000,0.042726,-0.780480,-0.000383,-2.356429,0.002701,1.569492,0.779046
2.130000,0.042724,-0.780478,-0.000381,-2.356429,0.002701,1.569489,0.779048
2.140000,0.042723,-0.780478,-0.000385,-2.356429,0.002700,1.569488,0.779049
2.150000,0.042725,-0.780476,-0.000383,-2.356431,0.002703,1.569489,0.779045
2.160000,0.042725,-0.780480,-0.000381,-2.356432,0.002701,1.569490,0.779046
2.170000,0.042726,-0.780480,-0.000379,-2.356429,0.002702,1.569488,0.779048
2.180000,0.042726,-0.780482,-0.000383,-2.356432,0.002703,1.569487,0.779044
2.190000,0.042729,-0.780478,-0.000378,-2.356432,0.002701,1.569488,0.779044
2.200000,0.042729,-0.780478,-0.000385,-2.356431,0.002703,1.569489,0.779046
2.210000,0.042725,-0.780480,-0.000383,-2.356431,0.002702,1.569488,0.779047
2.220000,0.042729,-0.780482,-0.000383,-2.356432,0.002701,1.569487,0.779043
2.230000,0.042727,-0.780480,-0.000383,-2.356431,0.002702,1.569487,0.779050
2.240000,0.042725,-0.780478,-0.000383,-2.356432,0.002702,1.569487,0.779048
2.250000,0.042725,-0.780476,-0.000383,-2.356431,0.002702,1.569488,0.779043
2.260000,0.042726,-0.780480,-0.000383,-2.356431,0.002702,1.569488,0.779045
2.270000,0.042723,-0.780480,-0.000385,-2.356431,0.002701,1.569486,0.779048
2.280000,0.042728,-0.780482,-0.000383,-2.356431,0.002700,1.569488,0.779044
2.290000,0.042726,-0.780480,-0.000381,-2.356431,0.002702,1.569487,0.779044
2.300000,0.042728,-0.780476,-0.000384,-2.356429,0.002699,1.569486,0.779050
2.310000,0.042723,-0.780480,-0.000382,-2.356434,0.002703,1.569487,0.779044
2.320000,0.042727,-0.780476,-0.000381,-2.356432,0.002703,1.569489,0.779048
2.330000,0.042729,-0.780480,-0.000377,-2.356434,0.002702,1.569486,0.779045
2.340000,0.042722,-0.780480,-0.000381,-2.356434,0.002703,1.569488,0.779048
2.350000,0.042726,-0.780478,-0.000379,-2.356432,0.002703,1.569487,0.779044
2.360000,0.042722,-0.780483,-0.000383,-2.356434,0.002702,1.569489,0.779047
2.370000,0.042730,-0.780478,-0.000381,-2.356431,0.002699,1.569487,0.779048
2.380000,0.042727,-0.780478,-0.000385,-2.356434,0.002703,1.569487,0.779044
2.390000,0.042723,-0.780480,-0.000383,-2.356431,0.002701,1.569488,0.779048
2.400000,0.042727,-0.780478,-0.000384,-2.356429,0.002703,1.569488,0.779042
2.410000,0.042729,-0.780480,-0.000381,-2.356432,0.002700,1.569486,0.779050
2.420000,0.042724,-0.780482,-0.000385,-2.356431,0.002702,1.569488,0.779047
2.430000,0.042725,-0.780478,-0.000383,-2.356434,0.002702,1.569487,0.779044
2.440000,0.042725,-0.780478,-0.000382,-2.356432,0.002703,1.569487,0.779042
2.450000,0.042728,-0.780483,-0.000381,-2.356432,0.002701,1.569488,0.779048
2.460000,0.042726,-0.780478,-0.000382,-2.356432,0.002701,1.569487,0.779046
2.470000,0.042726,-0.780480,-0.000381,-2.356431,0.002703,1.569489,0.779046
2.480000,0.042726,-0.780480,-0.000383,-2.356432,0.002702,1.569487,0.779044
2.490000,0.042724,-0.780482,-0.000381,-2.356432,0.002703,1.569488,0.779049
2.500000,0.042726,-0.780483,-0.000381,-2.356431,0.002701,1.569487,0.779044
2.510000,0.042726,-0.780478,-0.000386,-2.356430,0.002701,1.569486,0.779045
2.520000,0.042728,-0.780482,-0.000381,-2.356431,0.002703,1.569488,0.779047
2.530000,0.042728,-0.780480,-0.000383,-2.356431,0.002702,1.569487,0.779050
2.540000,0.042727,-0.780483,-0.000381,-2.356431,0.002701,1.569488,0.779042
2.550000,0.042728,-0.780480,-0.000385,-2.356431,0.002703,1.569488,0.779042
2.560000,0.042730,-0.780480,-0.000383,-2.356432,0.002702,1.569487,0.779047
2.570000,0.042725,-0.780480,-0.000385,-2.356431,0.002700,1.569488,0.779044
2.580000,0.042726,-0.780482,-0.000383,-2.356425,0.002702,1.569483,0.779049
2.590000,0.042732,-0.780480,-0.000381,-2.356432,0.002698,1.569487,0.779041
2.600000,0.042726,-0.780476,-0.000385,-2.356427,0.002702,1.569488,0.779046
2.610000,0.042724,-0.780480,-0.000383,-2.356429,0.002701,1.569487,0.779049
2.620000,0.042728,-0.780482,-0.000380,-2.356431,0.002703,1.569484,0.779051
2.630000,0.042726,-0.780480,-0.000383,-2.356429,0.002702,1.569486,0.779048
2.640000,0.042725,-0.780478,-0.000383,-2.356431,0.002701,1.569484,0.779046
2.650000,0.042725,-0.780480,-0.000383,-2.356436,0.002699,1.569484,0.779047
2.660000,0.042730,-0.780480,-0.000387,-2.356431,0.002701,1.569482,0.779049
2.670000,0.042723,-0.780480,-0.000385,-2.356431,0.002700,1.569483,0.779046
2.680000,0.042728,-0.780480,-0.000379,-2.356431,0.002698,1.569482,0.779046
2.690000,0.042726,-0.780478,-0.000381,-2.356432,0.002701,1.569482,0.779046
2.700000,0.042726,-0.780478,-0.000380,-2.356432,0.002701,1.569483,0.779043
2.710000,0.042730,-0.780480,-0.000379,-2.356431,0.002701,1.569483,0.779044
2.720000,0.042727,-0.780482,-0.000383,-2.356431,0.002702,1.569483,0.779044
2.730000,0.042725,-0.780478,-0.000385,-2.356434,0.002701,1.569483,0.779042
2.740000,0.042728,-0.780483,-0.000381,-2.356432,0.002702,1.569483,0.779042
2.750000,0.042725,-0.780480,-0.000379,-2.356429,0.002701,1.569484,0.779051
2.760000,0.042725,-0.780478,-0.000383,-2.356431,0.002703,1.569483,0.779047
2.770000,0.042724,-0.780480,-0.000381,-2.356434,0.002703,1.569484,0.779046
2.780000,0.042731,-0.780480,-0.000388,-2.356431,0.002700,1.569484,0.779052
2.790000,0.042731,-0.780482,-0.000386,-2.356429,0.002702,1.569483,0.779047
2.800000,0.042726,-0.780482,-0.000382,-2.356429,0.002702,1.569483,0.779051
2.810000,0.042726,-0.780476,-0.000381,-2.356432,0.002701,1.569483,0.779050
2.820000,0.042730,-0.780478,-0.000383,-2.356431,0.002702,1.569483,0.779047
2.830000,0.042726,-0.780482,-0.000385,-2.356431,0.002701,1.569483,0.779046
2.840000,0.042725,-0.780480,-0.000383,-2.356432,0.002701,1.569483,0.779043
2.850000,0.042730,-0.780478,-0.000382,-2.356434,0.002702,1.569483,0.779044
2.860000,0.042727,-0.780476,-0.000383,-2.356434,0.002701,1.569483,0.779047
2.870000,0.042726,-0.780478,-0.000385,-2.356431,0.002703,1.569482,0.779048
2.880000,0.042726,-0.780480,-0.000379,-2.356431,0.002699,1.569483,0.779048
2.890000,0.042726,-0.780480,-0.000381,-2.356431,0.002701,1.569483,0.779038
2.900000,0.042728,-0.780482,-0.000381,-2.356431,0.002701,1.569483,0.779049
2.910000,0.042728,-0.780478,-0.000381,-2.356429,0.002701,1.569483,0.779048
2.920000,0.042726,-0.780476,-0.000385,-2.356429,0.002703,1.569484,0.779047
2.930000,0.042726,-0.780478,-0.000380,-2.356429,0.002703,1.569483,0.779046
2.940000,0.042725,-0.780480,-0.000385,-2.356429,0.002702,1.569483,0.779047
2.950000,0.042728,-0.780478,-0.000379,-2.356431,0.002702,1.569484,0.779046
2.960000,0.042725,-0.780476,-0.000379,-2.356432,0.002702,1.569482,0.779045
2.970000,0.042728,-0.780478,-0.000383,-2.356431,0.002701,1.569483,0.779045
2.980000,0.042728,-0.780482,-0.000385,-2.356432,0.002702,1.569483,0.779044
2.990000,0.042730,-0.780478,-0.000383,-2.356434,0.002701,1.569481,0.779046
3.000000,0.042732,-0.780478,-0.000385,-2.356434,0.002701,1.569483,0.779047
3.010000,0.042728,-0.780482,-0.000379,-2.356427,0.002698,1.569483,0.779045
3.020000,0.042726,-0.780476,-0.000383,-2.356431,0.002704,1.569483,0.779049
3.030000,0.042732,-0.780480,-0.000385,-2.356431,0.002701,1.569481,0.779049
3.040000,0.042726,-0.780480,-0.000383,-2.356427,0.002702,1.569479,0.779047
3.050000,0.042728,-0.780478,-0.000383,-2.356431,0.002703,1.569484,0.779044
3.060000,0.042726,-0.780480,-0.000379,-2.356429,0.002701,1.569481,0.779045
3.070000,0.042726,-0.780480,-0.000381,-2.356431,0.002702,1.569483,0.779047
3.080000,0.042728,-0.780480,-0.000381,-2.356429,0.002701,1.569482,0.779047
3.090000,0.042728,-0.780478,-0.000385,-2.356431,0.002703,1.569481,0.779043
3.100000,0.042728,-0.780480,-0.000387,-2.356432,0.002703,1.569483,0.779047
3.110000,0.042730,-0.780478,-0.000385,-2.356432,0.002702,1.569483,0.779046
3.120000,0.042723,-0.780478,-0.000380,-2.356431,0.002702,1.569477,0.779046
3.130000,0.042728,-0.780476,-0.000383,-2.356432,0.002700,1.569480,0.779043
3.140000,0.042728,-0.780478,-0.000385,-2.356432,0.002701,1.569482,0.779049
3.150000,0.042726,-0.780480,-0.000383,-2.356432,0.002703,1.569479,0.779041
3.160000,0.042728,-0.780476,-0.000383,-2.356432,0.002700,1.569478,0.779048
3.170000,0.042726,-0.780482,-0.000385,-2.356431,0.002699,1.569478,0.779049
3.180000,0.042728,-0.780482,-0.000385,-2.356434,0.002701,1.569479,0.779046
3.190000,0.042733,-0.780482,-0.000383,-2.356431,0.002701,1.569478,0.779044
3.200000,0.042728,-0.780482,-0.000381,-2.356431,0.002702,1.569477,0.779048
3.210000,0.042726,-0.780480,-0.000385,-2.356434,0.002701,1.569478,0.779041
3.220000,0.042726,-0.780476,-0.000383,-2.356432,0.002703,1.569478,0.779046
3.230000,0.042728,-0.780480,-0.000383,-2.356432,0.002701,1.569479,0.779043
3.240000,0.042730,-0.780478,-0.000381,-2.356431,0.002701,1.569478,0.779045
3.250000,0.042726,-0.780476,-0.000383,-2.356432,0.002702,1.569477,0.779045
3.260000,0.042726,-0.780480,-0.000383,-2.356432,0.002702,1.569478,0.779045
3.270000,0.042728,-0.780478,-0.000381,-2.356429,0.002703,1.569478,0.779049
3.280000,0.042728,-0.780482,-0.000386,-2.356431,0.002701,1.569479,0.779050
3.290000,0.042728,-0.780480,-0.000384,-2.356434,0.002701,1.569479,0.779044
3.300000,0.042730,-0.780482,-0.000379,-2.356431,0.002701,1.569479,0.779046
3.310000,0.042728,-0.780482,-0.000383,-2.356434,0.002701,1.569479,0.779042
3.320000,0.042728,-0.780482,-0.000383,-2.356432,0.002703,1.569478,0.779050
3.330000,0.042726,-0.780480,-0.000385,-2.356429,0.002703,1.569478,0.779049
3.340000,0.042730,-0.780482,-0.000381,-2.356427,0.002701,1.569479,0.779044
3.350000,0.042728,-0.780480,-0.000378,-2.356431,0.002703,1.569478,0.779048
3.360000,0.042728,-0.780480,-0.000383,-2.356432,0.002703,1.569479,0.779048
3.370000,0.042726,-0.780482,-0.000383,-2.356431,0.002703,1.569479,0.779044
3.380000,0.042726,-0.780480,-0.000381,-2.356432,0.002702,1.569479,0.779048
3.390000,0.042728,-0.780480,-0.000381,-2.356434,0.002700,1.569477,0.779046
3.400000,0.042726,-0.780482,-0.000383,-2.356432,0.002702,1.569478,0.779050
3.410000,0.042730,-0.780480,-0.000383,-2.356431,0.002703,1.569479,0.779049
3.420000,0.042728,-0.780480,-0.000385,-2.356429,0.002701,1.569476,0.779050
3.430000,0.042728,-0.780476,-0.000383,-2.356432,0.002702,1.569479,0.779040
3.440000,0.042730,-0.780478,-0.000385,-2.356432,0.002701,1.569478,0.779047
3.450000,0.042726,-0.780478,-0.000385,-2.356429,0.002703,1.569478,0.779044
3.460000,0.042728,-0.780478,-0.000379,-2.356431,0.002701,1.569480,0.779045
3.470000,0.042728,-0.780478,-0.000383,-2.356429,0.002703,1.569479,0.779049
3.480000,0.042728,-0.780480,-0.000381,-2.356432,0.002703,1.569478,0.779050
3.490000,0.042726,-0.780480,-0.000383,-2.356432,0.002702,1.569478,0.779045
3.500000,0.042730,-0.780478,-0.000385,-2.356431,0.002701,1.569478,0.779046
3.510000,0.042726,-0.780478,-0.000385,-2.356429,0.002702,1.569479,0.779046
3.520000,0.042726,-0.780482,-0.000381,-2.356431,0.002701,1.569476,0.779044
3.530000,0.042728,-0.780478,-0.000381,-2.356432,0.002701,1.569478,0.779047
3.540000,0.042730,-0.780476,-0.000382,-2.356432,0.002702,1.569478,0.779045
3.550000,0.042730,-0.780482,-0.000381,-2.356431,0.002702,1.569475,0.779046
3.560000,0.042725,-0.780482,-0.000383,-2.356431,0.002702,1.569478,0.779046
3.570000,0.042728,-0.780480,-0.000382,-2.356431,0.002703,1.569479,0.779043
3.580000,0.042728,-0.780478,-0.000383,-2.356431,0.002701,1.569473,0.779046
3.590000,0.042726,-0.780478,-0.000387,-2.356432,0.002702,1.569477,0.779046
3.600000,0.042726,-0.780482,-0.000381,-2.356429,0.002700,1.569473,0.779042
3.610000,0.042725,-0.780480,-0.000385,-2.356431,0.002703,1.569478,0.779045
3.620000,0.042726,-0.780480,-0.000383,-2.356434,0.002702,1.569476,0.779046
3.630000,0.042726,-0.780480,-0.000383,-2.356432,0.002703,1.569475,0.779047
3.640000,0.042730,-0.780480,-0.000383,-2.356429,0.002703,1.569475,0.779047
3.650000,0.042728,-0.780482,-0.000387,-2.356431,0.002702,1.569474,0.779043
3.660000,0.042730,-0.780476,-0.000377,-2.356432,0.002702,1.569475,0.779044
3.670000,0.042730,-0.780480,-0.000381,-2.356431,0.002701,1.569474,0.779047
3.680000,0.042726,-0.780478,-0.000381,-2.356431,0.002701,1.569477,0.779050
3.690000,0.042730,-0.780480,-0.000381,-2.356432,0.002701,1.569472,0.779047
3.700000,0.042726,-0.780478,-0.000383,-2.356434,0.002703,1.569477,0.779047
3.710000,0.042726,-0.780480,-0.000381,-2.356429,0.002699,1.569473,0.779043
3.720000,0.042728,-0.780476,-0.000381,-2.356431,0.002703,1.569474,0.779050
3.730000,0.042726,-0.780478,-0.000383,-2.356434,0.002701,1.569474,0.779052
3.740000,0.042727,-0.780476,-0.000383,-2.356429,0.002702,1.569474,0.779046
3.750000,0.042725,-0.780483,-0.000383,-2.356429,0.002702,1.569473,0.779043
3.760000,0.042728,-0.780478,-0.000383,-2.356432,0.002702,1.569474,0.779047
3.770000,0.042728,-0.780480,-0.000381,-2.356432,0.002702,1.569473,0.779048
3.780000,0.042728,-0.780480,-0.000385,-2.356431,0.002701,1.569473,0.779047
3.790000,0.042726,-0.780480,-0.000384,-2.356429,0.002702,1.569473,0.779050
3.800000,0.042728,-0.780478,-0.000387,-2.356431,0.002701,1.569473,0.779049
3.810000,0.042726,-0.780478,-0.000383,-2.356429,0.002702,1.569474,0.779046
3.820000,0.042728,-0.780480,-0.000383,-2.356432,0.002703,1.569473,0.779047
3.830000,0.042726,-0.780480,-0.000386,-2.356431,0.002702,1.569474,0.779044
3.840000,0.042731,-0.780482,-0.000379,-2.356432,0.002699,1.569472,0.779051
3.850000,0.042728,-0.780478,-0.000385,-2.356431,0.002701,1.569473,0.779042
3.860000,0.042728,-0.780482,-0.000383,-2.356432,0.002703,1.569474,0.779044
3.870000,0.042730,-0.780482,-0.000381,-2.356429,0.002702,1.569474,0.779055
3.880000,0.042728,-0.780480,-0.000385,-2.356431,0.002701,1.569473,0.779045
3.890000,0.042726,-0.780478,-0.000379,-2.356432,0.002701,1.569473,0.779043
3.900000,0.042726,-0.780478,-0.000384,-2.356431,0.002702,1.569474,0.779042
3.910000,0.042728,-0.780480,-0.000379,-2.356432,0.002701,1.569473,0.779047
3.920000,0.042726,-0.780482,-0.000386,-2.356429,0.002700,1.569474,0.779042
3.930000,0.042730,-0.780480,-0.000383,-2.356431,0.002703,1.569475,0.779048
3.940000,0.042725,-0.780480,-0.000383,-2.356432,0.002702,1.569474,0.779047
3.950000,0.042728,-0.780480,-0.000381,-2.356434,0.002703,1.569472,0.779044
3.960000,0.042726,-0.780478,-0.000383,-2.356432,0.002701,1.569472,0.779048
3.970000,0.042730,-0.780478,-0.000379,-2.356432,0.002703,1.569474,0.779046
3.980000,0.042728,-0.780482,-0.000383,-2.356432,0.002700,1.569474,0.779046
3.990000,0.042728,-0.780480,-0.000383,-2.356434,0.002701,1.569474,0.779044
4.000000,0.042728,-0.780480,-0.000383,-2.356432,0.002702,1.569474,0.779044
4.010000,0.042726,-0.780482,-0.000385,-2.356431,0.002701,1.569474,0.779047
4.020000,0.042726,-0.780476,-0.000383,-2.356432,0.002702,1.569474,0.779044
4.030000,0.042728,-0.780478,-0.000381,-2.356432,0.002701,1.569474,0.779045
4.040000,0.042728,-0.780478,-0.000383,-2.356432,0.002702,1.569473,0.779051
4.050000,0.042728,-0.780478,-0.000385,-2.356432,0.002702,1.569473,0.779042
4.060000,0.042730,-0.780478,-0.000381,-2.356432,0.002701,1.569472,0.779041
4.070000,0.042730,-0.780480,-0.000385,-2.356432,0.002701,1.569474,0.779046
4.080000,0.042728,-0.780482,-0.000383,-2.356429,0.002701,1.569473,0.779050
4.090000,0.042725,-0.780478,-0.000383,-2.356432,0.002701,1.569474,0.779041
4.100000,0.042726,-0.780480,-0.000377,-2.356432,0.002701,1.569473,0.779048
4.110000,0.042726,-0.780476,-0.000379,-2.356431,0.002701,1.569474,0.779051
4.120000,0.042728,-0.780476,-0.000383,-2.356432,0.002698,1.569475,0.779046
4.130000,0.042730,-0.780478,-0.000383,-2.356434,0.002702,1.569474,0.779041
4.140000,0.042728,-0.780480,-0.000386,-2.356431,0.002702,1.569474,0.779042
4.150000,0.042726,-0.780480,-0.000383,-2.356432,0.002703,1.569474,0.779045
4.160000,0.042725,-0.780475,-0.000385,-2.356431,0.002701,1.569472,0.779044
4.170000,0.042726,-0.780480,-0.000381,-2.356431,0.002702,1.569473,0.779049
4.180000,0.042728,-0.780480,-0.000381,-2.356429,0.002699,1.569474,0.779046
4.190000,0.042726,-0.780476,-0.000384,-2.356432,0.002701,1.569473,0.779043
4.200000,0.042730,-0.780480,-0.000385,-2.356431,0.002700,1.569473,0.779041
4.210000,0.042725,-0.780480,-0.000385,-2.356432,0.002702,1.569473,0.779049
4.220000,0.042730,-0.780476,-0.000383,-2.356431,0.002702,1.569470,0.779044
4.230000,0.042728,-0.780478,-0.000383,-2.356432,0.002698,1.569472,0.779047
4.240000,0.042725,-0.780478,-0.000383,-2.356432,0.002701,1.569470,0.779041
4.250000,0.042727,-0.780482,-0.000379,-2.356431,0.002702,1.569469,0.779047
4.260000,0.042728,-0.780482,-0.000385,-2.356429,0.002703,1.569469,0.779043
4.270000,0.042727,-0.780478,-0.000383,-2.356431,0.002698,1.569469,0.779046
4.280000,0.042726,-0.780478,-0.000383,-2.356427,0.002701,1.569472,0.779046
4.290000,0.042730,-0.780478,-0.000381,-2.356431,0.002702,1.569469,0.779048
4.300000,0.042730,-0.780480,-0.000383,-2.356429,0.002703,1.569470,0.779041
4.310000,0.042726,-0.780480,-0.000380,-2.356431,0.002702,1.569471,0.779047
4.320000,0.042732,-0.780480,-0.000385,-2.356429,0.002701,1.569468,0.779044
4.330000,0.042725,-0.780480,-0.000385,-2.356432,0.002703,1.569469,0.779047
4.340000,0.042726,-0.780476,-0.000385,-2.356431,0.002702,1.569469,0.779048
4.350000,0.042728,-0.780480,-0.000383,-2.356431,0.002701,1.569468,0.779046
4.360000,0.042731,-0.780478,-0.000383,-2.356431,0.002702,1.569468,0.779048
4.370000,0.042725,-0.780480,-0.000381,-2.356429,0.002703,1.569469,0.779045
4.380000,0.042730,-0.780478,-0.000379,-2.356431,0.002703,1.569470,0.779045
4.390000,0.042726,-0.780477,-0.000382,-2.356431,0.002701,1.569470,0.779045
4.400000,0.042725,-0.780481,-0.000386,-2.356427,0.002701,1.569470,0.779045
4.410000,0.042728,-0.780479,-0.000383,-2.356431,0.002702,1.569469,0.779049
4.420000,0.042729,-0.780480,-0.000383,-2.356434,0.002701,1.569469,0.779045
4.430000,0.042728,-0.780480,-0.000382,-2.356431,0.002702,1.569468,0.779041
4.440000,0.042727,-0.780483,-0.000383,-2.356432,0.002702,1.569470,0.779042
4.450000,0.042731,-0.780482,-0.000383,-2.356434,0.002699,1.569468,0.779044
4.460000,0.042730,-0.780480,-0.000383,-2.356432,0.002699,1.569469,0.779044
4.470000,0.042729,-0.780483,-0.000383,-2.356432,0.002702,1.569470,0.779047
4.480000,0.042728,-0.780483,-0.000379,-2.356429,0.002703,1.569467,0.779044
4.490000,0.042726,-0.780480,-0.000381,-2.356431,0.002703,1.569468,0.779044
4.500000,0.042728,-0.780482,-0.000381,-2.356429,0.002701,1.569469,0.779041
4.510000,0.042728,-0.780478,-0.000381,-2.356429,0.002702,1.569470,0.779043
4.520000,0.042728,-0.780482,-0.000381,-2.356432,0.002701,1.569466,0.779042
4.530000,0.042730,-0.780478,-0.000385,-2.356432,0.002701,1.569468,0.779047
4.540000,0.042728,-0.780482,-0.000383,-2.356431,0.002702,1.569469,0.779043
4.550000,0.042728,-0.780478,-0.000381,-2.356432,0.002702,1.569469,0.779043
4.560000,0.042726,-0.780480,-0.000381,-2.356429,0.002702,1.569465,0.779050
4.570000,0.042731,-0.780480,-0.000383,-2.356432,0.002703,1.569468,0.779049
4.580000,0.042729,-0.780480,-0.000383,-2.356431,0.002701,1.569469,0.779040
4.590000,0.042728,-0.780476,-0.000381,-2.356431,0.002703,1.569469,0.779041
4.600000,0.042729,-0.780478,-0.000383,-2.356431,0.002702,1.569470,0.779043
4.610000,0.042727,-0.780475,-0.000383,-2.356431,0.002702,1.569468,0.779047
4.620000,0.042728,-0.780480,-0.000385,-2.356431,0.002701,1.569469,0.779046
4.630000,0.042728,-0.780482,-0.000384,-2.356427,0.002703,1.569466,0.779045
4.640000,0.042729,-0.780478,-0.000383,-2.356431,0.002700,1.569469,0.779046
4.650000,0.042730,-0.780478,-0.000383,-2.356429,0.002703,1.569468,0.779046
4.660000,0.042732,-0.780478,-0.000388,-2.356431,0.002702,1.569470,0.779047
4.670000,0.042725,-0.780478,-0.000381,-2.356431,0.002703,1.569469,0.779042
4.680000,0.042726,-0.780480,-0.000383,-2.356432,0.002702,1.569469,0.779045
4.690000,0.042728,-0.780480,-0.000383,-2.356429,0.002703,1.569468,0.779042
4.700000,0.042726,-0.780478,-0.000377,-2.356431,0.002698,1.569469,0.779049
4.710000,0.042725,-0.780482,-0.000387,-2.356429,0.002701,1.569467,0.779045
4.720000,0.042726,-0.780482,-0.000381,-2.356432,0.002702,1.569467,0.779044
4.730000,0.042727,-0.780480,-0.000381,-2.356432,0.002701,1.569468,0.779051
4.740000,0.042731,-0.780480,-0.000379,-2.356432,0.002701,1.569468,0.779044
4.750000,0.042726,-0.780480,-0.000383,-2.356431,0.002701,1.569469,0.779046
4.760000,0.042729,-0.780482,-0.000381,-2.356431,0.002701,1.569463,0.779048
4.770000,0.042725,-0.780478,-0.000381,-2.356427,0.002701,1.569467,0.779046
4.780000,0.042730,-0.780478,-0.000381,-2.356431,0.002702,1.569469,0.779044
4.790000,0.042729,-0.780478,-0.000383,-2.356431,0.002702,1.569465,0.779049
4.800000,0.042731,-0.780480,-0.000381,-2.356432,0.002703,1.569463,0.779047
4.810000,0.042729,-0.780478,-0.000381,-2.356429,0.002702,1.569463,0.779048
4.820000,0.042729,-0.780478,-0.000385,-2.356432,0.002702,1.569463,0.779046
4.830000,0.042731,-0.780482,-0.000385,-2.356434,0.002702,1.569463,0.779041
4.840000,0.042730,-0.780476,-0.000381,-2.356434,0.002699,1.569465,0.779048
4.850000,0.042733,-0.780480,-0.000383,-2.356432,0.002703,1.569464,0.779050
4.860000,0.042727,-0.780480,-0.000385,-2.356431,0.002702,1.569464,0.779045
4.870000,0.042730,-0.780482,-0.000381,-2.356432,0.002703,1.569463,0.779044
4.880000,0.042729,-0.780478,-0.000383,-2.356429,0.002702,1.569465,0.779047
4.890000,0.042731,-0.780478,-0.000383,-2.356432,0.002701,1.569464,0.779051
4.900000,0.042729,-0.780480,-0.000381,-2.356434,0.002701,1.569463,0.779044
4.910000,0.042731,-0.780482,-0.000383,-2.356431,0.002702,1.569465,0.779048
4.920000,0.042732,-0.780480,-0.000377,-2.356429,0.002701,1.569463,0.779047
4.930000,0.042728,-0.780476,-0.000383,-2.356432,0.002702,1.569463,0.779049
4.940000,0.042731,-0.780478,-0.000381,-2.356429,0.002702,1.569465,0.779048
4.950000,0.042730,-0.780478,-0.000381,-2.356429,0.002703,1.569463,0.779043
4.960000,0.042730,-0.780482,-0.000381,-2.356432,0.002701,1.569464,0.779049
4.970000,0.042729,-0.780478,-0.000383,-2.356432,0.002701,1.569463,0.779047
4.980000,0.042730,-0.780480,-0.000381,-2.356434,0.002700,1.569464,0.779040
4.990000,0.042730,-0.780480,-0.000385,-2.356432,0.002701,1.569464,0.779047
5.000000,0.042730,-0.780478,-0.000380,-2.356432,0.002701,1.569463,0.779044
5.010000,0.042731,-0.780478,-0.000381,-2.356432,0.002701,1.569464,0.779042
5.020000,0.042729,-0.780476,-0.000381,-2.356434,0.002702,1.569463,0.779048
5.030000,0.042728,-0.780481,-0.000385,-2.356431,0.002701,1.569464,0.779044
5.040000,0.042728,-0.780480,-0.000383,-2.356431,0.002703,1.569463,0.779045
5.050000,0.042729,-0.780478,-0.000383,-2.356432,0.002702,1.569465,0.779042
5.060000,0.042730,-0.780482,-0.000385,-2.356429,0.002703,1.569464,0.779045
5.070000,0.042729,-0.780480,-0.000381,-2.356432,0.002701,1.569463,0.779046
5.080000,0.042730,-0.780480,-0.000379,-2.356431,0.002701,1.569464,0.779047
5.090000,0.042728,-0.780478,-0.000383,-2.356431,0.002703,1.569463,0.779046
5.100000,0.042731,-0.780480,-0.000383,-2.356431,0.002701,1.569463,0.779052
5.110000,0.042726,-0.780480,-0.000383,-2.356431,0.002702,1.569464,0.779048
5.120000,0.042729,-0.780478,-0.000381,-2.356432,0.002703,1.569464,0.779045
5.130000,0.042729,-0.780480,-0.000383,-2.356432,0.002703,1.569464,0.779046
5.140000,0.042731,-0.780482,-0.000381,-2.356427,0.002703,1.569464,0.779053
5.150000,0.042731,-0.780478,-0.000383,-2.356432,0.002702,1.569463,0.779042
5.160000,0.042726,-0.780478,-0.000385,-2.356429,0.002702,1.569460,0.779049
5.170000,0.042729,-0.780480,-0.000385,-2.356431,0.002703,1.569463,0.779041
5.180000,0.042731,-0.780483,-0.000380,-2.356432,0.002701,1.569460,0.779041
5.190000,0.042730,-0.780476,-0.000385,-2.356434,0.002699,1.569462,0.779046
5.200000,0.042735,-0.780478,-0.000384,-2.356432,0.002702,1.569463,0.779042
5.210000,0.042731,-0.780482,-0.000382,-2.356427,0.002702,1.569463,0.779047
5.220000,0.042731,-0.780482,-0.000382,-2.356432,0.002698,1.569465,0.779047
5.230000,0.042731,-0.780483,-0.000383,-2.356432,0.002701,1.569466,0.779049
5.240000,0.042729,-0.780482,-0.000379,-2.356432,0.002701,1.569463,0.779048
5.250000,0.042730,-0.780480,-0.000383,-2.356432,0.002701,1.569461,0.779050
5.260000,0.042730,-0.780482,-0.000383,-2.356431,0.002702,1.569462,0.779048
5.270000,0.042727,-0.780480,-0.000383,-2.356431,0.002702,1.569460,0.779049
5.280000,0.042733,-0.780480,-0.000381,-2.356429,0.002703,1.569463,0.779046
5.290000,0.042727,-0.780480,-0.000382,-2.356432,0.002703,1.569458,0.779046
5.300000,0.042730,-0.780478,-0.000383,-2.356432,0.002702,1.569458,0.779043
5.310000,0.042731,-0.780480,-0.000385,-2.356429,0.002702,1.569461,0.779046
5.320000,0.042726,-0.780480,-0.000383,-2.356427,0.002702,1.569459,0.779051
5.330000,0.042732,-0.780478,-0.000385,-2.356432,0.002703,1.569459,0.779043
5.340000,0.042731,-0.780480,-0.000383,-2.356431,0.002700,1.569460,0.779049
5.350000,0.042734,-0.780478,-0.000383,-2.356431,0.002701,1.569464,0.779044
5.360000,0.042733,-0.780478,-0.000381,-2.356436,0.002703,1.569461,0.779047
5.370000,0.042730,-0.780478,-0.000381,-2.356432,0.002702,1.569459,0.779048
5.380000,0.042729,-0.780480,-0.000383,-2.356429,0.002701,1.569460,0.779046
5.390000,0.042733,-0.780478,-0.000381,-2.356431,0.002702,1.569459,0.779051
5.400000,0.042731,-0.780476,-0.000381,-2.356434,0.002701,1.569458,0.779044
5.410000,0.042733,-0.780482,-0.000381,-2.356432,0.002701,1.569459,0.779044
5.420000,0.042730,-0.780480,-0.000383,-2.356434,0.002700,1.569459,0.779046
5.430000,0.042730,-0.780480,-0.000385,-2.356431,0.002703,1.569459,0.779046
5.440000,0.042735,-0.780476,-0.000381,-2.356434,0.002703,1.569458,0.779043
5.450000,0.042733,-0.780483,-0.000389,-2.356432,0.002702,1.569459,0.779046
5.460000,0.042729,-0.780478,-0.000383,-2.356434,0.002699,1.569459,0.779043
5.470000,0.042731,-0.780482,-0.000381,-2.356429,0.002701,1.569459,0.779041
5.480000,0.042728,-0.780482,-0.000383,-2.356431,0.002699,1.569459,0.779049
5.490000,0.042735,-0.780478,-0.000382,-2.356427,0.002703,1.569458,0.779050
5.500000,0.042729,-0.780477,-0.000383,-2.356434,0.002703,1.569460,0.779043
5.510000,0.042731,-0.780478,-0.000383,-2.356431,0.002702,1.569459,0.779044
5.520000,0.042731,-0.780478,-0.000383,-2.356432,0.002702,1.569459,0.779049
5.530000,0.042730,-0.780478,-0.000381,-2.356432,0.002699,1.569459,0.779048
5.540000,0.042731,-0.780482,-0.000383,-2.356432,0.002702,1.569459,0.779047
5.550000,0.042729,-0.780478,-0.000383,-2.356432,0.002703,1.569459,0.779044
5.560000,0.042733,-0.780480,-0.000385,-2.356431,0.002701,1.569459,0.779044
5.570000,0.042731,-0.780478,-0.000381,-2.356431,0.002701,1.569460,0.779047
5.580000,0.042731,-0.780482,-0.000383,-2.356431,0.002702,1.569460,0.779048
5.590000,0.042731,-0.780482,-0.000383,-2.356431,0.002701,1.569459,0.779049
5.600000,0.042730,-0.780476,-0.000385,-2.356431,0.002702,1.569458,0.779044
5.610000,0.042730,-0.780482,-0.000381,-2.356429,0.002703,1.569459,0.779047
5.620000,0.042729,-0.780480,-0.000387,-2.356429,0.002702,1.569459,0.779047
5.630000,0.042731,-0.780480,-0.000385,-2.356432,0.002701,1.569458,0.779045
5.640000,0.042728,-0.780482,-0.000381,-2.356427,0.002701,1.569459,0.779049
5.650000,0.042731,-0.780480,-0.000383,-2.356434,0.002703,1.569455,0.779046
5.660000,0.042730,-0.780480,-0.000379,-2.356436,0.002702,1.569455,0.779045
5.670000,0.042731,-0.780482,-0.000380,-2.356431,0.002702,1.569458,0.779047
5.680000,0.042731,-0.780482,-0.000383,-2.356432,0.002701,1.569458,0.779047
5.690000,0.042733,-0.780482,-0.000381,-2.356432,0.002703,1.569457,0.779049
5.700000,0.042731,-0.780476,-0.000378,-2.356432,0.002702,1.569459,0.779049
5.710000,0.042726,-0.780478,-0.000383,-2.356432,0.002702,1.569459,0.779049
5.720000,0.042728,-0.780483,-0.000383,-2.356432,0.002703,1.569456,0.779046
5.730000,0.042730,-0.780480,-0.000381,-2.356431,0.002701,1.569459,0.779045
5.740000,0.042730,-0.780478,-0.000378,-2.356432,0.002702,1.569455,0.779043
5.750000,0.042731,-0.780478,-0.000383,-2.356431,0.002701,1.569456,0.779043
5.760000,0.042728,-0.780480,-0.000381,-2.356432,0.002699,1.569455,0.779044
5.770000,0.042728,-0.780482,-0.000380,-2.356431,0.002703,1.569455,0.779045
5.780000,0.042728,-0.780480,-0.000381,-2.356431,0.002701,1.569456,0.779047
5.790000,0.042729,-0.780478,-0.000383,-2.356432,0.002699,1.569454,0.779045
5.800000,0.042727,-0.780480,-0.000386,-2.356432,0.002697,1.569456,0.779044
5.810000,0.042730,-0.780482,-0.000383,-2.356432,0.002701,1.569455,0.779049
5.820000,0.042730,-0.780476,-0.000385,-2.356432,0.002702,1.569454,0.779052
5.830000,0.042733,-0.780480,-0.000381,-2.356432,0.002703,1.569454,0.779041
5.840000,0.042730,-0.780478,-0.000383,-2.356431,0.002701,1.569454,0.779048
5.850000,0.042730,-0.780480,-0.000381,-2.356436,0.002703,1.569456,0.779047
5.860000,0.042730,-0.780480,-0.000383,-2.356429,0.002701,1.569454,0.779044
5.870000,0.042733,-0.780480,-0.000383,-2.356431,0.002701,1.569455,0.779046
5.880000,0.042730,-0.780483,-0.000383,-2.356432,0.002701,1.569455,0.779046
5.890000,0.042730,-0.780476,-0.000379,-2.356432,0.002702,1.569455,0.779049
5.900000,0.042733,-0.780480,-0.000381,-2.356432,0.002701,1.569452,0.779042
5.910000,0.042730,-0.780480,-0.000381,-2.356431,0.002698,1.569455,0.779043
5.920000,0.042731,-0.780478,-0.000383,-2.356432,0.002698,1.569455,0.779047
5.930000,0.042728,-0.780480,-0.000384,-2.356431,0.002699,1.569455,0.779050
5.940000,0.042733,-0.780482,-0.000385,-2.356432,0.002699,1.569455,0.779046
5.950000,0.042728,-0.780478,-0.000383,-2.356429,0.002698,1.569453,0.779046
5.960000,0.042731,-0.780476,-0.000385,-2.356432,0.002703,1.569454,0.779050
5.970000,0.042731,-0.780482,-0.000382,-2.356429,0.002702,1.569455,0.779042
5.980000,0.042730,-0.780480,-0.000379,-2.356436,0.002702,1.569455,0.779043
5.990000,0.042731,-0.780480,-0.000379,-2.356431,0.002702,1.569454,0.779049
6.000000,0.042731,-0.780478,-0.000383,-2.356432,0.002702,1.569454,0.779045
6.010000,0.042731,-0.780478,-0.000384,-2.356427,0.002701,1.569452,0.779046
6.020000,0.042731,-0.780478,-0.000386,-2.356432,0.002701,1.569455,0.779046
6.030000,0.042731,-0.780480,-0.000382,-2.356434,0.002702,1.569455,0.779048
6.040000,0.042731,-0.780480,-0.000379,-2.356431,0.002701,1.569454,0.779047
6.050000,0.042728,-0.780480,-0.000380,-2.356427,0.002702,1.569455,0.779042
6.060000,0.042731,-0.780480,-0.000381,-2.356431,0.002703,1.569454,0.779048
6.070000,0.042731,-0.780478,-0.000381,-2.356427,0.002701,1.569452,0.779045
6.080000,0.042730,-0.780476,-0.000381,-2.356431,0.002703,1.569455,0.779049
6.090000,0.042731,-0.780480,-0.000381,-2.356429,0.002702,1.569453,0.779044
6.100000,0.042731,-0.780483,-0.000383,-2.356429,0.002701,1.569450,0.779045
6.110000,0.042731,-0.780478,-0.000381,-2.356432,0.002702,1.569454,0.779044
6.120000,0.042730,-0.780478,-0.000385,-2.356427,0.002703,1.569454,0.779042
6.130000,0.042730,-0.780476,-0.000381,-2.356432,0.002704,1.569454,0.779042
6.140000,0.042728,-0.780480,-0.000378,-2.356431,0.002702,1.569455,0.779043
6.150000,0.042730,-0.780480,-0.000383,-2.356431,0.002702,1.569450,0.779042
6.160000,0.042730,-0.780481,-0.000379,-2.356432,0.002703,1.569454,0.779044
6.170000,0.042731,-0.780478,-0.000379,-2.356431,0.002702,1.569453,0.779049
6.180000,0.042733,-0.780480,-0.000381,-2.356429,0.002703,1.569450,0.779042
6.190000,0.042730,-0.780482,-0.000383,-2.356432,0.002701,1.569455,0.779045
6.200000,0.042733,-0.780480,-0.000381,-2.356432,0.002702,1.569449,0.779045
6.210000,0.042731,-0.780480,-0.000381,-2.356432,0.002702,1.569454,0.779046
6.220000,0.042728,-0.780478,-0.000381,-2.356431,0.002698,1.569450,0.779041
6.230000,0.042731,-0.780480,-0.000383,-2.356431,0.002699,1.569450,0.779048
6.240000,0.042731,-0.780480,-0.000383,-2.356429,0.002701,1.569451,0.779046
6.250000,0.042731,-0.780480,-0.000382,-2.356431,0.002701,1.569449,0.779049
6.260000,0.042731,-0.780480,-0.000381,-2.356434,0.002701,1.569449,0.779041
6.270000,0.042730,-0.780480,-0.000381,-2.356429,0.002703,1.569451,0.779049
6.280000,0.042730,-0.780480,-0.000383,-2.356429,0.002702,1.569450,0.779046
6.290000,0.042731,-0.780480,-0.000380,-2.356434,0.002703,1.569451,0.779046
6.300000,0.042730,-0.780482,-0.000383,-2.356429,0.002703,1.569449,0.779046
6.310000,0.042730,-0.780482,-0.000379,-2.356431,0.002703,1.569451,0.779047
6.320000,0.042731,-0.780482,-0.000385,-2.356432,0.002702,1.569449,0.779044
6.330000,0.042731,-0.780480,-0.000381,-2.356434,0.002701,1.569449,0.779047
6.340000,0.042731,-0.780480,-0.000381,-2.356434,0.002701,1.569449,0.779047
6.350000,0.042733,-0.780478,-0.000383,-2.356434,0.002701,1.569448,0.779046
6.360000,0.042731,-0.780480,-0.000383,-2.356431,0.002699,1.569450,0.779047
6.370000,0.042730,-0.780480,-0.000383,-2.356431,0.002701,1.569450,0.779041
6.380000,0.042731,-0.780478,-0.000379,-2.356431,0.002702,1.569450,0.779044
6.390000,0.042730,-0.780480,-0.000381,-2.356431,0.002702,1.569450,0.779044
6.400000,0.042731,-0.780478,-0.000383,-2.356431,0.002700,1.569448,0.779048
6.410000,0.042733,-0.780478,-0.000385,-2.356429,0.002701,1.569450,0.779045
6.420000,0.042731,-0.780480,-0.000383,-2.356434,0.002702,1.569450,0.779044
6.430000,0.042730,-0.780480,-0.000383,-2.356432,0.002702,1.569450,0.779045
6.440000,0.042730,-0.780480,-0.000380,-2.356431,0.002703,1.569450,0.779042
6.450000,0.042730,-0.780480,-0.000382,-2.356432,0.002701,1.569449,0.779044
6.460000,0.042730,-0.780482,-0.000389,-2.356436,0.002701,1.569449,0.779047
6.470000,0.042730,-0.780480,-0.000385,-2.356432,0.002701,1.569449,0.779042
6.480000,0.042730,-0.780480,-0.000381,-2.356432,0.002703,1.569449,0.779046
6.490000,0.042730,-0.780482,-0.000381,-2.356429,0.002701,1.569449,0.779040
6.500000,0.042731,-0.780480,-0.000385,-2.356432,0.002702,1.569451,0.779049
6.510000,0.042730,-0.780480,-0.000384,-2.356431,0.002701,1.569450,0.779047
6.520000,0.042733,-0.780482,-0.000385,-2.356432,0.002702,1.569449,0.779048
6.530000,0.042731,-0.780478,-0.000383,-2.356432,0.002702,1.569449,0.779048
6.540000,0.042730,-0.780478,-0.000381,-2.356432,0.002702,1.569449,0.779049
6.550000,0.042731,-0.780482,-0.000385,-2.356427,0.002702,1.569448,0.779042
6.560000,0.042733,-0.780478,-0.000380,-2.356432,0.002701,1.569448,0.779046
6.570000,0.042733,-0.780478,-0.000381,-2.356431,0.002702,1.569448,0.779045
6.580000,0.042733,-0.780478,-0.000385,-2.356429,0.002701,1.569451,0.779047
6.590000,0.042730,-0.780480,-0.000383,-2.356432,0.002702,1.569449,0.779044
6.600000,0.042733,-0.780478,-0.000385,-2.356429,0.002701,1.569450,0.779041
6.610000,0.042731,-0.780482,-0.000383,-2.356431,0.002701,1.569450,0.779044
6.620000,0.042728,-0.780480,-0.000379,-2.356432,0.002701,1.569448,0.779046
6.630000,0.042733,-0.780478,-0.000381,-2.356429,0.002702,1.569448,0.779048
6.640000,0.042728,-0.780480,-0.000383,-2.356429,0.002701,1.569449,0.779046
6.650000,0.042731,-0.780480,-0.000381,-2.356432,0.002702,1.569447,0.779049
6.660000,0.042730,-0.780478,-0.000383,-2.356432,0.002702,1.569444,0.779046
6.670000,0.042728,-0.780483,-0.000385,-2.356429,0.002702,1.569445,0.779051
6.680000,0.042731,-0.780482,-0.000383,-2.356427,0.002701,1.569446,0.779043
6.690000,0.042737,-0.780482,-0.000383,-2.356431,0.002703,1.569445,0.779049
6.700000,0.042733,-0.780482,-0.000385,-2.356432,0.002699,1.569446,0.779045
6.710000,0.042731,-0.780480,-0.000385,-2.356429,0.002701,1.569445,0.779044
6.720000,0.042731,-0.780478,-0.000383,-2.356431,0.002702,1.569446,0.779044
6.730000,0.042728,-0.780480,-0.000381,-2.356431,0.002702,1.569444,0.779041
6.740000,0.042730,-0.780480,-0.000386,-2.356431,0.002701,1.569444,0.779043
6.750000,0.042731,-0.780480,-0.000380,-2.356431,0.002701,1.569446,0.779045
6.760000,0.042733,-0.780476,-0.000381,-2.356434,0.002702,1.569447,0.779043
6.770000,0.042730,-0.780480,-0.000381,-2.356431,0.002702,1.569446,0.779043
6.780000,0.042731,-0.780480,-0.000381,-2.356431,0.002702,1.569445,0.779041
6.790000,0.042730,-0.780480,-0.000383,-2.356432,0.002701,1.569445,0.779042
6.800000,0.042730,-0.780480,-0.000383,-2.356432,0.002702,1.569444,0.779042
6.810000,0.042731,-0.780478,-0.000385,-2.356432,0.002703,1.569444,0.779043
6.820000,0.042731,-0.780480,-0.000383,-2.356431,0.002700,1.569446,0.779048
6.830000,0.042731,-0.780478,-0.000383,-2.356434,0.002701,1.569444,0.779051
6.840000,0.042730,-0.780480,-0.000377,-2.356432,0.002701,1.569445,0.779043
6.850000,0.042731,-0.780478,-0.000385,-2.356431,0.002701,1.569443,0.779043
6.860000,0.042731,-0.780478,-0.000386,-2.356431,0.002703,1.569445,0.779046
6.870000,0.042730,-0.780480,-0.000382,-2.356431,0.002701,1.569444,0.779041
6.880000,0.042731,-0.780480,-0.000385,-2.356431,0.002700,1.569447,0.779047
6.890000,0.042729,-0.780482,-0.000385,-2.356432,0.002702,1.569443,0.779046
6.900000,0.042731,-0.780482,-0.000385,-2.356432,0.002702,1.569445,0.779044
6.910000,0.042730,-0.780480,-0.000383,-2.356429,0.002698,1.569446,0.779045
6.920000,0.042732,-0.780478,-0.000383,-2.356432,0.002700,1.569443,0.779044
6.930000,0.042728,-0.780482,-0.000381,-2.356434,0.002702,1.569443,0.779048
6.940000,0.042732,-0.780483,-0.000381,-2.356431,0.002701,1.569445,0.779046
6.950000,0.042731,-0.780482,-0.000381,-2.356432,0.002701,1.569443,0.779044
6.960000,0.042733,-0.780478,-0.000379,-2.356431,0.002702,1.569444,0.779044
6.970000,0.042733,-0.780483,-0.000379,-2.356432,0.002701,1.569444,0.779044
6.980000,0.042733,-0.780480,-0.000385,-2.356429,0.002703,1.569446,0.779041
6.990000,0.042730,-0.780478,-0.000385,-2.356432,0.002702,1.569444,0.779049
7.000000,0.042728,-0.780482,-0.000385,-2.356432,0.002701,1.569446,0.779044
7.010000,0.042728,-0.780480,-0.000385,-2.356434,0.002701,1.569443,0.779048
7.020000,0.042731,-0.780480,-0.000385,-2.356434,0.002700,1.569444,0.779049
7.030000,0.042730,-0.780478,-0.000385,-2.356429,0.002701,1.569446,0.779045
7.040000,0.042730,-0.780480,-0.000383,-2.356431,0.002703,1.569446,0.779046
7.050000,0.042733,-0.780480,-0.000379,-2.356432,0.002702,1.569445,0.779045
7.060000,0.042730,-0.780478,-0.000381,-2.356432,0.002701,1.569445,0.779049
7.070000,0.042731,-0.780480,-0.000381,-2.356432,0.002702,1.569445,0.779050
7.080000,0.042735,-0.780480,-0.000386,-2.356431,0.002701,1.569443,0.779041
7.090000,0.042732,-0.780480,-0.000383,-2.356434,0.002699,1.569444,0.779049
7.100000,0.042734,-0.780482,-0.000383,-2.356429,0.002700,1.569445,0.779044
7.110000,0.042731,-0.780482,-0.000382,-2.356429,0.002702,1.569442,0.779044
7.120000,0.042730,-0.780476,-0.000381,-2.356436,0.002702,1.569443,0.779046
7.130000,0.042731,-0.780478,-0.000383,-2.356432,0.002701,1.569439,0.779044
7.140000,0.042732,-0.780478,-0.000385,-2.356432,0.002701,1.569441,0.779043
7.150000,0.042730,-0.780478,-0.000381,-2.356432,0.002701,1.569441,0.779045
7.160000,0.042726,-0.780482,-0.000383,-2.356432,0.002701,1.569440,0.779046
7.170000,0.042728,-0.780482,-0.000383,-2.356432,0.002701,1.569440,0.779045
7.180000,0.042734,-0.780478,-0.000383,-2.356432,0.002702,1.569439,0.779044
7.190000,0.042730,-0.780478,-0.000377,-2.356432,0.002699,1.569439,0.779045
7.200000,0.042732,-0.780480,-0.000379,-2.356432,0.002703,1.569439,0.779042
7.210000,0.042728,-0.780480,-0.000381,-2.356429,0.002701,1.569441,0.779043
7.220000,0.042732,-0.780480,-0.000385,-2.356429,0.002702,1.569439,0.779048
7.230000,0.042734,-0.780478,-0.000383,-2.356432,0.002701,1.569439,0.779050
7.240000,0.042726,-0.780476,-0.000383,-2.356434,0.002702,1.569440,0.779045
7.250000,0.042730,-0.780481,-0.000381,-2.356431,0.002702,1.569440,0.779044
7.260000,0.042731,-0.780476,-0.000381,-2.356432,0.002702,1.569440,0.779046
7.270000,0.042729,-0.780478,-0.000379,-2.356429,0.002701,1.569439,0.779046
7.280000,0.042730,-0.780478,-0.000383,-2.356432,0.002702,1.569439,0.779047
7.290000,0.042730,-0.780482,-0.000385,-2.356429,0.002700,1.569441,0.779045
7.300000,0.042732,-0.780482,-0.000381,-2.356431,0.002702,1.569442,0.779042
7.310000,0.042733,-0.780476,-0.000385,-2.356432,0.002701,1.569439,0.779043
7.320000,0.042731,-0.780482,-0.000383,-2.356432,0.002702,1.569440,0.779053
7.330000,0.042730,-0.780482,-0.000387,-2.356431,0.002701,1.569440,0.779046
7.340000,0.042732,-0.780478,-0.000379,-2.356431,0.002699,1.569439,0.779049
7.350000,0.042732,-0.780476,-0.000383,-2.356434,0.002699,1.569439,0.779046
7.360000,0.042730,-0.780480,-0.000381,-2.356427,0.002703,1.569442,0.779044
7.370000,0.042728,-0.780482,-0.000381,-2.356432,0.002702,1.569440,0.779044
7.380000,0.042732,-0.780478,-0.000381,-2.356434,0.002702,1.569439,0.779045
7.390000,0.042733,-0.780480,-0.000385,-2.356429,0.002702,1.569439,0.779047
7.400000,0.042732,-0.780478,-0.000385,-2.356431,0.002701,1.569441,0.779045
7.410000,0.042730,-0.780480,-0.000381,-2.356432,0.002701,1.569439,0.779044
7.420000,0.042732,-0.780480,-0.000380,-2.356436,0.002703,1.569439,0.779049
7.430000,0.042731,-0.780478,-0.000384,-2.356429,0.002703,1.569439,0.779049
7.440000,0.042728,-0.780475,-0.000385,-2.356429,0.002701,1.569440,0.779049
7.450000,0.042732,-0.780480,-0.000382,-2.356431,0.002702,1.569439,0.779041
7.460000,0.042732,-0.780478,-0.000383,-2.356432,0.002699,1.569436,0.779048
7.470000,0.042733,-0.780482,-0.000383,-2.356429,0.002703,1.569441,0.779045
7.480000,0.042736,-0.780480,-0.000381,-2.356431,0.002703,1.569439,0.779048
7.490000,0.042733,-0.780483,-0.000385,-2.356431,0.002701,1.569441,0.779049
7.500000,0.042733,-0.780480,-0.000383,-2.356427,0.002698,1.569435,0.779047
7.510000,0.042730,-0.780480,-0.000385,-2.356432,0.002700,1.569440,0.779046
7.520000,0.042734,-0.780480,-0.000383,-2.356434,0.002703,1.569439,0.779045
7.530000,0.042732,-0.780478,-0.000383,-2.356429,0.002702,1.569439,0.779044
7.540000,0.042729,-0.780482,-0.000383,-2.356427,0.002701,1.569438,0.779042
7.550000,0.042728,-0.780478,-0.000381,-2.356434,0.002698,1.569436,0.779046
7.560000,0.042732,-0.780476,-0.000379,-2.356431,0.002702,1.569439,0.779045
7.570000,0.042732,-0.780480,-0.000381,-2.356429,0.002701,1.569436,0.779046
7.580000,0.042733,-0.780478,-0.000381,-2.356432,0.002701,1.569437,0.779043
7.590000,0.042732,-0.780480,-0.000379,-2.356429,0.002702,1.569436,0.779046
7.600000,0.042730,-0.780478,-0.000383,-2.356429,0.002702,1.569437,0.779049
7.610000,0.042730,-0.780478,-0.000381,-2.356429,0.002702,1.569437,0.779045
7.620000,0.042732,-0.780477,-0.000382,-2.356432,0.002702,1.569435,0.779047
7.630000,0.042728,-0.780478,-0.000381,-2.356431,0.002701,1.569436,0.779047
7.640000,0.042734,-0.780480,-0.000381,-2.356429,0.002702,1.569435,0.779044
7.650000,0.042732,-0.780480,-0.000383,-2.356432,0.002702,1.569435,0.779045
7.660000,0.042734,-0.780476,-0.000384,-2.356434,0.002702,1.569435,0.779048
7.670000,0.042730,-0.780480,-0.000381,-2.356429,0.002702,1.569434,0.779049
7.680000,0.042734,-0.780480,-0.000383,-2.356431,0.002702,1.569435,0.779043
7.690000,0.042732,-0.780480,-0.000381,-2.356431,0.002702,1.569436,0.779043
7.700000,0.042730,-0.780478,-0.000383,-2.356432,0.002702,1.569437,0.779041
7.710000,0.042735,-0.780480,-0.000383,-2.356432,0.002701,1.569436,0.779047
7.720000,0.042734,-0.780480,-0.000383,-2.356431,0.002701,1.569434,0.779049
7.730000,0.042733,-0.780480,-0.000383,-2.356432,0.002701,1.569435,0.779049
7.740000,0.042730,-0.780480,-0.000385,-2.356432,0.002702,1.569435,0.779049
7.750000,0.042734,-0.780480,-0.000383,-2.356429,0.002697,1.569435,0.779049
7.760000,0.042734,-0.780478,-0.000383,-2.356429,0.002703,1.569435,0.779044
7.770000,0.042732,-0.780482,-0.000383,-2.356431,0.002699,1.569435,0.779047
7.780000,0.042731,-0.780476,-0.000382,-2.356434,0.002701,1.569435,0.779045
7.790000,0.042731,-0.780480,-0.000381,-2.356431,0.002702,1.569434,0.779040
7.800000,0.042736,-0.780482,-0.000383,-2.356432,0.002702,1.569435,0.779047
7.810000,0.042732,-0.780478,-0.000385,-2.356432,0.002702,1.569435,0.779048
7.820000,0.042736,-0.780480,-0.000380,-2.356436,0.002701,1.569434,0.779047
7.830000,0.042734,-0.780478,-0.000383,-2.356429,0.002702,1.569435,0.779049
7.840000,0.042734,-0.780480,-0.000383,-2.356434,0.002700,1.569435,0.779048
7.850000,0.042734,-0.780478,-0.000385,-2.356432,0.002702,1.569435,0.779045
7.860000,0.042734,-0.780478,-0.000381,-2.356429,0.002701,1.569435,0.779046
7.870000,0.042731,-0.780478,-0.000380,-2.356432,0.002702,1.569435,0.779047
7.880000,0.042732,-0.780480,-0.000385,-2.356434,0.002701,1.569435,0.779045
7.890000,0.042734,-0.780480,-0.000383,-2.356432,0.002700,1.569435,0.779041
7.900000,0.042733,-0.780482,-0.000385,-2.356429,0.002702,1.569436,0.779047
7.910000,0.042731,-0.780480,-0.000383,-2.356432,0.002702,1.569436,0.779042
7.920000,0.042733,-0.780480,-0.000383,-2.356432,0.002703,1.569435,0.779047
7.930000,0.042734,-0.780480,-0.000381,-2.356431,0.002703,1.569435,0.779046
7.940000,0.042734,-0.780480,-0.000383,-2.356432,0.002701,1.569436,0.779045
7.950000,0.042732,-0.780483,-0.000381,-2.356431,0.002701,1.569436,0.779046
7.960000,0.042736,-0.780480,-0.000380,-2.356431,0.002701,1.569435,0.779043
7.970000,0.042734,-0.780480,-0.000381,-2.356431,0.002702,1.569435,0.779046
7.980000,0.042731,-0.780482,-0.000385,-2.356432,0.002702,1.569435,0.779046
7.990000,0.042731,-0.780480,-0.000383,-2.356434,0.002701,1.569434,0.779042
8.000000,0.042734,-0.780478,-0.000385,-2.356431,0.002702,1.569431,0.779044
8.010000,0.042734,-0.780482,-0.000383,-2.356431,0.002701,1.569435,0.779051
8.020000,0.042732,-0.780482,-0.000382,-2.356431,0.002702,1.569435,0.779046
8.030000,0.042733,-0.780478,-0.000381,-2.356432,0.002701,1.569435,0.779041
8.040000,0.042731,-0.780478,-0.000381,-2.356434,0.002702,1.569436,0.779045
8.050000,0.042734,-0.780478,-0.000386,-2.356431,0.002702,1.569433,0.779046
8.060000,0.042733,-0.780480,-0.000381,-2.356432,0.002701,1.569435,0.779049
8.070000,0.042734,-0.780480,-0.000385,-2.356434,0.002703,1.569435,0.779048
8.080000,0.042736,-0.780482,-0.000381,-2.356431,0.002698,1.569430,0.779041
8.090000,0.042733,-0.780478,-0.000381,-2.356429,0.002701,1.569434,0.779039
8.100000,0.042726,-0.780476,-0.000380,-2.356431,0.002703,1.569436,0.779050
8.110000,0.042734,-0.780482,-0.000379,-2.356431,0.002699,1.569431,0.779044
8.120000,0.042734,-0.780480,-0.000381,-2.356432,0.002703,1.569431,0.779046
8.130000,0.042734,-0.780480,-0.000385,-2.356432,0.002702,1.569435,0.779046
8.140000,0.042732,-0.780480,-0.000385,-2.356431,0.002701,1.569435,0.779046
8.150000,0.042733,-0.780478,-0.000383,-2.356432,0.002701,1.569433,0.779044
8.160000,0.042731,-0.780478,-0.000383,-2.356429,0.002702,1.569432,0.779044
8.170000,0.042733,-0.780482,-0.000381,-2.356436,0.002701,1.569431,0.779042
8.180000,0.042736,-0.780480,-0.000383,-2.356432,0.002701,1.569431,0.779041
8.190000,0.042733,-0.780480,-0.000383,-2.356431,0.002702,1.569431,0.779043
8.200000,0.042733,-0.780482,-0.000379,-2.356431,0.002700,1.569431,0.779044
8.210000,0.042731,-0.780478,-0.000381,-2.356432,0.002702,1.569429,0.779047
8.220000,0.042734,-0.780480,-0.000383,-2.356436,0.002701,1.569430,0.779044
8.230000,0.042734,-0.780480,-0.000381,-2.356431,0.002701,1.569434,0.779046
8.240000,0.042731,-0.780478,-0.000385,-2.356432,0.002702,1.569430,0.779047
8.250000,0.042738,-0.780478,-0.000383,-2.356431,0.002703,1.569430,0.779045
8.260000,0.042736,-0.780482,-0.000380,-2.356434,0.002701,1.569430,0.779044
8.270000,0.042734,-0.780478,-0.000383,-2.356429,0.002702,1.569431,0.779046
8.280000,0.042738,-0.780476,-0.000383,-2.356436,0.002702,1.569431,0.779043
8.290000,0.042734,-0.780480,-0.000383,-2.356432,0.002703,1.569430,0.779049
8.300000,0.042734,-0.780482,-0.000383,-2.356432,0.002702,1.569430,0.779044
8.310000,0.042732,-0.780478,-0.000385,-2.356432,0.002702,1.569431,0.779044
8.320000,0.042733,-0.780478,-0.000385,-2.356434,0.002701,1.569431,0.779047
8.330000,0.042736,-0.780480,-0.000383,-2.356432,0.002702,1.569430,0.779046
8.340000,0.042732,-0.780478,-0.000383,-2.356431,0.002702,1.569431,0.779044
8.350000,0.042734,-0.780478,-0.000383,-2.356434,0.002702,1.569429,0.779044
8.360000,0.042733,-0.780480,-0.000384,-2.356432,0.002701,1.569429,0.779045
8.370000,0.042738,-0.780482,-0.000385,-2.356434,0.002702,1.569431,0.779041
8.380000,0.042731,-0.780482,-0.000379,-2.356431,0.002703,1.569431,0.779045
8.390000,0.042733,-0.780483,-0.000383,-2.356434,0.002703,1.569431,0.779046
8.400000,0.042733,-0.780480,-0.000387,-2.356432,0.002701,1.569431,0.779044
8.410000,0.042733,-0.780478,-0.000385,-2.356427,0.002702,1.569430,0.779047
8.420000,0.042736,-0.780478,-0.000381,-2.356431,0.002701,1.569430,0.779046
8.430000,0.042734,-0.780478,-0.000383,-2.356431,0.002702,1.569430,0.779043
8.440000,0.042733,-0.780480,-0.000381,-2.356434,0.002701,1.569431,0.779044
8.450000,0.042734,-0.780480,-0.000383,-2.356429,0.002702,1.569430,0.779048
8.460000,0.042734,-0.780482,-0.000381,-2.356431,0.002701,1.569430,0.779045
8.470000,0.042733,-0.780482,-0.000382,-2.356434,0.002702,1.569430,0.779043
8.480000,0.042734,-0.780480,-0.000381,-2.356436,0.002703,1.569431,0.779044
8.490000,0.042734,-0.780478,-0.000382,-2.356431,0.002702,1.569430,0.779047
8.500000,0.042734,-0.780482,-0.000381,-2.356431,0.002701,1.569431,0.779049
8.510000,0.042736,-0.780482,-0.000383,-2.356431,0.002702,1.569430,0.779044
8.520000,0.042734,-0.780480,-0.000385,-2.356431,0.002700,1.569431,0.779047
8.530000,0.042733,-0.780480,-0.000383,-2.356432,0.002703,1.569432,0.779044
8.540000,0.042733,-0.780483,-0.000384,-2.356432,0.002702,1.569429,0.779045
8.550000,0.042731,-0.780480,-0.000382,-2.356432,0.002701,1.569430,0.779047
8.560000,0.042734,-0.780483,-0.000385,-2.356429,0.002703,1.569426,0.779045
8.570000,0.042733,-0.780482,-0.000385,-2.356432,0.002702,1.569426,0.779048
8.580000,0.042734,-0.780476,-0.000385,-2.356431,0.002698,1.569426,0.779044
8.590000,0.042733,-0.780480,-0.000383,-2.356431,0.002701,1.569431,0.779042
8.600000,0.042734,-0.780480,-0.000381,-2.356429,0.002702,1.569426,0.779043
8.610000,0.042734,-0.780480,-0.000381,-2.356431,0.002701,1.569430,0.779045
8.620000,0.042733,-0.780478,-0.000385,-2.356431,0.002702,1.569426,0.779044
8.630000,0.042736,-0.780478,-0.000383,-2.356431,0.002702,1.569429,0.779046
8.640000,0.042736,-0.780482,-0.000386,-2.356431,0.002700,1.569429,0.779046
8.650000,0.042734,-0.780479,-0.000380,-2.356434,0.002702,1.569426,0.779046
8.660000,0.042733,-0.780480,-0.000383,-2.356431,0.002702,1.569429,0.779046
8.670000,0.042733,-0.780478,-0.000383,-2.356434,0.002700,1.569428,0.779044
8.680000,0.042731,-0.780480,-0.000381,-2.356431,0.002702,1.569426,0.779050
8.690000,0.042734,-0.780480,-0.000383,-2.356431,0.002701,1.569426,0.779050
8.700000,0.042736,-0.780478,-0.000385,-2.356431,0.002699,1.569428,0.779044
8.710000,0.042731,-0.780478,-0.000386,-2.356431,0.002700,1.569427,0.779047
8.720000,0.042736,-0.780478,-0.000383,-2.356432,0.002701,1.569426,0.779046
8.730000,0.042734,-0.780480,-0.000382,-2.356431,0.002702,1.569425,0.779047
8.740000,0.042734,-0.780478,-0.000381,-2.356431,0.002702,1.569427,0.779047
8.750000,0.042733,-0.780480,-0.000381,-2.356432,0.002702,1.569430,0.779048
8.760000,0.042734,-0.780478,-0.000385,-2.356431,0.002703,1.569426,0.779049
8.770000,0.042736,-0.780478,-0.000382,-2.356429,0.002700,1.569426,0.779047
8.780000,0.042733,-0.780480,-0.000382,-2.356431,0.002702,1.569425,0.779049
8.790000,0.042734,-0.780478,-0.000385,-2.356434,0.002702,1.569426,0.779048
8.800000,0.042736,-0.780482,-0.000383,-2.356431,0.002701,1.569426,0.779048
8.810000,0.042736,-0.780480,-0.000384,-2.356432,0.002701,1.569426,0.779046
8.820000,0.042733,-0.780478,-0.000383,-2.356431,0.002700,1.569427,0.779046
8.830000,0.042734,-0.780480,-0.000384,-2.356436,0.002701,1.569425,0.779041
8.840000,0.042733,-0.780480,-0.000381,-2.356429,0.002702,1.569425,0.779046
8.850000,0.042733,-0.780482,-0.000381,-2.356429,0.002701,1.569425,0.779050
8.860000,0.042731,-0.780482,-0.000383,-2.356429,0.002702,1.569426,0.779043
8.870000,0.042736,-0.780478,-0.000381,-2.356432,0.002703,1.569426,0.779046
8.880000,0.042734,-0.780480,-0.000385,-2.356432,0.002699,1.569425,0.779049
8.890000,0.042733,-0.780480,-0.000381,-2.356431,0.002698,1.569426,0.779044
8.900000,0.042733,-0.780480,-0.000380,-2.356431,0.002698,1.569424,0.779049
8.910000,0.042733,-0.780480,-0.000385,-2.356434,0.002702,1.569426,0.779050
8.920000,0.042735,-0.780480,-0.000377,-2.356432,0.002701,1.569427,0.779048
8.930000,0.042733,-0.780482,-0.000383,-2.356432,0.002703,1.569425,0.779043
8.940000,0.042731,-0.780481,-0.000381,-2.356429,0.002699,1.569426,0.779041
8.950000,0.042734,-0.780478,-0.000383,-2.356432,0.002702,1.569426,0.779046
8.960000,0.042731,-0.780478,-0.000385,-2.356431,0.002702,1.569425,0.779049
8.970000,0.042734,-0.780482,-0.000383,-2.356434,0.002701,1.569424,0.779047
8.980000,0.042734,-0.780480,-0.000383,-2.356432,0.002697,1.569424,0.779044
8.990000,0.042736,-0.780482,-0.000381,-2.356432,0.002702,1.569425,0.779046
9.000000,0.042736,-0.780482,-0.000381,-2.356429,0.002702,1.569426,0.779045
9.010000,0.042733,-0.780478,-0.000385,-2.356434,0.002701,1.569424,0.779044
9.020000,0.042734,-0.780478,-0.000383,-2.356435,0.002702,1.569421,0.779044
9.030000,0.042734,-0.780482,-0.000381,-2.356429,0.002702,1.569426,0.779051
9.040000,0.042735,-0.780476,-0.000381,-2.356431,0.002703,1.569425,0.779045
9.050000,0.042731,-0.780476,-0.000385,-2.356432,0.002701,1.569422,0.779048
9.060000,0.042734,-0.780483,-0.000382,-2.356429,0.002701,1.569423,0.779047
9.070000,0.042734,-0.780480,-0.000385,-2.356431,0.002701,1.569425,0.779047
9.080000,0.042734,-0.780480,-0.000383,-2.356429,0.002701,1.569423,0.779048
9.090000,0.042731,-0.780478,-0.000385,-2.356431,0.002702,1.569425,0.779046
9.100000,0.042731,-0.780480,-0.000385,-2.356436,0.002701,1.569422,0.779049
9.110000,0.042736,-0.780480,-0.000383,-2.356436,0.002701,1.569420,0.779044
9.120000,0.042734,-0.780480,-0.000381,-2.356429,0.002701,1.569426,0.779044
9.130000,0.042734,-0.780482,-0.000381,-2.356431,0.002701,1.569422,0.779041
9.140000,0.042731,-0.780478,-0.000383,-2.356432,0.002701,1.569424,0.779047
9.150000,0.042736,-0.780482,-0.000379,-2.356429,0.002700,1.569420,0.779043
9.160000,0.042736,-0.780476,-0.000383,-2.356432,0.002701,1.569422,0.779044
9.170000,0.042735,-0.780478,-0.000381,-2.356434,0.002702,1.569421,0.779045
9.180000,0.042731,-0.780480,-0.000381,-2.356431,0.002699,1.569422,0.779045
9.190000,0.042734,-0.780478,-0.000381,-2.356429,0.002697,1.569420,0.779045
9.200000,0.042733,-0.780480,-0.000383,-2.356431,0.002701,1.569423,0.779049
9.210000,0.042733,-0.780480,-0.000381,-2.356432,0.002700,1.569422,0.779045
9.220000,0.042736,-0.780480,-0.000387,-2.356432,0.002701,1.569422,0.779044
9.230000,0.042733,-0.780482,-0.000385,-2.356431,0.002701,1.569420,0.779050
9.240000,0.042731,-0.780476,-0.000385,-2.356432,0.002701,1.569419,0.779049
9.250000,0.042733,-0.780480,-0.000386,-2.356429,0.002701,1.569421,0.779046
9.260000,0.042734,-0.780483,-0.000383,-2.356434,0.002701,1.569422,0.779049
9.270000,0.042734,-0.780480,-0.000382,-2.356432,0.002703,1.569422,0.779046
9.280000,0.042734,-0.780482,-0.000383,-2.356431,0.002701,1.569421,0.779047
9.290000,0.042736,-0.780483,-0.000381,-2.356434,0.002702,1.569421,0.779051
9.300000,0.042733,-0.780476,-0.000384,-2.356432,0.002701,1.569420,0.779043
9.310000,0.042734,-0.780480,-0.000381,-2.356429,0.002703,1.569420,0.779041
9.320000,0.042733,-0.780482,-0.000383,-2.356431,0.002701,1.569422,0.779044
9.330000,0.042729,-0.780482,-0.000383,-2.356432,0.002702,1.569420,0.779042
9.340000,0.042735,-0.780480,-0.000385,-2.356434,0.002702,1.569420,0.779047
9.350000,0.042734,-0.780480,-0.000383,-2.356429,0.002701,1.569420,0.779042
9.360000,0.042734,-0.780480,-0.000381,-2.356429,0.002702,1.569421,0.779046
9.370000,0.042736,-0.780478,-0.000381,-2.356434,0.002702,1.569422,0.779049
9.380000,0.042733,-0.780478,-0.000383,-2.356431,0.002701,1.569421,0.779046
9.390000,0.042736,-0.780481,-0.000383,-2.356431,0.002703,1.569421,0.779044
9.400000,0.042734,-0.780480,-0.000385,-2.356432,0.002702,1.569422,0.779047
9.410000,0.042734,-0.780476,-0.000385,-2.356429,0.002699,1.569421,0.779044
9.420000,0.042736,-0.780480,-0.000383,-2.356431,0.002697,1.569420,0.779046
9.430000,0.042731,-0.780478,-0.000381,-2.356432,0.002702,1.569420,0.779044
9.440000,0.042736,-0.780480,-0.000386,-2.356432,0.002702,1.569422,0.779043
9.450000,0.042733,-0.780482,-0.000383,-2.356434,0.002703,1.569420,0.779046
9.460000,0.042733,-0.780482,-0.000385,-2.356432,0.002702,1.569420,0.779043
9.470000,0.042734,-0.780478,-0.000379,-2.356432,0.002701,1.569420,0.779044
9.480000,0.042733,-0.780482,-0.000386,-2.356432,0.002700,1.569420,0.779043
9.490000,0.042733,-0.780482,-0.000386,-2.356431,0.002702,1.569420,0.779044
9.500000,0.042735,-0.780482,-0.000380,-2.356431,0.002702,1.569420,0.779047
9.510000,0.042733,-0.780480,-0.000383,-2.356431,0.002703,1.569420,0.779044
9.520000,0.042733,-0.780480,-0.000385,-2.356431,0.002701,1.569420,0.779044
9.530000,0.042731,-0.780480,-0.000379,-2.356431,0.002701,1.569421,0.779043
9.540000,0.042738,-0.780478,-0.000383,-2.356429,0.002702,1.569420,0.779047
9.550000,0.042736,-0.780480,-0.000381,-2.356429,0.002703,1.569420,0.779043
9.560000,0.042737,-0.780480,-0.000379,-2.356432,0.002701,1.569420,0.779048
9.570000,0.042735,-0.780480,-0.000381,-2.356432,0.002702,1.569420,0.779047
9.580000,0.042734,-0.780477,-0.000385,-2.356436,0.002701,1.569420,0.779050
9.590000,0.042734,-0.780478,-0.000385,-2.356432,0.002699,1.569421,0.779041
9.600000,0.042735,-0.780480,-0.000383,-2.356431,0.002699,1.569422,0.779042
9.610000,0.042734,-0.780478,-0.000384,-2.356431,0.002703,1.569421,0.779046
9.620000,0.042735,-0.780479,-0.000385,-2.356429,0.002702,1.569421,0.779041
9.630000,0.042737,-0.780480,-0.000385,-2.356434,0.002699,1.569419,0.779046
9.640000,0.042735,-0.780482,-0.000389,-2.356431,0.002701,1.569422,0.779042
9.650000,0.042733,-0.780480,-0.000378,-2.356429,0.002701,1.569420,0.779047
9.660000,0.042738,-0.780480,-0.000380,-2.356431,0.002703,1.569415,0.779046
9.670000,0.042734,-0.780482,-0.000385,-2.356432,0.002701,1.569420,0.779043
9.680000,0.042732,-0.780482,-0.000383,-2.356431,0.002703,1.569415,0.779047
9.690000,0.042736,-0.780478,-0.000381,-2.356431,0.002703,1.569418,0.779042
9.700000,0.042733,-0.780480,-0.000381,-2.356431,0.002703,1.569416,0.779049
9.710000,0.042733,-0.780480,-0.000381,-2.356429,0.002701,1.569419,0.779049
9.720000,0.042735,-0.780480,-0.000385,-2.356429,0.002700,1.569418,0.779047
9.730000,0.042734,-0.780482,-0.000381,-2.356431,0.002702,1.569418,0.779043
9.740000,0.042739,-0.780478,-0.000383,-2.356434,0.002703,1.569415,0.779047
9.750000,0.042736,-0.780477,-0.000382,-2.356432,0.002702,1.569417,0.779044
9.760000,0.042734,-0.780480,-0.000381,-2.356429,0.002702,1.569418,0.779046
9.770000,0.042734,-0.780478,-0.000381,-2.356434,0.002701,1.569416,0.779046
9.780000,0.042732,-0.780478,-0.000382,-2.356427,0.002701,1.569417,0.779044
9.790000,0.042737,-0.780482,-0.000386,-2.356429,0.002703,1.569416,0.779048
9.800000,0.042733,-0.780478,-0.000385,-2.356434,0.002702,1.569416,0.779046
9.810000,0.042734,-0.780478,-0.000383,-2.356432,0.002701,1.569417,0.779043
9.820000,0.042733,-0.780480,-0.000381,-2.356431,0.002701,1.569416,0.779045
9.830000,0.042728,-0.780482,-0.000381,-2.356431,0.002702,1.569416,0.779044
9.840000,0.042737,-0.780479,-0.000385,-2.356431,0.002701,1.569414,0.779048
9.850000,0.042735,-0.780483,-0.000379,-2.356432,0.002703,1.569417,0.779046
9.860000,0.042731,-0.780482,-0.000383,-2.356429,0.002701,1.569417,0.779050
9.870000,0.042735,-0.780482,-0.000383,-2.356431,0.002701,1.569417,0.779046
9.880000,0.042734,-0.780482,-0.000381,-2.356434,0.002701,1.569416,0.779046
9.890000,0.042733,-0.780478,-0.000380,-2.356431,0.002702,1.569416,0.779049
9.900000,0.042734,-0.780480,-0.000381,-2.356431,0.002704,1.569417,0.779045
9.910000,0.042733,-0.780480,-0.000383,-2.356431,0.002701,1.569416,0.779043
9.920000,0.042733,-0.780480,-0.000379,-2.356432,0.002703,1.569416,0.779050
9.930000,0.042735,-0.780478,-0.000381,-2.356434,0.002701,1.569416,0.779048
9.940000,0.042735,-0.780482,-0.000381,-2.356431,0.002702,1.569416,0.779049
9.950000,0.042736,-0.780478,-0.000386,-2.356432,0.002703,1.569417,0.779046
9.960000,0.042736,-0.780480,-0.000382,-2.356434,0.002702,1.569415,0.779048
9.970000,0.042733,-0.780480,-0.000383,-2.356432,0.002701,1.569416,0.779046
9.980000,0.042733,-0.780480,-0.000384,-2.356431,0.002703,1.569416,0.779044
9.990000,0.042731,-0.780482,-0.000383,-2.356432,0.002702,1.569416,0.779046
10.000000,0.042737,-0.780478,-0.000381,-2.356432,0.002702,1.569416,0.779045
10.010000,0.042733,-0.780480,-0.000381,-2.356431,0.002703,1.569416,0.779050
10.020000,0.042735,-0.780483,-0.000383,-2.356431,0.002701,1.569416,0.779044
10.030000,0.042737,-0.780480,-0.000387,-2.356436,0.002701,1.569414,0.779041
10.040000,0.042737,-0.780478,-0.000383,-2.356432,0.002702,1.569416,0.779044
10.050000,0.042737,-0.780482,-0.000381,-2.356431,0.002702,1.569416,0.779046
10.060000,0.042735,-0.780480,-0.000383,-2.356431,0.002702,1.569416,0.779041
10.070000,0.042735,-0.780480,-0.000381,-2.356431,0.002701,1.569416,0.779044
10.080000,0.042733,-0.780480,-0.000383,-2.356432,0.002701,1.569416,0.779045
10.090000,0.042737,-0.780480,-0.000387,-2.356432,0.002703,1.569414,0.779046
10.100000,0.042739,-0.780478,-0.000381,-2.356431,0.002700,1.569416,0.779045
10.110000,0.042735,-0.780478,-0.000381,-2.356429,0.002701,1.569416,0.779051
10.120000,0.042735,-0.780482,-0.000383,-2.356431,0.002699,1.569416,0.779042
10.130000,0.042734,-0.780478,-0.000385,-2.356431,0.002702,1.569415,0.779050
10.140000,0.042733,-0.780482,-0.000383,-2.356432,0.002702,1.569415,0.779041
10.150000,0.042733,-0.780479,-0.000383,-2.356436,0.002702,1.569417,0.779044
10.160000,0.042737,-0.780478,-0.000387,-2.356429,0.002703,1.569416,0.779047
10.170000,0.042735,-0.780480,-0.000379,-2.356434,0.002701,1.569416,0.779046
10.180000,0.042734,-0.780480,-0.000383,-2.356434,0.002701,1.569416,0.779043
10.190000,0.042733,-0.780480,-0.000383,-2.356429,0.002702,1.569415,0.779047
10.200000,0.042735,-0.780478,-0.000383,-2.356432,0.002702,1.569416,0.779045
10.210000,0.042734,-0.780482,-0.000385,-2.356431,0.002702,1.569416,0.779047
10.220000,0.042737,-0.780480,-0.000381,-2.356429,0.002701,1.569416,0.779044
10.230000,0.042734,-0.780478,-0.000383,-2.356434,0.002703,1.569417,0.779042
10.240000,0.042735,-0.780476,-0.000383,-2.356432,0.002701,1.569416,0.779046
10.250000,0.042736,-0.780478,-0.000379,-2.356434,0.002700,1.569413,0.779043
10.260000,0.042735,-0.780475,-0.000381,-2.356431,0.002703,1.569413,0.779047
10.270000,0.042734,-0.780480,-0.000378,-2.356432,0.002702,1.569412,0.779047
10.280000,0.042736,-0.780480,-0.000381,-2.356432,0.002702,1.569416,0.779040
10.290000,0.042737,-0.780480,-0.000383,-2.356432,0.002702,1.569413,0.779044
10.300000,0.042736,-0.780476,-0.000382,-2.356432,0.002702,1.569415,0.779045
10.310000,0.042731,-0.780478,-0.000380,-2.356429,0.002702,1.569415,0.779048
10.320000,0.042737,-0.780482,-0.000383,-2.356431,0.002702,1.569414,0.779046
10.330000,0.042739,-0.780478,-0.000382,-2.356432,0.002701,1.569416,0.779049
10.340000,0.042735,-0.780482,-0.000384,-2.356429,0.002697,1.569415,0.779045
10.350000,0.042736,-0.780480,-0.000383,-2.356432,0.002701,1.569414,0.779042
10.360000,0.042738,-0.780476,-0.000383,-2.356431,0.002702,1.569414,0.779050
10.370000,0.042735,-0.780480,-0.000383,-2.356429,0.002701,1.569414,0.779049
10.380000,0.042735,-0.780482,-0.000386,-2.356427,0.002702,1.569411,0.779049
10.390000,0.042737,-0.780483,-0.000383,-2.356429,0.002702,1.569411,0.779051
10.400000,0.042737,-0.780478,-0.000383,-2.356432,0.002703,1.569410,0.779045
10.410000,0.042734,-0.780480,-0.000379,-2.356431,0.002700,1.569412,0.779049
10.420000,0.042735,-0.780476,-0.000383,-2.356429,0.002702,1.569412,0.779046
10.430000,0.042737,-0.780478,-0.000377,-2.356429,0.002702,1.569410,0.779042
10.440000,0.042737,-0.780479,-0.000381,-2.356432,0.002703,1.569411,0.779042
10.450000,0.042734,-0.780480,-0.000383,-2.356432,0.002701,1.569411,0.779041
10.460000,0.042739,-0.780480,-0.000381,-2.356432,0.002701,1.569411,0.779049
10.470000,0.042738,-0.780476,-0.000385,-2.356434,0.002702,1.569411,0.779050
10.480000,0.042735,-0.780478,-0.000387,-2.356431,0.002702,1.569411,0.779045
10.490000,0.042735,-0.780481,-0.000381,-2.356431,0.002698,1.569411,0.779045
10.500000,0.042734,-0.780477,-0.000383,-2.356432,0.002702,1.569411,0.779044
10.510000,0.042736,-0.780482,-0.000385,-2.356429,0.002701,1.569411,0.779048
10.520000,0.042734,-0.780476,-0.000384,-2.356432,0.002701,1.569411,0.779044
10.530000,0.042734,-0.780480,-0.000381,-2.356432,0.002701,1.569411,0.779047
10.540000,0.042737,-0.780478,-0.000381,-2.356432,0.002702,1.569410,0.779046
10.550000,0.042735,-0.780480,-0.000385,-2.356429,0.002703,1.569411,0.779049
10.560000,0.042739,-0.780482,-0.000383,-2.356434,0.002702,1.569411,0.779049
10.570000,0.042734,-0.780476,-0.000383,-2.356434,0.002701,1.569412,0.779049
10.580000,0.042737,-0.780478,-0.000385,-2.356427,0.002701,1.569410,0.779045
10.590000,0.042735,-0.780480,-0.000381,-2.356431,0.002701,1.569412,0.779044
10.600000,0.042736,-0.780478,-0.000379,-2.356432,0.002703,1.569411,0.779046
10.610000,0.042736,-0.780480,-0.000385,-2.356434,0.002703,1.569407,0.779044
10.620000,0.042738,-0.780478,-0.000380,-2.356431,0.002701,1.569410,0.779046
10.630000,0.042736,-0.780483,-0.000377,-2.356431,0.002701,1.569411,0.779044
10.640000,0.042731,-0.780478,-0.000386,-2.356432,0.002702,1.569412,0.779046
10.650000,0.042736,-0.780478,-0.000381,-2.356432,0.002701,1.569412,0.779045
10.660000,0.042734,-0.780480,-0.000383,-2.356434,0.002703,1.569411,0.779049
10.670000,0.042738,-0.780480,-0.000383,-2.356431,0.002701,1.569411,0.779051
10.680000,0.042736,-0.780476,-0.000385,-2.356432,0.002702,1.569411,0.779044
10.690000,0.042739,-0.780476,-0.000381,-2.356431,0.002700,1.569411,0.779041
10.700000,0.042734,-0.780479,-0.000383,-2.356432,0.002701,1.569412,0.779041
10.710000,0.042736,-0.780479,-0.000385,-2.356431,0.002701,1.569411,0.779045
10.720000,0.042734,-0.780485,-0.000383,-2.356429,0.002702,1.569410,0.779050
10.730000,0.042734,-0.780480,-0.000383,-2.356432,0.002702,1.569408,0.779044
10.740000,0.042737,-0.780477,-0.000385,-2.356429,0.002702,1.569409,0.779046
10.750000,0.042736,-0.780480,-0.000385,-2.356431,0.002700,1.569411,0.779046
10.760000,0.042736,-0.780478,-0.000381,-2.356434,0.002701,1.569409,0.779049
10.770000,0.042734,-0.780480,-0.000383,-2.356431,0.002697,1.569408,0.779046
10.780000,0.042733,-0.780480,-0.000381,-2.356429,0.002701,1.569412,0.779048
10.790000,0.042737,-0.780482,-0.000379,-2.356431,0.002702,1.569409,0.779047
10.800000,0.042737,-0.780476,-0.000383,-2.356432,0.002702,1.569410,0.779047
10.810000,0.042736,-0.780478,-0.000381,-2.356431,0.002702,1.569411,0.779045
10.820000,0.042738,-0.780480,-0.000389,-2.356429,0.002700,1.569410,0.779048
10.830000,0.042737,-0.780478,-0.000383,-2.356432,0.002701,1.569409,0.779042
10.840000,0.042735,-0.780478,-0.000385,-2.356434,0.002702,1.569407,0.779046
10.850000,0.042732,-0.780479,-0.000385,-2.356427,0.002703,1.569411,0.779043
10.860000,0.042732,-0.780480,-0.000385,-2.356432,0.002702,1.569410,0.779042
10.870000,0.042738,-0.780478,-0.000383,-2.356431,0.002702,1.569407,0.779042
10.880000,0.042738,-0.780482,-0.000383,-2.356432,0.002700,1.569406,0.779047
10.890000,0.042737,-0.780478,-0.000383,-2.356429,0.002699,1.569410,0.779045
10.900000,0.042738,-0.780480,-0.000382,-2.356431,0.002703,1.569407,0.779043
10.910000,0.042738,-0.780477,-0.000385,-2.356434,0.002701,1.569407,0.779046
10.920000,0.042736,-0.780482,-0.000381,-2.356431,0.002702,1.569407,0.779051
10.930000,0.042734,-0.780479,-0.000381,-2.356429,0.002700,1.569406,0.779045
10.940000,0.042734,-0.780478,-0.000383,-2.356434,0.002700,1.569406,0.779044
10.950000,0.042737,-0.780482,-0.000383,-2.356429,0.002703,1.569407,0.779049
10.960000,0.042738,-0.780480,-0.000383,-2.356434,0.002703,1.569407,0.779048
10.970000,0.042734,-0.780476,-0.000385,-2.356431,0.002701,1.569405,0.779047
10.980000,0.042737,-0.780483,-0.000381,-2.356431,0.002701,1.569406,0.779042
10.990000,0.042733,-0.780482,-0.000383,-2.356431,0.002701,1.569406,0.779048
11.000000,0.042738,-0.780480,-0.000385,-2.356429,0.002703,1.569406,0.779041
11.010000,0.042734,-0.780478,-0.000383,-2.356431,0.002701,1.569406,0.779045
11.020000,0.042736,-0.780479,-0.000383,-2.356432,0.002700,1.569407,0.779046
11.030000,0.042736,-0.780478,-0.000381,-2.356432,0.002702,1.569407,0.779046
11.040000,0.042737,-0.780478,-0.000383,-2.356433,0.002701,1.569406,0.779045
11.050000,0.042739,-0.780482,-0.000380,-2.356434,0.002701,1.569406,0.779042
11.060000,0.042734,-0.780476,-0.000379,-2.356432,0.002702,1.569406,0.779047
11.070000,0.042740,-0.780480,-0.000381,-2.356432,0.002703,1.569406,0.779046
11.080000,0.042734,-0.780478,-0.000383,-2.356434,0.002701,1.569406,0.779046
11.090000,0.042738,-0.780478,-0.000381,-2.356431,0.002701,1.569406,0.779046
11.100000,0.042736,-0.780478,-0.000381,-2.356432,0.002703,1.569405,0.779046
11.110000,0.042738,-0.780480,-0.000385,-2.356431,0.002701,1.569405,0.779042
11.120000,0.042740,-0.780476,-0.000382,-2.356434,0.002697,1.569406,0.779047
11.130000,0.042741,-0.780480,-0.000381,-2.356431,0.002701,1.569407,0.779042
11.140000,0.042736,-0.780480,-0.000381,-2.356429,0.002702,1.569407,0.779044
11.150000,0.042740,-0.780482,-0.000379,-2.356434,0.002701,1.569407,0.779046
11.160000,0.042737,-0.780480,-0.000385,-2.356432,0.002702,1.569407,0.779048
11.170000,0.042740,-0.780480,-0.000383,-2.356434,0.002702,1.569406,0.779046
11.180000,0.042736,-0.780482,-0.000383,-2.356432,0.002697,1.569407,0.779042
11.190000,0.042739,-0.780478,-0.000385,-2.356432,0.002703,1.569407,0.779045
11.200000,0.042741,-0.780476,-0.000383,-2.356431,0.002703,1.569406,0.779046
11.210000,0.042738,-0.780480,-0.000385,-2.356432,0.002701,1.569407,0.779041
11.220000,0.042736,-0.780480,-0.000387,-2.356432,0.002703,1.569405,0.779046
11.230000,0.042740,-0.780480,-0.000381,-2.356432,0.002703,1.569405,0.779046
11.240000,0.042736,-0.780480,-0.000383,-2.356431,0.002700,1.569407,0.779043
11.250000,0.042735,-0.780482,-0.000383,-2.356432,0.002701,1.569407,0.779046
11.260000,0.042738,-0.780480,-0.000383,-2.356434,0.002702,1.569406,0.779044
11.270000,0.042736,-0.780478,-0.000383,-2.356432,0.002701,1.569406,0.779042
11.280000,0.042738,-0.780480,-0.000385,-2.356431,0.002701,1.569406,0.779050
11.290000,0.042734,-0.780480,-0.000387,-2.356431,0.002701,1.569407,0.779045
11.300000,0.042740,-0.780478,-0.000383,-2.356434,0.002701,1.569408,0.779047
11.310000,0.042736,-0.780478,-0.000381,-2.356432,0.002702,1.569407,0.779048
11.320000,0.042732,-0.780478,-0.000381,-2.356432,0.002701,1.569407,0.779047
11.330000,0.042736,-0.780478,-0.000385,-2.356432,0.002702,1.569407,0.779046
11.340000,0.042736,-0.780480,-0.000385,-2.356431,0.002701,1.569407,0.779046
11.350000,0.042738,-0.780482,-0.000379,-2.356432,0.002702,1.569405,0.779043
11.360000,0.042738,-0.780478,-0.000385,-2.356432,0.002702,1.569407,0.779045
11.370000,0.042738,-0.780476,-0.000382,-2.356432,0.002701,1.569403,0.779044
11.380000,0.042736,-0.780480,-0.000383,-2.356432,0.002702,1.569406,0.779046
11.390000,0.042734,-0.780476,-0.000383,-2.356431,0.002701,1.569403,0.779046
11.400000,0.042736,-0.780480,-0.000378,-2.356432,0.002701,1.569407,0.779044
11.410000,0.042738,-0.780480,-0.000383,-2.356429,0.002699,1.569405,0.779046
11.420000,0.042740,-0.780478,-0.000381,-2.356434,0.002701,1.569404,0.779049
11.430000,0.042738,-0.780481,-0.000383,-2.356432,0.002699,1.569403,0.779046
11.440000,0.042736,-0.780482,-0.000381,-2.356431,0.002702,1.569403,0.779047
11.450000,0.042734,-0.780482,-0.000383,-2.356432,0.002702,1.569401,0.779042
11.460000,0.042740,-0.780478,-0.000383,-2.356432,0.002702,1.569402,0.779045
11.470000,0.042736,-0.780478,-0.000381,-2.356432,0.002700,1.569402,0.779047
11.480000,0.042738,-0.780482,-0.000379,-2.356432,0.002702,1.569403,0.779047
11.490000,0.042738,-0.780480,-0.000383,-2.356434,0.002701,1.569405,0.779044
11.500000,0.042734,-0.780480,-0.000385,-2.356432,0.002701,1.569402,0.779049
11.510000,0.042736,-0.780483,-0.000383,-2.356427,0.002701,1.569405,0.779044
11.520000,0.042734,-0.780478,-0.000379,-2.356431,0.002703,1.569405,0.779046
11.530000,0.042740,-0.780474,-0.000381,-2.356431,0.002703,1.569401,0.779041
11.540000,0.042734,-0.780482,-0.000383,-2.356431,0.002701,1.569400,0.779046
11.550000,0.042734,-0.780480,-0.000385,-2.356432,0.002701,1.569401,0.779047
11.560000,0.042738,-0.780479,-0.000383,-2.356436,0.002697,1.569401,0.779045
11.570000,0.042738,-0.780480,-0.000383,-2.356432,0.002701,1.569402,0.779045
11.580000,0.042736,-0.780483,-0.000383,-2.356429,0.002703,1.569403,0.779042
11.590000,0.042736,-0.780480,-0.000381,-2.356431,0.002701,1.569400,0.779041
11.600000,0.042740,-0.780478,-0.000386,-2.356432,0.002702,1.569400,0.779044
11.610000,0.042736,-0.780479,-0.000381,-2.356431,0.002700,1.569403,0.779047
11.620000,0.042732,-0.780482,-0.000381,-2.356431,0.002702,1.569402,0.779045
11.630000,0.042740,-0.780480,-0.000383,-2.356438,0.002700,1.569400,0.779045
11.640000,0.042736,-0.780478,-0.000379,-2.356431,0.002701,1.569403,0.779049
11.650000,0.042736,-0.780482,-0.000381,-2.356429,0.002702,1.569402,0.779045
11.660000,0.042740,-0.780480,-0.000384,-2.356434,0.002698,1.569403,0.779041
11.670000,0.042736,-0.780480,-0.000383,-2.356436,0.002702,1.569401,0.779041
11.680000,0.042734,-0.780478,-0.000381,-2.356431,0.002701,1.569399,0.779044
11.690000,0.042736,-0.780478,-0.000383,-2.356432,0.002701,1.569402,0.779047
11.700000,0.042734,-0.780480,-0.000383,-2.356434,0.002701,1.569401,0.779044
11.710000,0.042738,-0.780477,-0.000379,-2.356431,0.002703,1.569401,0.779041
11.720000,0.042734,-0.780476,-0.000385,-2.356431,0.002700,1.569402,0.779046
11.730000,0.042736,-0.780480,-0.000381,-2.356431,0.002703,1.569401,0.779044
11.740000,0.042738,-0.780482,-0.000385,-2.356434,0.002701,1.569402,0.779046
11.750000,0.042740,-0.780480,-0.000382,-2.356431,0.002702,1.569402,0.779046
11.760000,0.042741,-0.780480,-0.000383,-2.356432,0.002701,1.569402,0.779044
11.770000,0.042736,-0.780480,-0.000381,-2.356429,0.002702,1.569401,0.779044
11.780000,0.042738,-0.780478,-0.000382,-2.356432,0.002702,1.569402,0.779046
11.790000,0.042738,-0.780483,-0.000381,-2.356432,0.002702,1.569401,0.779049
11.800000,0.042736,-0.780479,-0.000383,-2.356431,0.002699,1.569398,0.779047
11.810000,0.042740,-0.780482,-0.000381,-2.356429,0.002702,1.569402,0.779049
11.820000,0.042736,-0.780476,-0.000381,-2.356432,0.002702,1.569397,0.779046
11.830000,0.042734,-0.780478,-0.000382,-2.356436,0.002701,1.569402,0.779048
11.840000,0.042738,-0.780480,-0.000377,-2.356429,0.002704,1.569400,0.779046
11.850000,0.042734,-0.780482,-0.000383,-2.356432,0.002703,1.569401,0.779042
11.860000,0.042736,-0.780480,-0.000382,-2.356432,0.002701,1.569399,0.779042
11.870000,0.042734,-0.780478,-0.000379,-2.356432,0.002701,1.569396,0.779046
11.880000,0.042736,-0.780482,-0.000383,-2.356434,0.002703,1.569400,0.779043
11.890000,0.042734,-0.780478,-0.000384,-2.356432,0.002701,1.569399,0.779049
11.900000,0.042736,-0.780482,-0.000383,-2.356431,0.002701,1.569397,0.779046
11.910000,0.042736,-0.780480,-0.000385,-2.356429,0.002701,1.569396,0.779046
11.920000,0.042738,-0.780480,-0.000379,-2.356431,0.002703,1.569400,0.779044
11.930000,0.042734,-0.780482,-0.000383,-2.356436,0.002701,1.569397,0.779049
11.940000,0.042740,-0.780478,-0.000383,-2.356432,0.002702,1.569398,0.779044
11.950000,0.042738,-0.780480,-0.000383,-2.356429,0.002703,1.569400,0.779044
11.960000,0.042740,-0.780476,-0.000383,-2.356432,0.002702,1.569399,0.779045
11.970000,0.042740,-0.780482,-0.000383,-2.356431,0.002702,1.569397,0.779045
11.980000,0.042740,-0.780478,-0.000381,-2.356432,0.002702,1.569398,0.779048
11.990000,0.042736,-0.780480,-0.000385,-2.356431,0.002701,1.569396,0.779046
12.000000,0.042740,-0.780476,-0.000385,-2.356434,0.002702,1.569396,0.779046
12.010000,0.042736,-0.780481,-0.000381,-2.356432,0.002697,1.569396,0.779046
12.020000,0.042738,-0.780478,-0.000383,-2.356432,0.002701,1.569399,0.779047
12.030000,0.042738,-0.780480,-0.000383,-2.356434,0.002702,1.569397,0.779047
12.040000,0.042735,-0.780478,-0.000383,-2.356434,0.002702,1.569397,0.779047
12.050000,0.042738,-0.780482,-0.000380,-2.356431,0.002701,1.569396,0.779048
12.060000,0.042740,-0.780478,-0.000383,-2.356432,0.002702,1.569395,0.779050
12.070000,0.042736,-0.780478,-0.000383,-2.356432,0.002703,1.569397,0.779045
12.080000,0.042738,-0.780480,-0.000383,-2.356431,0.002702,1.569398,0.779046
12.090000,0.042738,-0.780482,-0.000383,-2.356432,0.002702,1.569396,0.779044
12.100000,0.042738,-0.780478,-0.000381,-2.356438,0.002702,1.569396,0.779045
12.110000,0.042736,-0.780482,-0.000379,-2.356432,0.002703,1.569399,0.779049
12.120000,0.042736,-0.780482,-0.000383,-2.356432,0.002701,1.569397,0.779043
12.130000,0.042738,-0.780478,-0.000381,-2.356431,0.002702,1.569398,0.779046
12.140000,0.042740,-0.780480,-0.000385,-2.356434,0.002702,1.569397,0.779048
12.150000,0.042740,-0.780476,-0.000381,-2.356431,0.002701,1.569398,0.779044
12.160000,0.042736,-0.780478,-0.000381,-2.356429,0.002703,1.569397,0.779048
12.170000,0.042738,-0.780480,-0.000385,-2.356431,0.002702,1.569397,0.779050
12.180000,0.042740,-0.780482,-0.000383,-2.356429,0.002703,1.569397,0.779048
12.190000,0.042737,-0.780478,-0.000380,-2.356434,0.002698,1.569396,0.779041
12.200000,0.042734,-0.780478,-0.000381,-2.356429,0.002703,1.569399,0.779044
12.210000,0.042736,-0.780478,-0.000381,-2.356429,0.002701,1.569396,0.779044
12.220000,0.042740,-0.780476,-0.000383,-2.356432,0.002702,1.569396,0.779049
12.230000,0.042736,-0.780480,-0.000381,-2.356432,0.002701,1.569398,0.779049
12.240000,0.042736,-0.780480,-0.000385,-2.356432,0.002701,1.569396,0.779043
12.250000,0.042738,-0.780478,-0.000383,-2.356431,0.002703,1.569397,0.779046
12.260000,0.042736,-0.780480,-0.000383,-2.356431,0.002703,1.569397,0.779044
12.270000,0.042738,-0.780478,-0.000386,-2.356432,0.002702,1.569396,0.779050
12.280000,0.042738,-0.780482,-0.000381,-2.356427,0.002702,1.569396,0.779049
12.290000,0.042740,-0.780479,-0.000382,-2.356432,0.002701,1.569393,0.779046
12.300000,0.042736,-0.780480,-0.000383,-2.356431,0.002701,1.569396,0.779049
12.310000,0.042738,-0.780482,-0.000383,-2.356429,0.002702,1.569397,0.779048
12.320000,0.042740,-0.780480,-0.000379,-2.356431,0.002702,1.569397,0.779046
12.330000,0.042738,-0.780478,-0.000381,-2.356434,0.002702,1.569396,0.779048
12.340000,0.042738,-0.780479,-0.000385,-2.356431,0.002701,1.569396,0.779045
12.350000,0.042740,-0.780483,-0.000381,-2.356429,0.002701,1.569398,0.779046
12.360000,0.042736,-0.780478,-0.000383,-2.356432,0.002698,1.569396,0.779049
12.370000,0.042736,-0.780478,-0.000381,-2.356434,0.002701,1.569397,0.779046
12.380000,0.042738,-0.780478,-0.000385,-2.356431,0.002702,1.569391,0.779048
12.390000,0.042736,-0.780480,-0.000389,-2.356431,0.002701,1.569395,0.779046
12.400000,0.042738,-0.780480,-0.000385,-2.356432,0.002703,1.569392,0.779047
12.410000,0.042738,-0.780478,-0.000383,-2.356429,0.002701,1.569394,0.779043
12.420000,0.042740,-0.780480,-0.000383,-2.356431,0.002702,1.569391,0.779044
12.430000,0.042736,-0.780478,-0.000387,-2.356432,0.002699,1.569394,0.779045
12.440000,0.042740,-0.780483,-0.000385,-2.356432,0.002698,1.569396,0.779042
12.450000,0.042736,-0.780480,-0.000385,-2.356431,0.002701,1.569392,0.779046
12.460000,0.042738,-0.780476,-0.000385,-2.356431,0.002701,1.569392,0.779046
12.470000,0.042737,-0.780476,-0.000383,-2.356432,0.002703,1.569394,0.779042
12.480000,0.042736,-0.780478,-0.000381,-2.356432,0.002703,1.569392,0.779045
12.490000,0.042736,-0.780480,-0.000383,-2.356431,0.002702,1.569392,0.779042
12.500000,0.042738,-0.780480,-0.000385,-2.356432,0.002703,1.569392,0.779045
12.510000,0.042736,-0.780480,-0.000386,-2.356432,0.002702,1.569392,0.779046
12.520000,0.042736,-0.780480,-0.000383,-2.356434,0.002702,1.569392,0.779046
12.530000,0.042738,-0.780482,-0.000382,-2.356432,0.002702,1.569391,0.779050
12.540000,0.042736,-0.780483,-0.000381,-2.356431,0.002703,1.569392,0.779041
12.550000,0.042733,-0.780480,-0.000381,-2.356434,0.002701,1.569392,0.779049
12.560000,0.042742,-0.780482,-0.000381,-2.356429,0.002702,1.569392,0.779049
12.570000,0.042740,-0.780482,-0.000381,-2.356431,0.002699,1.569393,0.779045
12.580000,0.042736,-0.780480,-0.000382,-2.356432,0.002702,1.569392,0.779046
12.590000,0.042736,-0.780478,-0.000381,-2.356434,0.002699,1.569391,0.779050
12.600000,0.042734,-0.780485,-0.000381,-2.356429,0.002702,1.569392,0.779047
12.610000,0.042736,-0.780482,-0.000381,-2.356431,0.002702,1.569394,0.779044
12.620000,0.042736,-0.780481,-0.000381,-2.356432,0.002702,1.569391,0.779042
12.630000,0.042738,-0.780480,-0.000387,-2.356431,0.002703,1.569391,0.779048
12.640000,0.042734,-0.780482,-0.000381,-2.356432,0.002702,1.569392,0.779046
12.650000,0.042734,-0.780480,-0.000383,-2.356434,0.002701,1.569391,0.779046
12.660000,0.042736,-0.780480,-0.000385,-2.356432,0.002702,1.569392,0.779046
12.670000,0.042736,-0.780480,-0.000383,-2.356427,0.002702,1.569392,0.779046
12.680000,0.042738,-0.780478,-0.000383,-2.356432,0.002701,1.569392,0.779041
12.690000,0.042738,-0.780477,-0.000385,-2.356434,0.002700,1.569391,0.779045
12.700000,0.042736,-0.780478,-0.000379,-2.356432,0.002699,1.569391,0.779042
12.710000,0.042738,-0.780480,-0.000385,-2.356431,0.002701,1.569391,0.779050
12.720000,0.042739,-0.780478,-0.000383,-2.356436,0.002701,1.569391,0.779048
12.730000,0.042738,-0.780480,-0.000381,-2.356432,0.002701,1.569391,0.779042
12.740000,0.042738,-0.780482,-0.000385,-2.356432,0.002701,1.569392,0.779046
12.750000,0.042737,-0.780480,-0.000384,-2.356429,0.002701,1.569392,0.779048
12.760000,0.042736,-0.780480,-0.000383,-2.356432,0.002700,1.569391,0.779046
12.770000,0.042738,-0.780480,-0.000383,-2.356431,0.002701,1.569388,0.779042
12.780000,0.042740,-0.780480,-0.000383,-2.356432,0.002701,1.569388,0.779045
12.790000,0.042738,-0.780478,-0.000381,-2.356431,0.002702,1.569391,0.779049
12.800000,0.042738,-0.780477,-0.000385,-2.356431,0.002702,1.569390,0.779045
12.810000,0.042734,-0.780478,-0.000381,-2.356432,0.002701,1.569393,0.779045
12.820000,0.042736,-0.780482,-0.000381,-2.356431,0.002701,1.569392,0.779049
12.830000,0.042736,-0.780480,-0.000379,-2.356431,0.002703,1.569390,0.779046
12.840000,0.042737,-0.780478,-0.000380,-2.356429,0.002701,1.569391,0.779046
12.850000,0.042736,-0.780480,-0.000381,-2.356432,0.002701,1.569388,0.779044
12.860000,0.042738,-0.780480,-0.000383,-2.356431,0.002703,1.569388,0.779041
12.870000,0.042741,-0.780480,-0.000381,-2.356431,0.002701,1.569390,0.779042
12.880000,0.042741,-0.780476,-0.000385,-2.356432,0.002701,1.569391,0.779046
12.890000,0.042737,-0.780478,-0.000379,-2.356432,0.002703,1.569390,0.779041
12.900000,0.042738,-0.780478,-0.000383,-2.356431,0.002703,1.569391,0.779048
12.910000,0.042742,-0.780480,-0.000384,-2.356431,0.002701,1.569393,0.779042
12.920000,0.042738,-0.780479,-0.000383,-2.356431,0.002702,1.569390,0.779044
12.930000,0.042740,-0.780478,-0.000383,-2.356432,0.002701,1.569392,0.779047
12.940000,0.042740,-0.780482,-0.000381,-2.356429,0.002701,1.569389,0.779046
12.950000,0.042738,-0.780478,-0.000382,-2.356432,0.002702,1.569388,0.779047
12.960000,0.042737,-0.780480,-0.000383,-2.356432,0.002701,1.569394,0.779041
12.970000,0.042736,-0.780481,-0.000385,-2.356429,0.002701,1.569391,0.779045
12.980000,0.042738,-0.780482,-0.000381,-2.356434,0.002703,1.569392,0.779051
12.990000,0.042738,-0.780480,-0.000379,-2.356431,0.002704,1.569386,0.779047
13.000000,0.042736,-0.780480,-0.000383,-2.356429,0.002703,1.569388,0.779046
13.010000,0.042736,-0.780482,-0.000383,-2.356429,0.002702,1.569388,0.779045
13.020000,0.042740,-0.780478,-0.000383,-2.356432,0.002703,1.569388,0.779046
13.030000,0.042734,-0.780480,-0.000382,-2.356434,0.002702,1.569387,0.779045
13.040000,0.042738,-0.780480,-0.000387,-2.356431,0.002702,1.569387,0.779046
13.050000,0.042735,-0.780476,-0.000385,-2.356431,0.002704,1.569387,0.779049
13.060000,0.042738,-0.780480,-0.000381,-2.356431,0.002702,1.569387,0.779046
13.070000,0.042739,-0.780480,-0.000381,-2.356427,0.002702,1.569387,0.779043
13.080000,0.042737,-0.780479,-0.000383,-2.356432,0.002701,1.569386,0.779044
13.090000,0.042737,-0.780480,-0.000383,-2.356432,0.002701,1.569386,0.779044
13.100000,0.042737,-0.780476,-0.000383,-2.356431,0.002701,1.569387,0.779041
13.110000,0.042736,-0.780480,-0.000385,-2.356427,0.002702,1.569387,0.779043
13.120000,0.042735,-0.780480,-0.000387,-2.356432,0.002701,1.569387,0.779047
13.130000,0.042736,-0.780480,-0.000382,-2.356431,0.002702,1.569386,0.779044
13.140000,0.042736,-0.780478,-0.000381,-2.356429,0.002703,1.569388,0.779046
13.150000,0.042735,-0.780482,-0.000381,-2.356431,0.002701,1.569387,0.779043
13.160000,0.042742,-0.780480,-0.000383,-2.356434,0.002703,1.569387,0.779047
13.170000,0.042739,-0.780478,-0.000381,-2.356432,0.002703,1.569388,0.779046
13.180000,0.042736,-0.780480,-0.000383,-2.356432,0.002702,1.569387,0.779045
13.190000,0.042742,-0.780478,-0.000383,-2.356434,0.002701,1.569386,0.779048
13.200000,0.042738,-0.780480,-0.000383,-2.356434,0.002702,1.569387,0.779044
13.210000,0.042737,-0.780478,-0.000385,-2.356434,0.002701,1.569387,0.779047
13.220000,0.042735,-0.780480,-0.000384,-2.356434,0.002702,1.569387,0.779047
13.230000,0.042737,-0.780481,-0.000381,-2.356427,0.002702,1.569387,0.779048
13.240000,0.042740,-0.780481,-0.000383,-2.356432,0.002701,1.569388,0.779047
13.250000,0.042737,-0.780480,-0.000381,-2.356432,0.002702,1.569387,0.779048
13.260000,0.042738,-0.780478,-0.000385,-2.356431,0.002701,1.569387,0.779044
13.270000,0.042738,-0.780482,-0.000381,-2.356431,0.002700,1.569387,0.779043
