HIRO-group/drake-franka-driver/joint_angles.csv
timestamp,joint1,joint2,joint3,joint4,joint5,joint6,joint7
0.000000,0.000000,0.000000,0.000000,0.000000,0.000000,0.000000,0.000000
0.010000,2.850558,0.184487,-2.861731,-2.120509,-0.008527,1.708382,0.679176
0.020000,2.850558,0.184491,-2.861733,-2.120505,-0.008527,1.708383,0.679184
0.030000,2.850559,0.184491,-2.861737,-2.120505,-0.008527,1.708385,0.679176
0.040000,2.850559,0.184492,-2.861739,-2.120506,-0.008527,1.708385,0.679177
0.050000,2.850562,0.184490,-2.861737,-2.120512,-0.008528,1.708382,0.679175
0.060000,2.850562,0.184491,-2.861733,-2.120506,-0.008527,1.708385,0.679178
0.070000,2.850561,0.184489,-2.861737,-2.120510,-0.008527,1.708385,0.679185
0.080000,2.850564,0.184487,-2.861735,-2.120512,-0.008527,1.708383,0.679176
0.090000,2.850558,0.184487,-2.861735,-2.120508,-0.008527,1.708384,0.679179
0.100000,2.850562,0.184487,-2.861735,-2.120505,-0.008528,1.708386,0.679175
0.110000,2.850562,0.184485,-2.861733,-2.120510,-0.008527,1.708383,0.679182
0.120000,2.850562,0.184491,-2.861737,-2.120511,-0.008527,1.708383,0.679179
0.130000,2.850564,0.184492,-2.861731,-2.120503,-0.008529,1.708385,0.679180
0.140000,2.850562,0.184491,-2.861739,-2.120509,-0.008527,1.708385,0.679176
0.150000,2.850559,0.184488,-2.861735,-2.120514,-0.008528,1.708382,0.679176
0.160000,2.850562,0.184489,-2.861735,-2.120506,-0.008527,1.708384,0.679181
0.170000,2.850560,0.184488,-2.861733,-2.120506,-0.008526,1.708385,0.679177
0.180000,2.850562,0.184489,-2.861735,-2.120510,-0.008525,1.708382,0.679176
0.190000,2.850566,0.184491,-2.861735,-2.120507,-0.008526,1.708385,0.679177
0.200000,2.850564,0.184489,-2.861735,-2.120509,-0.008526,1.708385,0.679179
0.210000,2.850561,0.184487,-2.861737,-2.120517,-0.008528,1.708383,0.679181
0.220000,2.850564,0.184487,-2.861734,-2.120513,-0.008528,1.708383,0.679178
0.230000,2.850564,0.184491,-2.861737,-2.120505,-0.008528,1.708385,0.679176
0.240000,2.850564,0.184489,-2.861737,-2.120508,-0.008527,1.708382,0.679181
0.250000,2.850562,0.184492,-2.861733,-2.120505,-0.008526,1.708385,0.679176
0.260000,2.850562,0.184491,-2.861733,-2.120503,-0.008527,1.708385,0.679179
0.270000,2.850562,0.184489,-2.861733,-2.120506,-0.008527,1.708384,0.679179
0.280000,2.850560,0.184491,-2.861733,-2.120509,-0.008528,1.708382,0.679176
0.290000,2.850562,0.184491,-2.861737,-2.120513,-0.008529,1.708384,0.679181
0.300000,2.850564,0.184489,-2.861731,-2.120508,-0.008528,1.708381,0.679174
0.310000,2.850562,0.184489,-2.861737,-2.120511,-0.008527,1.708383,0.679180
0.320000,2.850562,0.184491,-2.861735,-2.120511,-0.008526,1.708383,0.679174
0.330000,2.850561,0.184489,-2.861735,-2.120509,-0.008531,1.708385,0.679176
0.340000,2.850564,0.184487,-2.861735,-2.120513,-0.008529,1.708382,0.679178
0.350000,2.850561,0.184489,-2.861735,-2.120511,-0.008527,1.708384,0.679182
0.360000,2.850562,0.184490,-2.861737,-2.120505,-0.008526,1.708384,0.679176
0.370000,2.850564,0.184489,-2.861737,-2.120511,-0.008527,1.708384,0.679176
0.380000,2.850561,0.184489,-2.861731,-2.120509,-0.008531,1.708385,0.679181
0.390000,2.850563,0.184489,-2.861735,-2.120509,-0.008531,1.708384,0.679179
0.400000,2.850563,0.184489,-2.861733,-2.120508,-0.008530,1.708385,0.679178
0.410000,2.850563,0.184489,-2.861737,-2.120511,-0.008527,1.708382,0.679173
0.420000,2.850564,0.184487,-2.861734,-2.120509,-0.008527,1.708384,0.679182
0.430000,2.850562,0.184489,-2.861737,-2.120508,-0.008528,1.708383,0.679182
0.440000,2.850565,0.184491,-2.861735,-2.120511,-0.008528,1.708383,0.679175
0.450000,2.850565,0.184489,-2.861735,-2.120508,-0.008529,1.708384,0.679179
0.460000,2.850563,0.184489,-2.861735,-2.120511,-0.008528,1.708380,0.679180
0.470000,2.850567,0.184489,-2.861737,-2.120511,-0.008528,1.708381,0.679176
0.480000,2.850564,0.184491,-2.861733,-2.120511,-0.008529,1.708383,0.679182
0.490000,2.850567,0.184491,-2.861737,-2.120508,-0.008531,1.708384,0.679181
0.500000,2.850567,0.184487,-2.861733,-2.120513,-0.008530,1.708382,0.679177
0.510000,2.850565,0.184491,-2.861738,-2.120513,-0.008532,1.708379,0.679181
0.520000,2.850564,0.184487,-2.861735,-2.120508,-0.008530,1.708386,0.679176
0.530000,2.850567,0.184487,-2.861737,-2.120511,-0.008532,1.708383,0.679181
0.540000,2.850565,0.184489,-2.861735,-2.120509,-0.008532,1.708381,0.679174
0.550000,2.850563,0.184485,-2.861735,-2.120508,-0.008529,1.708381,0.679179
0.560000,2.850565,0.184489,-2.861735,-2.120511,-0.008527,1.708383,0.679180
0.570000,2.850562,0.184487,-2.861733,-2.120509,-0.008529,1.708382,0.679180
0.580000,2.850566,0.184487,-2.861737,-2.120509,-0.008529,1.708384,0.679177
0.590000,2.850566,0.184489,-2.861733,-2.120508,-0.008528,1.708384,0.679179
0.600000,2.850564,0.184489,-2.861740,-2.120513,-0.008532,1.708384,0.679179
0.610000,2.850567,0.184489,-2.861733,-2.120506,-0.008527,1.708383,0.679175
0.620000,2.850564,0.184487,-2.861735,-2.120509,-0.008527,1.708383,0.679177
0.630000,2.850566,0.184491,-2.861733,-2.120508,-0.008530,1.708384,0.679180
0.640000,2.850566,0.184492,-2.861735,-2.120513,-0.008529,1.708381,0.679181
0.650000,2.850567,0.184491,-2.861735,-2.120508,-0.008531,1.708384,0.679178
0.660000,2.850567,0.184489,-2.861735,-2.120509,-0.008533,1.708384,0.679177
0.670000,2.850566,0.184491,-2.861733,-2.120516,-0.008527,1.708383,0.679181
0.680000,2.850569,0.184489,-2.861733,-2.120508,-0.008532,1.708383,0.679175
0.690000,2.850569,0.184489,-2.861733,-2.120508,-0.008532,1.708385,0.679177
0.700000,2.850567,0.184487,-2.861735,-2.120513,-0.008528,1.708380,0.679177
0.710000,2.850566,0.184487,-2.861735,-2.120509,-0.008528,1.708384,0.679178
0.720000,2.850567,0.184491,-2.861733,-2.120511,-0.008528,1.708384,0.679179
0.730000,2.850567,0.184491,-2.861737,-2.120509,-0.008528,1.708382,0.679178
0.740000,2.850566,0.184487,-2.861737,-2.120511,-0.008529,1.708380,0.679180
0.750000,2.850567,0.184491,-2.861735,-2.120507,-0.008527,1.708382,0.679178
0.760000,2.850567,0.184484,-2.861735,-2.120508,-0.008530,1.708384,0.679173
0.770000,2.850566,0.184492,-2.861737,-2.120514,-0.008531,1.708385,0.679179
0.780000,2.850570,0.184492,-2.861735,-2.120509,-0.008532,1.708383,0.679176
0.790000,2.850566,0.184492,-2.861737,-2.120509,-0.008532,1.708384,0.679177
0.800000,2.850566,0.184487,-2.861735,-2.120515,-0.008532,1.708384,0.679178
0.810000,2.850567,0.184489,-2.861735,-2.120510,-0.008532,1.708380,0.679181
0.820000,2.850567,0.184489,-2.861733,-2.120511,-0.008531,1.708385,0.679181
0.830000,2.850566,0.184487,-2.861737,-2.120510,-0.008532,1.708379,0.679182
0.840000,2.850564,0.184490,-2.861738,-2.120514,-0.008533,1.708383,0.679179
0.850000,2.850569,0.184491,-2.861735,-2.120513,-0.008533,1.708382,0.679174
0.860000,2.850570,0.184489,-2.861733,-2.120514,-0.008533,1.708379,0.679177
0.870000,2.850571,0.184487,-2.861733,-2.120511,-0.008531,1.708384,0.679179
0.880000,2.850566,0.184491,-2.861733,-2.120511,-0.008531,1.708385,0.679182
0.890000,2.850570,0.184489,-2.861736,-2.120512,-0.008528,1.708380,0.679175
0.900000,2.850570,0.184491,-2.861733,-2.120510,-0.008532,1.708382,0.679182
0.910000,2.850566,0.184489,-2.861729,-2.120510,-0.008531,1.708381,0.679170
0.920000,2.850567,0.184492,-2.861738,-2.120512,-0.008530,1.708385,0.679177
0.930000,2.850569,0.184489,-2.861735,-2.120514,-0.008532,1.708378,0.679177
0.940000,2.850568,0.184489,-2.861735,-2.120514,-0.008529,1.708383,0.679180
0.950000,2.850570,0.184492,-2.861734,-2.120512,-0.008531,1.708381,0.679176
0.960000,2.850568,0.184487,-2.861735,-2.120514,-0.008528,1.708383,0.679176
0.970000,2.850567,0.184485,-2.861735,-2.120511,-0.008528,1.708382,0.679180
0.980000,2.850569,0.184487,-2.861733,-2.120512,-0.008532,1.708381,0.679170
0.990000,2.850569,0.184489,-2.861735,-2.120512,-0.008532,1.708382,0.679171
1.000000,2.850565,0.184485,-2.861735,-2.120511,-0.008531,1.708383,0.679180
1.010000,2.850569,0.184490,-2.861733,-2.120511,-0.008531,1.708385,0.679173
1.020000,2.850570,0.184487,-2.861737,-2.120512,-0.008531,1.708385,0.679171
1.030000,2.850570,0.184491,-2.861733,-2.120514,-0.008532,1.708383,0.679178
1.040000,2.850570,0.184491,-2.861733,-2.120512,-0.008533,1.708383,0.679175
1.050000,2.850566,0.184489,-2.861733,-2.120510,-0.008530,1.708383,0.679174
1.060000,2.850569,0.184491,-2.861735,-2.120516,-0.008532,1.708382,0.679179
1.070000,2.850567,0.184491,-2.861737,-2.120516,-0.008532,1.708384,0.679173
1.080000,2.850567,0.184487,-2.861737,-2.120510,-0.008532,1.708384,0.679170
1.090000,2.850569,0.184485,-2.861735,-2.120515,-0.008529,1.708380,0.679170
1.100000,2.850569,0.184487,-2.861735,-2.120514,-0.008531,1.708382,0.679173
1.110000,2.850569,0.184491,-2.861737,-2.120518,-0.008532,1.708382,0.679173
1.120000,2.850569,0.184489,-2.861735,-2.120512,-0.008529,1.708383,0.679173
1.130000,2.850569,0.184491,-2.861733,-2.120514,-0.008532,1.708381,0.679177
1.140000,2.850569,0.184488,-2.861733,-2.120512,-0.008533,1.708380,0.679171
1.150000,2.850570,0.184486,-2.861735,-2.120520,-0.008532,1.708377,0.679175
1.160000,2.850570,0.184490,-2.861733,-2.120518,-0.008532,1.708377,0.679171
1.170000,2.850570,0.184487,-2.861733,-2.120514,-0.008532,1.708383,0.679176
1.180000,2.850569,0.184489,-2.861735,-2.120511,-0.008530,1.708385,0.679178
1.190000,2.850572,0.184491,-2.861735,-2.120516,-0.008527,1.708382,0.679169
1.200000,2.850574,0.184489,-2.861731,-2.120514,-0.008532,1.708383,0.679180
1.210000,2.850570,0.184490,-2.861733,-2.120512,-0.008532,1.708384,0.679172
1.220000,2.850570,0.184487,-2.861738,-2.120512,-0.008531,1.708382,0.679171
1.230000,2.850569,0.184487,-2.861733,-2.120516,-0.008530,1.708382,0.679174
1.240000,2.850569,0.184487,-2.861735,-2.120512,-0.008530,1.708380,0.679173
1.250000,2.850569,0.184490,-2.861733,-2.120512,-0.008532,1.708383,0.679179
1.260000,2.850573,0.184492,-2.861737,-2.120516,-0.008532,1.708379,0.679176
1.270000,2.850565,0.184491,-2.861734,-2.120511,-0.008532,1.708381,0.679180
1.280000,2.850570,0.184489,-2.861735,-2.120511,-0.008530,1.708378,0.679173
1.290000,2.850575,0.184487,-2.861737,-2.120516,-0.008533,1.708381,0.679174
1.300000,2.850569,0.184488,-2.861737,-2.120512,-0.008532,1.708384,0.679178
1.310000,2.850571,0.184489,-2.861735,-2.120512,-0.008532,1.708381,0.679169
1.320000,2.850570,0.184488,-2.861735,-2.120516,-0.008529,1.708380,0.679177
1.330000,2.850573,0.184491,-2.861737,-2.120511,-0.008532,1.708379,0.679175
1.340000,2.850569,0.184488,-2.861738,-2.120511,-0.008533,1.708380,0.679175
1.350000,2.850569,0.184489,-2.861737,-2.120516,-0.008531,1.708377,0.679174
1.360000,2.850571,0.184492,-2.861733,-2.120513,-0.008532,1.708384,0.679180
1.370000,2.850571,0.184488,-2.861737,-2.120512,-0.008532,1.708386,0.679176
1.380000,2.850572,0.184484,-2.861733,-2.120512,-0.008532,1.708383,0.679176
1.390000,2.850572,0.184487,-2.861737,-2.120512,-0.008532,1.708382,0.679170
1.400000,2.850576,0.184489,-2.861733,-2.120515,-0.008533,1.708383,0.679172
1.410000,2.850573,0.184489,-2.861735,-2.120511,-0.008528,1.708378,0.679179
1.420000,2.850570,0.184489,-2.861735,-2.120511,-0.008532,1.708382,0.679169
1.430000,2.850570,0.184488,-2.861735,-2.120514,-0.008531,1.708380,0.679179
1.440000,2.850569,0.184488,-2.861731,-2.120512,-0.008531,1.708383,0.679171
1.450000,2.850571,0.184489,-2.861739,-2.120516,-0.008532,1.708379,0.679174
1.460000,2.850574,0.184487,-2.861736,-2.120512,-0.008527,1.708379,0.679172
1.470000,2.850571,0.184491,-2.861735,-2.120509,-0.008533,1.708380,0.679176
1.480000,2.850572,0.184489,-2.861733,-2.120511,-0.008533,1.708382,0.679174
1.490000,2.850574,0.184489,-2.861733,-2.120511,-0.008532,1.708380,0.679178
1.500000,2.850576,0.184485,-2.861737,-2.120513,-0.008532,1.708382,0.679175
1.510000,2.850572,0.184491,-2.861735,-2.120516,-0.008532,1.708382,0.679172
1.520000,2.850570,0.184491,-2.861735,-2.120514,-0.008532,1.708379,0.679171
1.530000,2.850572,0.184489,-2.861733,-2.120511,-0.008532,1.708380,0.679177
1.540000,2.850574,0.184492,-2.861738,-2.120512,-0.008531,1.708379,0.679174
1.550000,2.850571,0.184487,-2.861735,-2.120515,-0.008532,1.708378,0.679176
1.560000,2.850571,0.184486,-2.861735,-2.120514,-0.008531,1.708378,0.679174
1.570000,2.850570,0.184490,-2.861735,-2.120513,-0.008529,1.708382,0.679176
1.580000,2.850570,0.184488,-2.861737,-2.120514,-0.008532,1.708377,0.679176
1.590000,2.850570,0.184489,-2.861737,-2.120514,-0.008532,1.708379,0.679177
1.600000,2.850570,0.184489,-2.861735,-2.120513,-0.008532,1.708385,0.679169
1.610000,2.850572,0.184489,-2.861735,-2.120516,-0.008532,1.708379,0.679171
1.620000,2.850572,0.184489,-2.861733,-2.120515,-0.008532,1.708378,0.679170
1.630000,2.850574,0.184491,-2.861735,-2.120511,-0.008531,1.708380,0.679178
1.640000,2.850576,0.184488,-2.861733,-2.120513,-0.008531,1.708384,0.679170
1.650000,2.850572,0.184490,-2.861737,-2.120516,-0.008532,1.708378,0.679172
1.660000,2.850576,0.184486,-2.861735,-2.120516,-0.008531,1.708379,0.679177
1.670000,2.850574,0.184484,-2.861736,-2.120512,-0.008532,1.708379,0.679174
1.680000,2.850574,0.184485,-2.861735,-2.120515,-0.008532,1.708382,0.679173
1.690000,2.850572,0.184488,-2.861733,-2.120516,-0.008532,1.708379,0.679174
1.700000,2.850572,0.184488,-2.861733,-2.120517,-0.008532,1.708382,0.679173
1.710000,2.850576,0.184486,-2.861735,-2.120517,-0.008532,1.708380,0.679174
1.720000,2.850572,0.184490,-2.861735,-2.120514,-0.008532,1.708383,0.679174
1.730000,2.850574,0.184486,-2.861733,-2.120515,-0.008533,1.708381,0.679172
1.740000,2.850572,0.184486,-2.861735,-2.120514,-0.008533,1.708380,0.679173
1.750000,2.850576,0.184488,-2.861738,-2.120517,-0.008532,1.708384,0.679172
1.760000,2.850574,0.184490,-2.861733,-2.120510,-0.008532,1.708379,0.679172
1.770000,2.850573,0.184488,-2.861735,-2.120517,-0.008532,1.708381,0.679175
1.780000,2.850570,0.184486,-2.861735,-2.120513,-0.008532,1.708379,0.679177
1.790000,2.850570,0.184486,-2.861731,-2.120517,-0.008531,1.708383,0.679177
1.800000,2.850574,0.184488,-2.861735,-2.120521,-0.008532,1.708381,0.679174
1.810000,2.850573,0.184486,-2.861735,-2.120521,-0.008532,1.708379,0.679177
1.820000,2.850573,0.184488,-2.861735,-2.120512,-0.008532,1.708380,0.679172
1.830000,2.850577,0.184486,-2.861733,-2.120516,-0.008532,1.708379,0.679172
1.840000,2.850575,0.184486,-2.861735,-2.120519,-0.008533,1.708378,0.679172
1.850000,2.850572,0.184488,-2.861733,-2.120518,-0.008532,1.708381,0.679177
1.860000,2.850572,0.184488,-2.861735,-2.120519,-0.008533,1.708380,0.679172
1.870000,2.850574,0.184487,-2.861733,-2.120518,-0.008533,1.708377,0.679171
1.880000,2.850574,0.184486,-2.861737,-2.120516,-0.008532,1.708378,0.679173
1.890000,2.850577,0.184488,-2.861735,-2.120514,-0.008532,1.708382,0.679172
1.900000,2.850572,0.184490,-2.861735,-2.120516,-0.008532,1.708378,0.679171
1.910000,2.850575,0.184491,-2.861733,-2.120519,-0.008532,1.708378,0.679177
1.920000,2.850576,0.184488,-2.861735,-2.120514,-0.008533,1.708383,0.679175
1.930000,2.850576,0.184488,-2.861737,-2.120516,-0.008532,1.708378,0.679173
1.940000,2.850573,0.184487,-2.861733,-2.120519,-0.008532,1.708378,0.679174
1.950000,2.850574,0.184488,-2.861735,-2.120518,-0.008532,1.708379,0.679174
1.960000,2.850575,0.184489,-2.861733,-2.120516,-0.008532,1.708379,0.679170
1.970000,2.850575,0.184490,-2.861737,-2.120517,-0.008531,1.708381,0.679171
1.980000,2.850574,0.184491,-2.861737,-2.120519,-0.008532,1.708380,0.679177
1.990000,2.850575,0.184490,-2.861737,-2.120516,-0.008532,1.708381,0.679174
2.000000,2.850577,0.184488,-2.861740,-2.120519,-0.008532,1.708380,0.679174
2.010000,2.850573,0.184487,-2.861733,-2.120519,-0.008532,1.708381,0.679174
2.020000,2.850574,0.184488,-2.861733,-2.120516,-0.008533,1.708379,0.679170
2.030000,2.850577,0.184487,-2.861735,-2.120512,-0.008532,1.708380,0.679172
2.040000,2.850573,0.184487,-2.861735,-2.120518,-0.008533,1.708377,0.679172
2.050000,2.850573,0.184490,-2.861737,-2.120516,-0.008532,1.708380,0.679172
2.060000,2.850573,0.184489,-2.861737,-2.120516,-0.008533,1.708382,0.679170
2.070000,2.850573,0.184491,-2.861735,-2.120519,-0.008532,1.708381,0.679172
2.080000,2.850576,0.184490,-2.861735,-2.120521,-0.008532,1.708379,0.679179
2.090000,2.850577,0.184487,-2.861733,-2.120514,-0.008532,1.708381,0.679176
2.100000,2.850575,0.184490,-2.861733,-2.120519,-0.008533,1.708380,0.679170
2.110000,2.850577,0.184488,-2.861737,-2.120516,-0.008531,1.708379,0.679175
2.120000,2.850577,0.184487,-2.861739,-2.120514,-0.008533,1.708379,0.679174
2.130000,2.850575,0.184485,-2.861738,-2.120516,-0.008533,1.708382,0.679173
2.140000,2.850574,0.184485,-2.861739,-2.120516,-0.008531,1.708381,0.679169
2.150000,2.850575,0.184485,-2.861735,-2.120514,-0.008533,1.708379,0.679176
2.160000,2.850577,0.184489,-2.861737,-2.120516,-0.008532,1.708380,0.679175
2.170000,2.850575,0.184486,-2.861733,-2.120519,-0.008532,1.708378,0.679175
2.180000,2.850577,0.184488,-2.861737,-2.120518,-0.008532,1.708379,0.679173
2.190000,2.850577,0.184488,-2.861735,-2.120518,-0.008532,1.708379,0.679172
2.200000,2.850579,0.184484,-2.861734,-2.120518,-0.008532,1.708380,0.679172
2.210000,2.850575,0.184484,-2.861735,-2.120518,-0.008533,1.708378,0.679172
2.220000,2.850574,0.184488,-2.861735,-2.120514,-0.008532,1.708381,0.679172
2.230000,2.850577,0.184486,-2.861735,-2.120518,-0.008532,1.708382,0.679177
2.240000,2.850575,0.184492,-2.861737,-2.120519,-0.008532,1.708382,0.679171
2.250000,2.850575,0.184485,-2.861735,-2.120518,-0.008532,1.708379,0.679174
2.260000,2.850577,0.184484,-2.861734,-2.120514,-0.008532,1.708380,0.679173
2.270000,2.850574,0.184484,-2.861735,-2.120518,-0.008532,1.708383,0.679170
2.280000,2.850575,0.184486,-2.861735,-2.120516,-0.008531,1.708380,0.679174
2.290000,2.850575,0.184485,-2.861735,-2.120520,-0.008532,1.708380,0.679175
2.300000,2.850575,0.184488,-2.861735,-2.120515,-0.008531,1.708378,0.679173
2.310000,2.850575,0.184487,-2.861733,-2.120516,-0.008532,1.708378,0.679169
2.320000,2.850577,0.184489,-2.861733,-2.120512,-0.008532,1.708382,0.679177
2.330000,2.850577,0.184488,-2.861735,-2.120519,-0.008532,1.708380,0.679167
2.340000,2.850574,0.184488,-2.861733,-2.120518,-0.008532,1.708381,0.679169
2.350000,2.850576,0.184488,-2.861735,-2.120514,-0.008532,1.708381,0.679174
2.360000,2.850577,0.184487,-2.861735,-2.120519,-0.008532,1.708383,0.679169
2.370000,2.850576,0.184488,-2.861735,-2.120522,-0.008532,1.708378,0.679171
2.380000,2.850576,0.184488,-2.861737,-2.120516,-0.008532,1.708381,0.679173
2.390000,2.850580,0.184488,-2.861731,-2.120516,-0.008532,1.708382,0.679171
2.400000,2.850578,0.184485,-2.861735,-2.120518,-0.008533,1.708380,0.679167
2.410000,2.850576,0.184490,-2.861737,-2.120518,-0.008532,1.708382,0.679173
2.420000,2.850580,0.184485,-2.861735,-2.120516,-0.008532,1.708380,0.679175
2.430000,2.850577,0.184488,-2.861733,-2.120519,-0.008533,1.708378,0.679171
2.440000,2.850576,0.184488,-2.861735,-2.120516,-0.008532,1.708378,0.679166
2.450000,2.850578,0.184485,-2.861735,-2.120519,-0.008533,1.708379,0.679176
2.460000,2.850576,0.184484,-2.861735,-2.120516,-0.008532,1.708379,0.679173
2.470000,2.850577,0.184488,-2.861735,-2.120520,-0.008533,1.708379,0.679173
2.480000,2.850574,0.184485,-2.861733,-2.120518,-0.008532,1.708381,0.679169
2.490000,2.850576,0.184485,-2.861735,-2.120518,-0.008531,1.708380,0.679174
2.500000,2.850579,0.184484,-2.861735,-2.120516,-0.008531,1.708379,0.679173
2.510000,2.850577,0.184487,-2.861738,-2.120519,-0.008533,1.708378,0.679176
2.520000,2.850576,0.184488,-2.861731,-2.120518,-0.008532,1.708380,0.679167
2.530000,2.850577,0.184487,-2.861735,-2.120517,-0.008532,1.708378,0.679174
2.540000,2.850576,0.184493,-2.861737,-2.120522,-0.008532,1.708378,0.679172
2.550000,2.850580,0.184488,-2.861735,-2.120518,-0.008532,1.708378,0.679167
2.560000,2.850580,0.184488,-2.861733,-2.120517,-0.008532,1.708378,0.679171
2.570000,2.850578,0.184490,-2.861737,-2.120521,-0.008532,1.708379,0.679174
2.580000,2.850575,0.184490,-2.861735,-2.120516,-0.008532,1.708382,0.679176
2.590000,2.850572,0.184484,-2.861735,-2.120514,-0.008531,1.708379,0.679168
2.600000,2.850581,0.184488,-2.861733,-2.120523,-0.008532,1.708376,0.679173
2.610000,2.850578,0.184485,-2.861733,-2.120515,-0.008532,1.708379,0.679173
2.620000,2.850578,0.184486,-2.861731,-2.120516,-0.008532,1.708379,0.679170
2.630000,2.850578,0.184487,-2.861733,-2.120520,-0.008532,1.708378,0.679171
2.640000,2.850578,0.184484,-2.861735,-2.120519,-0.008532,1.708379,0.679177
2.650000,2.850578,0.184484,-2.861733,-2.120519,-0.008532,1.708380,0.679167
2.660000,2.850575,0.184484,-2.861737,-2.120520,-0.008532,1.708378,0.679174
2.670000,2.850583,0.184489,-2.861735,-2.120519,-0.008532,1.708379,0.679167
2.680000,2.850580,0.184488,-2.861737,-2.120517,-0.008531,1.708381,0.679170
2.690000,2.850575,0.184484,-2.861738,-2.120518,-0.008532,1.708380,0.679167
2.700000,2.850578,0.184489,-2.861732,-2.120520,-0.008532,1.708380,0.679171
2.710000,2.850574,0.184489,-2.861731,-2.120517,-0.008532,1.708380,0.679173
2.720000,2.850582,0.184484,-2.861735,-2.120519,-0.008532,1.708381,0.679172
2.730000,2.850578,0.184485,-2.861734,-2.120520,-0.008531,1.708379,0.679169
2.740000,2.850578,0.184487,-2.861737,-2.120517,-0.008532,1.708380,0.679169
2.750000,2.850577,0.184486,-2.861741,-2.120522,-0.008532,1.708378,0.679173
2.760000,2.850580,0.184484,-2.861730,-2.120520,-0.008533,1.708378,0.679175
2.770000,2.850578,0.184488,-2.861737,-2.120516,-0.008532,1.708379,0.679168
2.780000,2.850575,0.184487,-2.861734,-2.120521,-0.008532,1.708378,0.679174
2.790000,2.850578,0.184488,-2.861735,-2.120521,-0.008532,1.708378,0.679171
2.800000,2.850578,0.184488,-2.861737,-2.120521,-0.008533,1.708380,0.679168
2.810000,2.850580,0.184485,-2.861735,-2.120517,-0.008532,1.708380,0.679170
2.820000,2.850582,0.184488,-2.861735,-2.120521,-0.008530,1.708380,0.679170
2.830000,2.850578,0.184489,-2.861735,-2.120523,-0.008533,1.708378,0.679170
2.840000,2.850580,0.184488,-2.861737,-2.120516,-0.008532,1.708380,0.679167
2.850000,2.850578,0.184489,-2.861733,-2.120522,-0.008532,1.708377,0.679174
2.860000,2.850580,0.184486,-2.861737,-2.120521,-0.008531,1.708377,0.679172
2.870000,2.850578,0.184485,-2.861734,-2.120518,-0.008533,1.708379,0.679169
2.880000,2.850577,0.184489,-2.861735,-2.120517,-0.008531,1.708379,0.679176
2.890000,2.850577,0.184487,-2.861733,-2.120521,-0.008532,1.708383,0.679171
2.900000,2.850578,0.184485,-2.861737,-2.120526,-0.008531,1.708379,0.679167
2.910000,2.850578,0.184484,-2.861735,-2.120519,-0.008532,1.708381,0.679175
2.920000,2.850578,0.184485,-2.861735,-2.120516,-0.008532,1.708380,0.679167
2.930000,2.850580,0.184487,-2.861738,-2.120521,-0.008532,1.708378,0.679170
2.940000,2.850578,0.184487,-2.861737,-2.120521,-0.008532,1.708382,0.679171
2.950000,2.850578,0.184484,-2.861735,-2.120517,-0.008532,1.708382,0.679171
2.960000,2.850577,0.184485,-2.861731,-2.120521,-0.008532,1.708378,0.679172
2.970000,2.850578,0.184485,-2.861735,-2.120517,-0.008532,1.708380,0.679172
2.980000,2.850578,0.184487,-2.861735,-2.120519,-0.008531,1.708379,0.679169
2.990000,2.850577,0.184484,-2.861735,-2.120522,-0.008531,1.708378,0.679174
3.000000,2.850577,0.184487,-2.861735,-2.120519,-0.008532,1.708380,0.679172
3.010000,2.850580,0.184487,-2.861737,-2.120515,-0.008532,1.708384,0.679168
3.020000,2.850581,0.184485,-2.861735,-2.120523,-0.008532,1.708378,0.679169
3.030000,2.850582,0.184489,-2.861733,-2.120521,-0.008532,1.708380,0.679170
3.040000,2.850583,0.184489,-2.861735,-2.120517,-0.008532,1.708381,0.679171
3.050000,2.850580,0.184485,-2.861740,-2.120523,-0.008531,1.708378,0.679172
3.060000,2.850580,0.184484,-2.861737,-2.120519,-0.008532,1.708378,0.679170
3.070000,2.850577,0.184482,-2.861733,-2.120515,-0.008532,1.708380,0.679167
3.080000,2.850578,0.184487,-2.861737,-2.120521,-0.008532,1.708380,0.679172
3.090000,2.850579,0.184489,-2.861735,-2.120519,-0.008531,1.708379,0.679171
3.100000,2.850579,0.184485,-2.861737,-2.120516,-0.008533,1.708379,0.679170
3.110000,2.850578,0.184487,-2.861735,-2.120521,-0.008532,1.708379,0.679167
3.120000,2.850579,0.184492,-2.861733,-2.120521,-0.008532,1.708378,0.679170
3.130000,2.850579,0.184480,-2.861733,-2.120521,-0.008532,1.708381,0.679167
3.140000,2.850577,0.184488,-2.861737,-2.120516,-0.008531,1.708380,0.679170
3.150000,2.850583,0.184485,-2.861735,-2.120523,-0.008532,1.708378,0.679171
3.160000,2.850580,0.184484,-2.861737,-2.120519,-0.008532,1.708379,0.679166
3.170000,2.850578,0.184485,-2.861733,-2.120519,-0.008532,1.708379,0.679167
3.180000,2.850577,0.184484,-2.861733,-2.120523,-0.008531,1.708378,0.679170
3.190000,2.850583,0.184487,-2.861738,-2.120521,-0.008532,1.708379,0.679172
3.200000,2.850580,0.184485,-2.861733,-2.120519,-0.008532,1.708379,0.679172
3.210000,2.850582,0.184485,-2.861739,-2.120519,-0.008535,1.708379,0.679172
3.220000,2.850577,0.184489,-2.861732,-2.120523,-0.008531,1.708377,0.679165
3.230000,2.850580,0.184485,-2.861731,-2.120519,-0.008532,1.708378,0.679172
3.240000,2.850578,0.184485,-2.861735,-2.120519,-0.008533,1.708380,0.679167
3.250000,2.850575,0.184482,-2.861734,-2.120521,-0.008531,1.708382,0.679172
3.260000,2.850583,0.184484,-2.861735,-2.120517,-0.008532,1.708378,0.679168
3.270000,2.850581,0.184487,-2.861733,-2.120517,-0.008532,1.708379,0.679172
3.280000,2.850578,0.184485,-2.861737,-2.120519,-0.008532,1.708377,0.679166
3.290000,2.850578,0.184487,-2.861733,-2.120521,-0.008532,1.708378,0.679167
3.300000,2.850583,0.184488,-2.861737,-2.120517,-0.008535,1.708380,0.679169
3.310000,2.850581,0.184487,-2.861735,-2.120521,-0.008533,1.708378,0.679172
3.320000,2.850581,0.184484,-2.861733,-2.120517,-0.008533,1.708379,0.679165
3.330000,2.850581,0.184484,-2.861733,-2.120521,-0.008532,1.708380,0.679169
3.340000,2.850583,0.184487,-2.861734,-2.120519,-0.008533,1.708378,0.679170
3.350000,2.850582,0.184485,-2.861735,-2.120519,-0.008533,1.708379,0.679170
3.360000,2.850577,0.184489,-2.861733,-2.120517,-0.008533,1.708381,0.679168
3.370000,2.850583,0.184484,-2.861737,-2.120526,-0.008531,1.708378,0.679173
3.380000,2.850580,0.184485,-2.861735,-2.120523,-0.008532,1.708378,0.679170
3.390000,2.850579,0.184487,-2.861737,-2.120519,-0.008533,1.708379,0.679170
3.400000,2.850583,0.184485,-2.861737,-2.120521,-0.008532,1.708380,0.679167
3.410000,2.850583,0.184485,-2.861737,-2.120523,-0.008532,1.708378,0.679172
3.420000,2.850581,0.184487,-2.861737,-2.120519,-0.008532,1.708380,0.679171
3.430000,2.850580,0.184485,-2.861733,-2.120517,-0.008534,1.708379,0.679164
3.440000,2.850585,0.184485,-2.861737,-2.120523,-0.008532,1.708378,0.679171
3.450000,2.850585,0.184482,-2.861733,-2.120521,-0.008532,1.708378,0.679170
3.460000,2.850582,0.184487,-2.861733,-2.120519,-0.008532,1.708378,0.679165
3.470000,2.850577,0.184485,-2.861737,-2.120519,-0.008533,1.708379,0.679170
3.480000,2.850581,0.184485,-2.861735,-2.120519,-0.008532,1.708378,0.679170
3.490000,2.850583,0.184488,-2.861735,-2.120519,-0.008532,1.708379,0.679170
3.500000,2.850582,0.184484,-2.861733,-2.120521,-0.008531,1.708379,0.679170
3.510000,2.850585,0.184487,-2.861735,-2.120519,-0.008531,1.708379,0.679168
3.520000,2.850581,0.184485,-2.861733,-2.120519,-0.008535,1.708381,0.679170
3.530000,2.850583,0.184487,-2.861735,-2.120517,-0.008533,1.708379,0.679168
3.540000,2.850583,0.184485,-2.861735,-2.120519,-0.008533,1.708379,0.679166
3.550000,2.850582,0.184484,-2.861737,-2.120521,-0.008532,1.708381,0.679171
3.560000,2.850583,0.184486,-2.861735,-2.120521,-0.008532,1.708380,0.679172
3.570000,2.850582,0.184487,-2.861735,-2.120521,-0.008532,1.708378,0.679166
3.580000,2.850581,0.184486,-2.861737,-2.120521,-0.008532,1.708379,0.679170
3.590000,2.850583,0.184488,-2.861738,-2.120519,-0.008532,1.708379,0.679170
3.600000,2.850582,0.184488,-2.861737,-2.120519,-0.008532,1.708378,0.679167
3.610000,2.850582,0.184484,-2.861733,-2.120519,-0.008532,1.708380,0.679166
3.620000,2.850585,0.184485,-2.861735,-2.120519,-0.008533,1.708379,0.679169
3.630000,2.850582,0.184489,-2.861735,-2.120521,-0.008532,1.708379,0.679167
3.640000,2.850580,0.184485,-2.861731,-2.120523,-0.008533,1.708381,0.679166
3.650000,2.850581,0.184487,-2.861733,-2.120521,-0.008532,1.708378,0.679171
3.660000,2.850582,0.184489,-2.861731,-2.120517,-0.008533,1.708381,0.679172
3.670000,2.850582,0.184487,-2.861733,-2.120523,-0.008532,1.708379,0.679168
3.680000,2.850582,0.184487,-2.861731,-2.120519,-0.008532,1.708379,0.679162
3.690000,2.850582,0.184485,-2.861735,-2.120521,-0.008532,1.708380,0.679172
3.700000,2.850582,0.184485,-2.861731,-2.120521,-0.008532,1.708379,0.679171
3.710000,2.850580,0.184485,-2.861738,-2.120522,-0.008532,1.708378,0.679165
3.720000,2.850582,0.184488,-2.861735,-2.120520,-0.008532,1.708380,0.679174
3.730000,2.850580,0.184484,-2.861733,-2.120521,-0.008532,1.708380,0.679172
3.740000,2.850582,0.184485,-2.861735,-2.120521,-0.008532,1.708378,0.679165
3.750000,2.850582,0.184487,-2.861735,-2.120517,-0.008532,1.708378,0.679171
3.760000,2.850582,0.184485,-2.861733,-2.120519,-0.008533,1.708380,0.679165
3.770000,2.850583,0.184486,-2.861735,-2.120521,-0.008533,1.708378,0.679167
3.780000,2.850583,0.184487,-2.861737,-2.120517,-0.008530,1.708378,0.679170
3.790000,2.850582,0.184485,-2.861738,-2.120521,-0.008531,1.708379,0.679166
3.800000,2.850582,0.184484,-2.861733,-2.120523,-0.008533,1.708380,0.679162
3.810000,2.850576,0.184486,-2.861735,-2.120517,-0.008533,1.708378,0.679172
3.820000,2.850582,0.184486,-2.861735,-2.120519,-0.008532,1.708378,0.679172
3.830000,2.850582,0.184485,-2.861733,-2.120521,-0.008537,1.708379,0.679167
3.840000,2.850583,0.184484,-2.861733,-2.120523,-0.008533,1.708379,0.679168
3.850000,2.850582,0.184486,-2.861735,-2.120520,-0.008532,1.708378,0.679174
3.860000,2.850582,0.184484,-2.861735,-2.120523,-0.008532,1.708379,0.679168
3.870000,2.850582,0.184488,-2.861735,-2.120520,-0.008535,1.708378,0.679165
3.880000,2.850583,0.184485,-2.861733,-2.120522,-0.008533,1.708379,0.679169
3.890000,2.850581,0.184485,-2.861735,-2.120520,-0.008532,1.708380,0.679169
3.900000,2.850583,0.184485,-2.861731,-2.120525,-0.008532,1.708378,0.679171
3.910000,2.850582,0.184489,-2.861735,-2.120521,-0.008533,1.708381,0.679168
3.920000,2.850582,0.184487,-2.861735,-2.120518,-0.008534,1.708380,0.679167
3.930000,2.850580,0.184485,-2.861733,-2.120522,-0.008533,1.708379,0.679167
3.940000,2.850583,0.184487,-2.861738,-2.120526,-0.008534,1.708378,0.679166
3.950000,2.850583,0.184485,-2.861737,-2.120520,-0.008533,1.708379,0.679166
3.960000,2.850582,0.184486,-2.861734,-2.120524,-0.008532,1.708378,0.679171
3.970000,2.850580,0.184486,-2.861735,-2.120523,-0.008532,1.708378,0.679170
3.980000,2.850583,0.184485,-2.861737,-2.120524,-0.008535,1.708380,0.679168
3.990000,2.850583,0.184489,-2.861735,-2.120524,-0.008535,1.708378,0.679172
4.000000,2.850582,0.184486,-2.861737,-2.120526,-0.008533,1.708378,0.679167
4.010000,2.850580,0.184487,-2.861731,-2.120522,-0.008532,1.708379,0.679168
4.020000,2.850582,0.184486,-2.861739,-2.120522,-0.008533,1.708380,0.679166
4.030000,2.850582,0.184486,-2.861734,-2.120526,-0.008532,1.708380,0.679168
4.040000,2.850583,0.184484,-2.861735,-2.120523,-0.008532,1.708377,0.679172
4.050000,2.850580,0.184489,-2.861733,-2.120521,-0.008533,1.708379,0.679166
4.060000,2.850580,0.184485,-2.861735,-2.120521,-0.008533,1.708378,0.679165
4.070000,2.850580,0.184482,-2.861737,-2.120517,-0.008536,1.708381,0.679164
4.080000,2.850582,0.184484,-2.861731,-2.120518,-0.008536,1.708379,0.679164
4.090000,2.850583,0.184485,-2.861737,-2.120522,-0.008533,1.708380,0.679172
4.100000,2.850583,0.184487,-2.861737,-2.120526,-0.008536,1.708378,0.679170
4.110000,2.850582,0.184487,-2.861735,-2.120521,-0.008533,1.708379,0.679174
4.120000,2.850582,0.184487,-2.861735,-2.120518,-0.008535,1.708381,0.679168
4.130000,2.850580,0.184487,-2.861738,-2.120524,-0.008535,1.708378,0.679168
4.140000,2.850583,0.184487,-2.861737,-2.120521,-0.008534,1.708380,0.679164
4.150000,2.850580,0.184484,-2.861737,-2.120522,-0.008534,1.708381,0.679170
4.160000,2.850580,0.184486,-2.861737,-2.120524,-0.008534,1.708377,0.679163
4.170000,2.850583,0.184489,-2.861735,-2.120524,-0.008533,1.708380,0.679169
4.180000,2.850582,0.184487,-2.861733,-2.120520,-0.008535,1.708381,0.679169
4.190000,2.850580,0.184484,-2.861739,-2.120523,-0.008533,1.708380,0.679166
4.200000,2.850585,0.184485,-2.861729,-2.120522,-0.008537,1.708379,0.679171
4.210000,2.850585,0.184485,-2.861733,-2.120526,-0.008534,1.708379,0.679172
4.220000,2.850581,0.184485,-2.861735,-2.120522,-0.008535,1.708379,0.679167
4.230000,2.850582,0.184484,-2.861735,-2.120522,-0.008532,1.708378,0.679167
4.240000,2.850583,0.184485,-2.861735,-2.120524,-0.008533,1.708378,0.679162
4.250000,2.850583,0.184485,-2.861737,-2.120524,-0.008535,1.708380,0.679171
4.260000,2.850585,0.184487,-2.861735,-2.120524,-0.008533,1.708379,0.679168
4.270000,2.850582,0.184485,-2.861733,-2.120519,-0.008532,1.708380,0.679167
4.280000,2.850581,0.184485,-2.861735,-2.120520,-0.008532,1.708379,0.679172
4.290000,2.850580,0.184484,-2.861735,-2.120524,-0.008532,1.708378,0.679166
4.300000,2.850582,0.184484,-2.861735,-2.120524,-0.008535,1.708379,0.679172
4.310000,2.850584,0.184487,-2.861735,-2.120521,-0.008534,1.708380,0.679167
4.320000,2.850582,0.184487,-2.861731,-2.120522,-0.008536,1.708379,0.679166
4.330000,2.850588,0.184484,-2.861737,-2.120524,-0.008536,1.708379,0.679165
4.340000,2.850583,0.184487,-2.861735,-2.120524,-0.008535,1.708379,0.679168
4.350000,2.850585,0.184484,-2.861733,-2.120522,-0.008534,1.708379,0.679164
4.360000,2.850582,0.184484,-2.861733,-2.120522,-0.008536,1.708379,0.679172
4.370000,2.850582,0.184487,-2.861735,-2.120521,-0.008533,1.708379,0.679171
4.380000,2.850583,0.184484,-2.861733,-2.120526,-0.008534,1.708378,0.679167
4.390000,2.850583,0.184484,-2.861735,-2.120526,-0.008531,1.708378,0.679167
4.400000,2.850585,0.184487,-2.861733,-2.120524,-0.008533,1.708379,0.679168
4.410000,2.850582,0.184485,-2.861733,-2.120522,-0.008536,1.708379,0.679166
4.420000,2.850582,0.184484,-2.861735,-2.120521,-0.008532,1.708379,0.679161
4.430000,2.850580,0.184485,-2.861734,-2.120522,-0.008533,1.708380,0.679173
4.440000,2.850584,0.184487,-2.861735,-2.120521,-0.008532,1.708379,0.679167
4.450000,2.850587,0.184485,-2.861735,-2.120521,-0.008536,1.708380,0.679169
4.460000,2.850584,0.184489,-2.861737,-2.120524,-0.008533,1.708378,0.679168
4.470000,2.850582,0.184485,-2.861735,-2.120521,-0.008537,1.708379,0.679168
4.480000,2.850584,0.184485,-2.861733,-2.120526,-0.008532,1.708380,0.679168
4.490000,2.850584,0.184485,-2.861735,-2.120522,-0.008533,1.708379,0.679168
4.500000,2.850582,0.184487,-2.861735,-2.120522,-0.008533,1.708379,0.679167
4.510000,2.850582,0.184487,-2.861733,-2.120519,-0.008535,1.708379,0.679165
4.520000,2.850583,0.184484,-2.861737,-2.120526,-0.008532,1.708378,0.679173
4.530000,2.850582,0.184485,-2.861735,-2.120522,-0.008532,1.708378,0.679164
4.540000,2.850586,0.184485,-2.861733,-2.120524,-0.008537,1.708378,0.679169
4.550000,2.850588,0.184485,-2.861733,-2.120522,-0.008536,1.708378,0.679170
4.560000,2.850586,0.184485,-2.861733,-2.120521,-0.008532,1.708378,0.679162
4.570000,2.850583,0.184484,-2.861739,-2.120522,-0.008536,1.708380,0.679172
4.580000,2.850586,0.184485,-2.861735,-2.120522,-0.008534,1.708378,0.679168
4.590000,2.850581,0.184487,-2.861733,-2.120526,-0.008531,1.708377,0.679165
4.600000,2.850583,0.184487,-2.861737,-2.120518,-0.008533,1.708378,0.679165
4.610000,2.850582,0.184484,-2.861733,-2.120524,-0.008536,1.708378,0.679168
4.620000,2.850580,0.184487,-2.861739,-2.120526,-0.008537,1.708378,0.679167
4.630000,2.850583,0.184484,-2.861735,-2.120522,-0.008533,1.708378,0.679170
4.640000,2.850584,0.184487,-2.861737,-2.120519,-0.008538,1.708379,0.679160
4.650000,2.850581,0.184484,-2.861733,-2.120524,-0.008537,1.708379,0.679165
4.660000,2.850584,0.184485,-2.861737,-2.120524,-0.008537,1.708379,0.679169
4.670000,2.850580,0.184487,-2.861737,-2.120522,-0.008536,1.708380,0.679163
4.680000,2.850584,0.184487,-2.861735,-2.120524,-0.008534,1.708378,0.679168
4.690000,2.850585,0.184487,-2.861735,-2.120524,-0.008532,1.708379,0.679171
4.700000,2.850583,0.184489,-2.861732,-2.120521,-0.008536,1.708379,0.679168
4.710000,2.850580,0.184488,-2.861734,-2.120526,-0.008536,1.708380,0.679169
4.720000,2.850584,0.184489,-2.861735,-2.120524,-0.008534,1.708378,0.679170
4.730000,2.850584,0.184487,-2.861735,-2.120524,-0.008533,1.708380,0.679161
4.740000,2.850584,0.184490,-2.861735,-2.120519,-0.008533,1.708380,0.679171
4.750000,2.850582,0.184485,-2.861735,-2.120526,-0.008533,1.708378,0.679167
4.760000,2.850583,0.184485,-2.861733,-2.120524,-0.008536,1.708379,0.679168
4.770000,2.850582,0.184487,-2.861737,-2.120524,-0.008537,1.708378,0.679164
4.780000,2.850586,0.184487,-2.861735,-2.120522,-0.008537,1.708378,0.679165
4.790000,2.850588,0.184485,-2.861731,-2.120526,-0.008537,1.708379,0.679166
4.800000,2.850582,0.184489,-2.861735,-2.120521,-0.008536,1.708380,0.679164
4.810000,2.850584,0.184485,-2.861737,-2.120524,-0.008537,1.708380,0.679168
4.820000,2.850584,0.184484,-2.861739,-2.120524,-0.008536,1.708378,0.679164
4.830000,2.850581,0.184487,-2.861733,-2.120522,-0.008534,1.708379,0.679166
4.840000,2.850582,0.184484,-2.861735,-2.120521,-0.008534,1.708380,0.679162
4.850000,2.850585,0.184485,-2.861735,-2.120526,-0.008536,1.708380,0.679166
4.860000,2.850586,0.184485,-2.861737,-2.120524,-0.008532,1.708379,0.679163
4.870000,2.850581,0.184487,-2.861735,-2.120521,-0.008534,1.708381,0.679167
4.880000,2.850585,0.184484,-2.861737,-2.120521,-0.008537,1.708378,0.679169
4.890000,2.850585,0.184487,-2.861737,-2.120524,-0.008536,1.708379,0.679163
4.900000,2.850581,0.184487,-2.861739,-2.120519,-0.008536,1.708381,0.679169
4.910000,2.850588,0.184489,-2.861735,-2.120521,-0.008537,1.708378,0.679165
4.920000,2.850582,0.184487,-2.861737,-2.120522,-0.008536,1.708381,0.679167
4.930000,2.850586,0.184484,-2.861733,-2.120521,-0.008537,1.708380,0.679164
4.940000,2.850585,0.184485,-2.861735,-2.120524,-0.008535,1.708378,0.679172
4.950000,2.850584,0.184487,-2.861737,-2.120526,-0.008533,1.708378,0.679163
4.960000,2.850582,0.184487,-2.861735,-2.120521,-0.008534,1.708380,0.679168
4.970000,2.850585,0.184487,-2.861735,-2.120521,-0.008537,1.708380,0.679165
4.980000,2.850583,0.184484,-2.861733,-2.120524,-0.008536,1.708378,0.679166
4.990000,2.850583,0.184485,-2.861733,-2.120521,-0.008537,1.708380,0.679166
5.000000,2.850580,0.184489,-2.861735,-2.120521,-0.008537,1.708380,0.679163
5.010000,2.850588,0.184489,-2.861735,-2.120526,-0.008532,1.708378,0.679164
5.020000,2.850587,0.184484,-2.861735,-2.120527,-0.008534,1.708379,0.679167
5.030000,2.850584,0.184484,-2.861733,-2.120522,-0.008536,1.708378,0.679167
5.040000,2.850586,0.184485,-2.861735,-2.120524,-0.008536,1.708378,0.679163
5.050000,2.850580,0.184487,-2.861737,-2.120522,-0.008536,1.708379,0.679167
5.060000,2.850586,0.184485,-2.861734,-2.120522,-0.008537,1.708380,0.679164
5.070000,2.850585,0.184484,-2.861739,-2.120526,-0.008537,1.708380,0.679165
5.080000,2.850586,0.184485,-2.861734,-2.120528,-0.008533,1.708380,0.679162
5.090000,2.850583,0.184485,-2.861735,-2.120522,-0.008535,1.708378,0.679167
5.100000,2.850586,0.184488,-2.861735,-2.120524,-0.008534,1.708379,0.679165
5.110000,2.850588,0.184485,-2.861735,-2.120526,-0.008537,1.708380,0.679162
5.120000,2.850585,0.184485,-2.861735,-2.120522,-0.008535,1.708380,0.679165
5.130000,2.850588,0.184487,-2.861735,-2.120521,-0.008532,1.708381,0.679166
5.140000,2.850586,0.184487,-2.861735,-2.120529,-0.008536,1.708378,0.679167
5.150000,2.850585,0.184485,-2.861733,-2.120527,-0.008535,1.708378,0.679169
5.160000,2.850585,0.184487,-2.861737,-2.120522,-0.008535,1.708379,0.679164
5.170000,2.850584,0.184485,-2.861737,-2.120525,-0.008536,1.708379,0.679164
5.180000,2.850586,0.184484,-2.861737,-2.120527,-0.008532,1.708377,0.679167
5.190000,2.850586,0.184485,-2.861733,-2.120521,-0.008535,1.708379,0.679161
5.200000,2.850585,0.184484,-2.861735,-2.120522,-0.008536,1.708379,0.679164
5.210000,2.850586,0.184485,-2.861737,-2.120528,-0.008533,1.708379,0.679167
5.220000,2.850583,0.184485,-2.861737,-2.120523,-0.008537,1.708379,0.679163
5.230000,2.850586,0.184484,-2.861731,-2.120526,-0.008537,1.708381,0.679161
5.240000,2.850585,0.184485,-2.861735,-2.120523,-0.008538,1.708377,0.679166
5.250000,2.850585,0.184484,-2.861733,-2.120521,-0.008534,1.708380,0.679166
5.260000,2.850585,0.184487,-2.861733,-2.120524,-0.008536,1.708380,0.679163
5.270000,2.850586,0.184487,-2.861735,-2.120523,-0.008537,1.708378,0.679166
5.280000,2.850583,0.184485,-2.861735,-2.120526,-0.008535,1.708378,0.679167
5.290000,2.850583,0.184487,-2.861735,-2.120517,-0.008533,1.708378,0.679164
5.300000,2.850588,0.184485,-2.861737,-2.120526,-0.008534,1.708378,0.679163
5.310000,2.850585,0.184485,-2.861735,-2.120525,-0.008533,1.708379,0.679163
5.320000,2.850585,0.184485,-2.861735,-2.120529,-0.008536,1.708379,0.679166
5.330000,2.850586,0.184484,-2.861733,-2.120528,-0.008537,1.708377,0.679161
5.340000,2.850583,0.184484,-2.861733,-2.120527,-0.008534,1.708376,0.679166
5.350000,2.850585,0.184487,-2.861733,-2.120523,-0.008537,1.708379,0.679168
5.360000,2.850585,0.184487,-2.861734,-2.120521,-0.008536,1.708381,0.679163
5.370000,2.850585,0.184489,-2.861735,-2.120527,-0.008538,1.708378,0.679162
5.380000,2.850588,0.184485,-2.861735,-2.120527,-0.008538,1.708378,0.679166
5.390000,2.850585,0.184485,-2.861733,-2.120522,-0.008536,1.708380,0.679159
5.400000,2.850585,0.184485,-2.861735,-2.120525,-0.008537,1.708379,0.679161
5.410000,2.850588,0.184485,-2.861737,-2.120523,-0.008536,1.708381,0.679168
5.420000,2.850585,0.184482,-2.861734,-2.120523,-0.008536,1.708380,0.679166
5.430000,2.850583,0.184487,-2.861735,-2.120529,-0.008538,1.708379,0.679162
5.440000,2.850585,0.184484,-2.861731,-2.120529,-0.008538,1.708378,0.679164
5.450000,2.850586,0.184485,-2.861738,-2.120525,-0.008537,1.708378,0.679161
5.460000,2.850588,0.184487,-2.861733,-2.120523,-0.008537,1.708381,0.679164
5.470000,2.850586,0.184485,-2.861731,-2.120529,-0.008536,1.708380,0.679165
5.480000,2.850585,0.184485,-2.861737,-2.120525,-0.008536,1.708378,0.679164
5.490000,2.850585,0.184485,-2.861733,-2.120520,-0.008536,1.708378,0.679161
5.500000,2.850586,0.184484,-2.861735,-2.120527,-0.008538,1.708378,0.679166
5.510000,2.850585,0.184485,-2.861735,-2.120525,-0.008536,1.708378,0.679166
5.520000,2.850585,0.184487,-2.861731,-2.120522,-0.008537,1.708380,0.679161
5.530000,2.850586,0.184487,-2.861733,-2.120526,-0.008537,1.708378,0.679166
5.540000,2.850586,0.184480,-2.861737,-2.120527,-0.008536,1.708377,0.679164
5.550000,2.850586,0.184484,-2.861735,-2.120527,-0.008536,1.708378,0.679164
5.560000,2.850588,0.184485,-2.861735,-2.120525,-0.008537,1.708379,0.679166
5.570000,2.850585,0.184485,-2.861737,-2.120525,-0.008536,1.708377,0.679168
5.580000,2.850585,0.184484,-2.861733,-2.120525,-0.008533,1.708380,0.679168
5.590000,2.850583,0.184485,-2.861735,-2.120523,-0.008535,1.708380,0.679168
5.600000,2.850585,0.184482,-2.861733,-2.120527,-0.008536,1.708378,0.679163
5.610000,2.850586,0.184488,-2.861737,-2.120525,-0.008536,1.708378,0.679166
5.620000,2.850585,0.184486,-2.861737,-2.120518,-0.008536,1.708379,0.679162
5.630000,2.850585,0.184484,-2.861735,-2.120527,-0.008535,1.708378,0.679166
5.640000,2.850583,0.184484,-2.861735,-2.120525,-0.008537,1.708378,0.679163
5.650000,2.850583,0.184484,-2.861735,-2.120525,-0.008536,1.708379,0.679166
5.660000,2.850585,0.184486,-2.861735,-2.120525,-0.008537,1.708379,0.679165
5.670000,2.850586,0.184484,-2.861735,-2.120525,-0.008536,1.708378,0.679166
5.680000,2.850585,0.184481,-2.861737,-2.120527,-0.008538,1.708378,0.679166
5.690000,2.850585,0.184484,-2.861738,-2.120527,-0.008536,1.708380,0.679166
5.700000,2.850585,0.184481,-2.861736,-2.120523,-0.008536,1.708380,0.679166
5.710000,2.850585,0.184479,-2.861735,-2.120525,-0.008535,1.708378,0.679161
5.720000,2.850585,0.184482,-2.861735,-2.120525,-0.008538,1.708378,0.679161
5.730000,2.850583,0.184484,-2.861737,-2.120531,-0.008536,1.708378,0.679162
5.740000,2.850585,0.184484,-2.861731,-2.120531,-0.008537,1.708379,0.679160
5.750000,2.850585,0.184484,-2.861733,-2.120525,-0.008538,1.708380,0.679160
5.760000,2.850585,0.184482,-2.861737,-2.120527,-0.008538,1.708377,0.679163
5.770000,2.850581,0.184484,-2.861735,-2.120531,-0.008536,1.708378,0.679164
5.780000,2.850586,0.184482,-2.861735,-2.120525,-0.008538,1.708381,0.679168
5.790000,2.850585,0.184484,-2.861733,-2.120527,-0.008534,1.708379,0.679166
5.800000,2.850586,0.184482,-2.861735,-2.120527,-0.008535,1.708378,0.679167
5.810000,2.850585,0.184482,-2.861735,-2.120524,-0.008535,1.708378,0.679168
5.820000,2.850587,0.184481,-2.861739,-2.120520,-0.008536,1.708380,0.679170
5.830000,2.850586,0.184481,-2.861735,-2.120533,-0.008538,1.708378,0.679161
5.840000,2.850585,0.184481,-2.861735,-2.120524,-0.008536,1.708379,0.679164
5.850000,2.850585,0.184481,-2.861735,-2.120522,-0.008537,1.708379,0.679164
5.860000,2.850585,0.184484,-2.861733,-2.120525,-0.008536,1.708378,0.679165
5.870000,2.850586,0.184482,-2.861738,-2.120527,-0.008534,1.708378,0.679164
5.880000,2.850586,0.184484,-2.861735,-2.120522,-0.008537,1.708380,0.679161
5.890000,2.850583,0.184484,-2.861738,-2.120525,-0.008537,1.708380,0.679163
5.900000,2.850587,0.184481,-2.861737,-2.120524,-0.008536,1.708378,0.679163
5.910000,2.850585,0.184482,-2.861731,-2.120524,-0.008536,1.708378,0.679163
5.920000,2.850579,0.184484,-2.861735,-2.120529,-0.008537,1.708378,0.679168
5.930000,2.850585,0.184484,-2.861737,-2.120531,-0.008536,1.708378,0.679164
5.940000,2.850585,0.184482,-2.861735,-2.120520,-0.008537,1.708381,0.679167
5.950000,2.850586,0.184484,-2.861737,-2.120529,-0.008538,1.708381,0.679168
5.960000,2.850586,0.184486,-2.861735,-2.120525,-0.008536,1.708380,0.679165
5.970000,2.850585,0.184482,-2.861733,-2.120525,-0.008538,1.708379,0.679165
5.980000,2.850588,0.184486,-2.861740,-2.120520,-0.008536,1.708378,0.679163
5.990000,2.850585,0.184484,-2.861737,-2.120529,-0.008538,1.708378,0.679167
6.000000,2.850586,0.184484,-2.861737,-2.120525,-0.008537,1.708378,0.679159
6.010000,2.850586,0.184484,-2.861735,-2.120525,-0.008536,1.708380,0.679166
6.020000,2.850586,0.184482,-2.861737,-2.120525,-0.008537,1.708378,0.679161
6.030000,2.850585,0.184481,-2.861739,-2.120522,-0.008537,1.708379,0.679170
6.040000,2.850585,0.184484,-2.861735,-2.120524,-0.008537,1.708380,0.679163
