HIRO-group/drake-franka-driver/joint_angles.csv
timestamp,joint1,joint2,joint3,joint4,joint5,joint6,joint7
0.000000,0.000000,0.000000,0.000000,0.000000,0.000000,0.000000,0.000000
0.010000,0.001588,-0.783939,0.000118,-2.356071,-0.003074,1.570125,0.790739
0.020000,0.001589,-0.783936,0.000120,-2.356095,-0.003075,1.570119,0.790738
0.030000,0.001589,-0.783939,0.000122,-2.356071,-0.003077,1.570123,0.790741
0.040000,0.001589,-0.783939,0.000118,-2.356071,-0.003074,1.570125,0.790737
0.050000,0.001588,-0.783932,0.000118,-2.356093,-0.003078,1.570120,0.790736
0.060000,0.001587,-0.783939,0.000115,-2.356071,-0.003078,1.570123,0.790740
0.070000,0.001588,-0.783939,0.000119,-2.356071,-0.003078,1.570125,0.790740
0.080000,0.001587,-0.783938,0.000120,-2.356089,-0.003074,1.570123,0.790734
0.090000,0.001589,-0.783938,0.000120,-2.356086,-0.003074,1.570124,0.790740
0.100000,0.001590,-0.783938,0.000118,-2.356073,-0.003075,1.570124,0.790737
0.110000,0.001588,-0.783936,0.000118,-2.356092,-0.003075,1.570124,0.790739
0.120000,0.001588,-0.783939,0.000117,-2.356071,-0.003075,1.570126,0.790742
0.130000,0.001585,-0.783939,0.000117,-2.356073,-0.003076,1.570126,0.790738
0.140000,0.001581,-0.783938,0.000118,-2.356093,-0.003072,1.570120,0.790737
0.150000,0.001588,-0.783939,0.000120,-2.356088,-0.003074,1.570123,0.790736
0.160000,0.001589,-0.783941,0.000118,-2.356068,-0.003075,1.570125,0.790742
0.170000,0.001587,-0.783936,0.000120,-2.356093,-0.003073,1.570120,0.790738
0.180000,0.001585,-0.783934,0.000120,-2.356094,-0.003073,1.570120,0.790737
0.190000,0.001585,-0.783936,0.000118,-2.356074,-0.003073,1.570125,0.790738
0.200000,0.001589,-0.783939,0.000118,-2.356094,-0.003078,1.570120,0.790740
0.210000,0.001589,-0.783938,0.000118,-2.356090,-0.003074,1.570120,0.790741
0.220000,0.001587,-0.783938,0.000118,-2.356070,-0.003076,1.570126,0.790734
0.230000,0.001587,-0.783936,0.000122,-2.356086,-0.003074,1.570124,0.790736
0.240000,0.001587,-0.783935,0.000118,-2.356096,-0.003075,1.570118,0.790739
0.250000,0.001585,-0.783934,0.000116,-2.356082,-0.003073,1.570120,0.790740
0.260000,0.001588,-0.783939,0.000121,-2.356086,-0.003075,1.570120,0.790737
0.270000,0.001583,-0.783936,0.000118,-2.356094,-0.003076,1.570123,0.790738
0.280000,0.001588,-0.783939,0.000118,-2.356071,-0.003073,1.570121,0.790735
0.290000,0.001587,-0.783936,0.000114,-2.356084,-0.003073,1.570118,0.790735
0.300000,0.001588,-0.783938,0.000118,-2.356097,-0.003073,1.570118,0.790731
0.310000,0.001588,-0.783939,0.000119,-2.356071,-0.003074,1.570124,0.790735
0.320000,0.001588,-0.783939,0.000121,-2.356080,-0.003073,1.570121,0.790731
0.330000,0.001589,-0.783934,0.000118,-2.356096,-0.003073,1.570119,0.790733
0.340000,0.001588,-0.783941,0.000116,-2.356073,-0.003073,1.570122,0.790739
0.350000,0.001588,-0.783939,0.000118,-2.356080,-0.003072,1.570121,0.790735
0.360000,0.001590,-0.783934,0.000117,-2.356095,-0.003073,1.570119,0.790731
0.370000,0.001588,-0.783941,0.000117,-2.356079,-0.003073,1.570122,0.790732
0.380000,0.001587,-0.783939,0.000113,-2.356078,-0.003075,1.570120,0.790736
0.390000,0.001590,-0.783936,0.000118,-2.356099,-0.003075,1.570123,0.790730
0.400000,0.001587,-0.783939,0.000117,-2.356078,-0.003073,1.570122,0.790735
0.410000,0.001585,-0.783938,0.000120,-2.356075,-0.003074,1.570122,0.790732
0.420000,0.001588,-0.783936,0.000122,-2.356098,-0.003073,1.570120,0.790731
0.430000,0.001590,-0.783938,0.000116,-2.356081,-0.003073,1.570124,0.790737
0.440000,0.001587,-0.783936,0.000120,-2.356078,-0.003073,1.570121,0.790733
0.450000,0.001588,-0.783934,0.000122,-2.356096,-0.003073,1.570119,0.790725
0.460000,0.001587,-0.783941,0.000122,-2.356078,-0.003073,1.570122,0.790736
0.470000,0.001588,-0.783936,0.000118,-2.356078,-0.003073,1.570123,0.790731
0.480000,0.001590,-0.783935,0.000118,-2.356096,-0.003072,1.570124,0.790733
0.490000,0.001588,-0.783942,0.000116,-2.356083,-0.003073,1.570121,0.790730
0.500000,0.001588,-0.783938,0.000116,-2.356073,-0.003073,1.570121,0.790733
0.510000,0.001588,-0.783939,0.000116,-2.356099,-0.003073,1.570120,0.790728
0.520000,0.001585,-0.783939,0.000118,-2.356074,-0.003074,1.570120,0.790728
0.530000,0.001588,-0.783938,0.000118,-2.356079,-0.003074,1.570121,0.790729
0.540000,0.001588,-0.783936,0.000121,-2.356099,-0.003074,1.570120,0.790726
0.550000,0.001588,-0.783938,0.000118,-2.356071,-0.003074,1.570122,0.790724
0.560000,0.001585,-0.783941,0.000118,-2.356070,-0.003073,1.570125,0.790732
0.570000,0.001588,-0.783938,0.000116,-2.356096,-0.003071,1.570122,0.790730
0.580000,0.001587,-0.783934,0.000118,-2.356075,-0.003074,1.570122,0.790729
0.590000,0.001585,-0.783939,0.000118,-2.356074,-0.003072,1.570121,0.790729
0.600000,0.001587,-0.783936,0.000120,-2.356090,-0.003072,1.570118,0.790726
0.610000,0.001588,-0.783935,0.000118,-2.356088,-0.003074,1.570120,0.790731
0.620000,0.001588,-0.783940,0.000118,-2.356071,-0.003073,1.570122,0.790731
0.630000,0.001587,-0.783938,0.000121,-2.356093,-0.003074,1.570118,0.790726
0.640000,0.001588,-0.783938,0.000122,-2.356072,-0.003073,1.570126,0.790733
0.650000,0.001587,-0.783943,0.000118,-2.356071,-0.003073,1.570123,0.790731
0.660000,0.001587,-0.783938,0.000118,-2.356090,-0.003073,1.570119,0.790731
0.670000,0.001587,-0.783938,0.000117,-2.356074,-0.003076,1.570121,0.790728
0.680000,0.001587,-0.783941,0.000120,-2.356075,-0.003074,1.570120,0.790730
0.690000,0.001588,-0.783938,0.000117,-2.356094,-0.003072,1.570119,0.790731
0.700000,0.001590,-0.783936,0.000118,-2.356091,-0.003073,1.570122,0.790728
0.710000,0.001585,-0.783941,0.000117,-2.356071,-0.003073,1.570121,0.790727
0.720000,0.001587,-0.783938,0.000117,-2.356098,-0.003073,1.570123,0.790722
0.730000,0.001588,-0.783936,0.000118,-2.356096,-0.003073,1.570121,0.790725
0.740000,0.001587,-0.783943,0.000118,-2.356076,-0.003073,1.570122,0.790733
0.750000,0.001587,-0.783938,0.000115,-2.356098,-0.003073,1.570121,0.790722
0.760000,0.001587,-0.783938,0.000116,-2.356091,-0.003072,1.570119,0.790721
0.770000,0.001588,-0.783939,0.000118,-2.356075,-0.003073,1.570121,0.790724
0.780000,0.001590,-0.783936,0.000116,-2.356086,-0.003073,1.570120,0.790725
0.790000,0.001585,-0.783934,0.000118,-2.356096,-0.003072,1.570120,0.790725
0.800000,0.001590,-0.783941,0.000118,-2.356072,-0.003072,1.570123,0.790724
0.810000,0.001588,-0.783938,0.000122,-2.356087,-0.003073,1.570124,0.790728
0.820000,0.001587,-0.783938,0.000117,-2.356094,-0.003072,1.570120,0.790726
0.830000,0.001587,-0.783941,0.000117,-2.356075,-0.003074,1.570123,0.790724
0.840000,0.001588,-0.783934,0.000115,-2.356096,-0.003073,1.570119,0.790721
0.850000,0.001588,-0.783938,0.000119,-2.356094,-0.003073,1.570118,0.790725
0.860000,0.001590,-0.783938,0.000117,-2.356078,-0.003074,1.570123,0.790725
0.870000,0.001587,-0.783941,0.000117,-2.356084,-0.003073,1.570121,0.790726
0.880000,0.001590,-0.783936,0.000118,-2.356100,-0.003073,1.570122,0.790722
0.890000,0.001587,-0.783939,0.000112,-2.356080,-0.003074,1.570121,0.790726
0.900000,0.001588,-0.783938,0.000117,-2.356081,-0.003074,1.570120,0.790725
0.910000,0.001588,-0.783938,0.000118,-2.356082,-0.003073,1.570121,0.790721
0.920000,0.001585,-0.783941,0.000112,-2.356082,-0.003073,1.570120,0.790722
0.930000,0.001587,-0.783936,0.000118,-2.356080,-0.003072,1.570123,0.790718
0.940000,0.001590,-0.783934,0.000114,-2.356101,-0.003072,1.570118,0.790725
0.950000,0.001588,-0.783938,0.000115,-2.356074,-0.003073,1.570122,0.790719
0.960000,0.001588,-0.783936,0.000117,-2.356079,-0.003073,1.570119,0.790723
0.970000,0.001590,-0.783938,0.000116,-2.356101,-0.003074,1.570120,0.790725
0.980000,0.001592,-0.783940,0.000116,-2.356085,-0.003074,1.570120,0.790724
0.990000,0.001590,-0.783938,0.000116,-2.356074,-0.003074,1.570121,0.790723
1.000000,0.001588,-0.783938,0.000118,-2.356084,-0.003072,1.570120,0.790720
1.010000,0.001587,-0.783939,0.000112,-2.356073,-0.003072,1.570120,0.790716
1.020000,0.001586,-0.783936,0.000116,-2.356077,-0.003072,1.570121,0.790717
1.030000,0.001586,-0.783933,0.000119,-2.356101,-0.003073,1.570117,0.790720
1.040000,0.001589,-0.783939,0.000117,-2.356072,-0.003073,1.570121,0.790721
1.050000,0.001590,-0.783936,0.000115,-2.356073,-0.003072,1.570121,0.790721
1.060000,0.001588,-0.783936,0.000117,-2.356098,-0.003073,1.570120,0.790722
1.070000,0.001585,-0.783941,0.000116,-2.356089,-0.003073,1.570120,0.790721
1.080000,0.001590,-0.783938,0.000116,-2.356078,-0.003072,1.570121,0.790717
1.090000,0.001587,-0.783938,0.000115,-2.356096,-0.003074,1.570118,0.790720
1.100000,0.001590,-0.783938,0.000120,-2.356087,-0.003073,1.570120,0.790722
1.110000,0.001585,-0.783936,0.000117,-2.356076,-0.003073,1.570120,0.790716
1.120000,0.001587,-0.783936,0.000118,-2.356094,-0.003074,1.570119,0.790721
1.130000,0.001590,-0.783936,0.000116,-2.356089,-0.003073,1.570120,0.790722
1.140000,0.001584,-0.783938,0.000118,-2.356078,-0.003073,1.570122,0.790722
1.150000,0.001588,-0.783938,0.000116,-2.356096,-0.003073,1.570120,0.790722
1.160000,0.001586,-0.783938,0.000118,-2.356087,-0.003072,1.570120,0.790722
1.170000,0.001584,-0.783939,0.000122,-2.356075,-0.003073,1.570122,0.790715
1.180000,0.001587,-0.783936,0.000117,-2.356094,-0.003073,1.570119,0.790719
1.190000,0.001586,-0.783939,0.000117,-2.356093,-0.003073,1.570118,0.790717
1.200000,0.001586,-0.783941,0.000118,-2.356076,-0.003074,1.570121,0.790712
1.210000,0.001585,-0.783938,0.000120,-2.356093,-0.003072,1.570120,0.790720
1.220000,0.001587,-0.783936,0.000120,-2.356093,-0.003072,1.570119,0.790718
1.230000,0.001585,-0.783938,0.000117,-2.356075,-0.003073,1.570121,0.790714
1.240000,0.001589,-0.783934,0.000120,-2.356096,-0.003073,1.570119,0.790722
1.250000,0.001588,-0.783939,0.000118,-2.356094,-0.003073,1.570119,0.790717
1.260000,0.001586,-0.783941,0.000119,-2.356076,-0.003073,1.570121,0.790716
1.270000,0.001583,-0.783939,0.000118,-2.356087,-0.003073,1.570119,0.790716
1.280000,0.001590,-0.783936,0.000116,-2.356100,-0.003072,1.570120,0.790714
1.290000,0.001582,-0.783941,0.000116,-2.356078,-0.003074,1.570120,0.790717
1.300000,0.001586,-0.783936,0.000117,-2.356085,-0.003073,1.570119,0.790718
1.310000,0.001587,-0.783938,0.000118,-2.356093,-0.003073,1.570119,0.790715
1.320000,0.001584,-0.783938,0.000118,-2.356085,-0.003073,1.570120,0.790710
1.330000,0.001582,-0.783936,0.000118,-2.356088,-0.003074,1.570119,0.790713
1.340000,0.001583,-0.783938,0.000118,-2.356096,-0.003073,1.570118,0.790717
1.350000,0.001587,-0.783942,0.000118,-2.356076,-0.003073,1.570122,0.790712
1.360000,0.001586,-0.783939,0.000120,-2.356082,-0.003073,1.570119,0.790715
1.370000,0.001585,-0.783934,0.000122,-2.356098,-0.003073,1.570118,0.790714
1.380000,0.001588,-0.783938,0.000118,-2.356082,-0.003073,1.570120,0.790718
1.390000,0.001586,-0.783936,0.000117,-2.356080,-0.003072,1.570120,0.790715
1.400000,0.001588,-0.783932,0.000120,-2.356098,-0.003073,1.570121,0.790716
1.410000,0.001585,-0.783936,0.000113,-2.356080,-0.003073,1.570121,0.790716
1.420000,0.001584,-0.783936,0.000118,-2.356084,-0.003073,1.570120,0.790713
1.430000,0.001584,-0.783938,0.000118,-2.356098,-0.003073,1.570120,0.790713
1.440000,0.001584,-0.783936,0.000120,-2.356080,-0.003073,1.570120,0.790716
1.450000,0.001588,-0.783939,0.000120,-2.356078,-0.003074,1.570121,0.790713
1.460000,0.001587,-0.783934,0.000118,-2.356097,-0.003072,1.570121,0.790715
1.470000,0.001584,-0.783938,0.000114,-2.356084,-0.003072,1.570121,0.790717
1.480000,0.001587,-0.783939,0.000115,-2.356082,-0.003073,1.570122,0.790714
1.490000,0.001585,-0.783936,0.000118,-2.356096,-0.003072,1.570120,0.790712
1.500000,0.001587,-0.783939,0.000118,-2.356080,-0.003072,1.570120,0.790714
1.510000,0.001585,-0.783941,0.000122,-2.356078,-0.003073,1.570122,0.790709
1.520000,0.001584,-0.783936,0.000120,-2.356091,-0.003073,1.570122,0.790710
1.530000,0.001584,-0.783939,0.000118,-2.356084,-0.003073,1.570120,0.790709
1.540000,0.001585,-0.783938,0.000115,-2.356082,-0.003073,1.570121,0.790710
1.550000,0.001585,-0.783938,0.000120,-2.356089,-0.003070,1.570120,0.790708
1.560000,0.001584,-0.783938,0.000117,-2.356080,-0.003072,1.570120,0.790708
1.570000,0.001586,-0.783941,0.000120,-2.356080,-0.003072,1.570120,0.790711
1.580000,0.001586,-0.783936,0.000115,-2.356096,-0.003068,1.570121,0.790706
1.590000,0.001585,-0.783938,0.000118,-2.356085,-0.003072,1.570120,0.790712
1.600000,0.001584,-0.783942,0.000118,-2.356075,-0.003072,1.570120,0.790710
1.610000,0.001585,-0.783938,0.000118,-2.356096,-0.003072,1.570120,0.790711
1.620000,0.001584,-0.783936,0.000117,-2.356076,-0.003074,1.570120,0.790712
1.630000,0.001585,-0.783936,0.000118,-2.356076,-0.003073,1.570122,0.790708
1.640000,0.001586,-0.783936,0.000120,-2.356096,-0.003073,1.570118,0.790712
1.650000,0.001587,-0.783938,0.000118,-2.356087,-0.003073,1.570121,0.790708
1.660000,0.001582,-0.783938,0.000120,-2.356075,-0.003072,1.570120,0.790711
1.670000,0.001585,-0.783936,0.000118,-2.356098,-0.003071,1.570119,0.790707
1.680000,0.001585,-0.783936,0.000116,-2.356087,-0.003068,1.570121,0.790708
1.690000,0.001584,-0.783938,0.000116,-2.356076,-0.003072,1.570122,0.790711
1.700000,0.001584,-0.783936,0.000117,-2.356093,-0.003069,1.570120,0.790705
1.710000,0.001585,-0.783938,0.000118,-2.356095,-0.003071,1.570120,0.790709
1.720000,0.001582,-0.783936,0.000120,-2.356093,-0.003071,1.570121,0.790703
1.730000,0.001587,-0.783939,0.000117,-2.356093,-0.003072,1.570119,0.790707
1.740000,0.001584,-0.783936,0.000117,-2.356096,-0.003070,1.570118,0.790704
1.750000,0.001587,-0.783938,0.000118,-2.356093,-0.003073,1.570120,0.790701
1.760000,0.001584,-0.783935,0.000120,-2.356091,-0.003073,1.570120,0.790707
1.770000,0.001585,-0.783936,0.000117,-2.356097,-0.003073,1.570118,0.790707
1.780000,0.001580,-0.783941,0.000118,-2.356080,-0.003073,1.570121,0.790704
1.790000,0.001584,-0.783936,0.000118,-2.356095,-0.003070,1.570118,0.790707
1.800000,0.001589,-0.783938,0.000118,-2.356095,-0.003070,1.570120,0.790707
1.810000,0.001584,-0.783941,0.000118,-2.356076,-0.003069,1.570121,0.790704
1.820000,0.001584,-0.783934,0.000118,-2.356101,-0.003069,1.570118,0.790702
1.830000,0.001591,-0.783936,0.000115,-2.356096,-0.003071,1.570120,0.790704
1.840000,0.001586,-0.783936,0.000116,-2.356075,-0.003070,1.570121,0.790708
1.850000,0.001587,-0.783936,0.000118,-2.356096,-0.003069,1.570120,0.790703
1.860000,0.001584,-0.783936,0.000116,-2.356096,-0.003070,1.570120,0.790704
1.870000,0.001585,-0.783938,0.000115,-2.356080,-0.003069,1.570121,0.790704
1.880000,0.001585,-0.783932,0.000120,-2.356099,-0.003068,1.570119,0.790703
1.890000,0.001584,-0.783938,0.000115,-2.356096,-0.003069,1.570120,0.790703
1.900000,0.001584,-0.783939,0.000115,-2.356073,-0.003067,1.570123,0.790705
1.910000,0.001585,-0.783937,0.000120,-2.356089,-0.003068,1.570120,0.790705
1.920000,0.001585,-0.783934,0.000118,-2.356098,-0.003070,1.570119,0.790705
1.930000,0.001585,-0.783936,0.000115,-2.356080,-0.003072,1.570122,0.790707
1.940000,0.001584,-0.783938,0.000120,-2.356085,-0.003072,1.570122,0.790706
1.950000,0.001582,-0.783939,0.000118,-2.356077,-0.003070,1.570120,0.790703
1.960000,0.001582,-0.783938,0.000113,-2.356080,-0.003067,1.570121,0.790696
1.970000,0.001585,-0.783938,0.000121,-2.356084,-0.003068,1.570120,0.790698
1.980000,0.001582,-0.783939,0.000115,-2.356080,-0.003069,1.570120,0.790702
1.990000,0.001585,-0.783939,0.000117,-2.356080,-0.003069,1.570122,0.790703
2.000000,0.001585,-0.783938,0.000117,-2.356084,-0.003069,1.570122,0.790701
2.010000,0.001587,-0.783941,0.000116,-2.356082,-0.003069,1.570120,0.790702
2.020000,0.001585,-0.783934,0.000115,-2.356081,-0.003068,1.570122,0.790699
2.030000,0.001584,-0.783938,0.000118,-2.356078,-0.003071,1.570120,0.790698
2.040000,0.001585,-0.783936,0.000118,-2.356101,-0.003070,1.570119,0.790695
2.050000,0.001584,-0.783938,0.000118,-2.356082,-0.003075,1.570120,0.790698
2.060000,0.001584,-0.783939,0.000117,-2.356078,-0.003069,1.570120,0.790699
2.070000,0.001587,-0.783936,0.000118,-2.356103,-0.003070,1.570120,0.790698
2.080000,0.001584,-0.783941,0.000118,-2.356086,-0.003072,1.570120,0.790695
2.090000,0.001587,-0.783936,0.000118,-2.356080,-0.003067,1.570121,0.790702
2.100000,0.001584,-0.783938,0.000118,-2.356097,-0.003068,1.570120,0.790698
2.110000,0.001585,-0.783938,0.000121,-2.356084,-0.003073,1.570120,0.790698
2.120000,0.001585,-0.783938,0.000111,-2.356076,-0.003069,1.570122,0.790700
2.130000,0.001587,-0.783936,0.000118,-2.356097,-0.003069,1.570120,0.790694
2.140000,0.001585,-0.783938,0.000118,-2.356090,-0.003068,1.570121,0.790699
2.150000,0.001584,-0.783938,0.000118,-2.356077,-0.003069,1.570122,0.790694
2.160000,0.001585,-0.783938,0.000118,-2.356096,-0.003068,1.570120,0.790700
2.170000,0.001585,-0.783938,0.000117,-2.356076,-0.003069,1.570122,0.790698
2.180000,0.001584,-0.783938,0.000122,-2.356073,-0.003070,1.570122,0.790700
2.190000,0.001585,-0.783936,0.000120,-2.356101,-0.003069,1.570120,0.790701
2.200000,0.001587,-0.783938,0.000115,-2.356090,-0.003067,1.570120,0.790695
2.210000,0.001585,-0.783939,0.000118,-2.356075,-0.003068,1.570123,0.790700
2.220000,0.001584,-0.783938,0.000118,-2.356101,-0.003071,1.570120,0.790693
2.230000,0.001587,-0.783938,0.000117,-2.356092,-0.003068,1.570120,0.790697
2.240000,0.001585,-0.783939,0.000117,-2.356077,-0.003069,1.570121,0.790694
2.250000,0.001585,-0.783936,0.000115,-2.356099,-0.003069,1.570118,0.790691
2.260000,0.001587,-0.783936,0.000115,-2.356097,-0.003069,1.570119,0.790697
2.270000,0.001587,-0.783939,0.000116,-2.356080,-0.003070,1.570120,0.790696
2.280000,0.001585,-0.783936,0.000118,-2.356097,-0.003069,1.570120,0.790693
2.290000,0.001587,-0.783939,0.000120,-2.356097,-0.003068,1.570120,0.790698
2.300000,0.001585,-0.783936,0.000120,-2.356077,-0.003068,1.570120,0.790694
2.310000,0.001585,-0.783934,0.000120,-2.356094,-0.003069,1.570120,0.790695
2.320000,0.001585,-0.783938,0.000118,-2.356101,-0.003067,1.570121,0.790691
2.330000,0.001587,-0.783936,0.000118,-2.356097,-0.003067,1.570120,0.790696
2.340000,0.001585,-0.783936,0.000116,-2.356085,-0.003068,1.570120,0.790693
2.350000,0.001585,-0.783936,0.000120,-2.356101,-0.003072,1.570120,0.790693
2.360000,0.001584,-0.783939,0.000120,-2.356092,-0.003068,1.570120,0.790694
2.370000,0.001584,-0.783936,0.000118,-2.356092,-0.003069,1.570121,0.790698
2.380000,0.001580,-0.783936,0.000118,-2.356099,-0.003067,1.570119,0.790690
2.390000,0.001585,-0.783940,0.000120,-2.356084,-0.003069,1.570120,0.790695
2.400000,0.001585,-0.783937,0.000120,-2.356089,-0.003068,1.570120,0.790695
2.410000,0.001585,-0.783936,0.000118,-2.356101,-0.003067,1.570120,0.790693
2.420000,0.001584,-0.783943,0.000120,-2.356082,-0.003067,1.570120,0.790689
2.430000,0.001584,-0.783939,0.000118,-2.356085,-0.003067,1.570121,0.790695
2.440000,0.001585,-0.783936,0.000118,-2.356082,-0.003068,1.570120,0.790689
2.450000,0.001585,-0.783939,0.000115,-2.356078,-0.003068,1.570121,0.790694
2.460000,0.001585,-0.783939,0.000117,-2.356084,-0.003069,1.570120,0.790693
2.470000,0.001584,-0.783939,0.000117,-2.356085,-0.003069,1.570121,0.790688
2.480000,0.001586,-0.783936,0.000115,-2.356082,-0.003069,1.570120,0.790690
2.490000,0.001583,-0.783941,0.000116,-2.356085,-0.003070,1.570122,0.790691
2.500000,0.001581,-0.783936,0.000117,-2.356101,-0.003068,1.570120,0.790690
2.510000,0.001584,-0.783938,0.000122,-2.356086,-0.003069,1.570120,0.790693
2.520000,0.001585,-0.783938,0.000117,-2.356087,-0.003068,1.570121,0.790690
2.530000,0.001585,-0.783939,0.000120,-2.356104,-0.003069,1.570118,0.790689
2.540000,0.001585,-0.783939,0.000117,-2.356085,-0.003069,1.570121,0.790688
2.550000,0.001584,-0.783939,0.000116,-2.356079,-0.003067,1.570122,0.790686
2.560000,0.001584,-0.783932,0.000117,-2.356099,-0.003070,1.570120,0.790689
2.570000,0.001587,-0.783938,0.000117,-2.356085,-0.003068,1.570120,0.790691
2.580000,0.001584,-0.783936,0.000118,-2.356087,-0.003069,1.570119,0.790689
2.590000,0.001587,-0.783934,0.000117,-2.356101,-0.003067,1.570120,0.790686
2.600000,0.001587,-0.783939,0.000115,-2.356083,-0.003068,1.570122,0.790687
2.610000,0.001584,-0.783938,0.000117,-2.356080,-0.003069,1.570121,0.790688
2.620000,0.001583,-0.783934,0.000115,-2.356101,-0.003069,1.570120,0.790689
2.630000,0.001583,-0.783939,0.000120,-2.356088,-0.003069,1.570119,0.790688
2.640000,0.001586,-0.783939,0.000118,-2.356081,-0.003069,1.570120,0.790686
2.650000,0.001585,-0.783938,0.000116,-2.356101,-0.003069,1.570119,0.790685
2.660000,0.001584,-0.783934,0.000115,-2.356081,-0.003067,1.570120,0.790691
2.670000,0.001581,-0.783940,0.000120,-2.356080,-0.003071,1.570121,0.790689
2.680000,0.001584,-0.783936,0.000120,-2.356104,-0.003069,1.570119,0.790689
2.690000,0.001584,-0.783936,0.000120,-2.356088,-0.003067,1.570121,0.790689
2.700000,0.001585,-0.783942,0.000117,-2.356079,-0.003068,1.570121,0.790689
2.710000,0.001583,-0.783938,0.000117,-2.356097,-0.003067,1.570120,0.790690
2.720000,0.001585,-0.783941,0.000118,-2.356077,-0.003069,1.570121,0.790683
2.730000,0.001585,-0.783943,0.000117,-2.356081,-0.003069,1.570121,0.790689
2.740000,0.001584,-0.783934,0.000119,-2.356101,-0.003070,1.570120,0.790687
2.750000,0.001582,-0.783939,0.000115,-2.356078,-0.003069,1.570122,0.790688
2.760000,0.001584,-0.783939,0.000116,-2.356078,-0.003068,1.570122,0.790683
2.770000,0.001585,-0.783938,0.000118,-2.356097,-0.003068,1.570120,0.790685
2.780000,0.001584,-0.783934,0.000118,-2.356094,-0.003067,1.570120,0.790685
2.790000,0.001586,-0.783939,0.000120,-2.356080,-0.003069,1.570121,0.790686
2.800000,0.001580,-0.783936,0.000117,-2.356096,-0.003069,1.570120,0.790694
2.810000,0.001583,-0.783936,0.000119,-2.356094,-0.003069,1.570120,0.790687
2.820000,0.001584,-0.783941,0.000118,-2.356079,-0.003067,1.570120,0.790685
2.830000,0.001581,-0.783936,0.000118,-2.356099,-0.003068,1.570119,0.790686
2.840000,0.001580,-0.783936,0.000116,-2.356099,-0.003067,1.570119,0.790687
2.850000,0.001581,-0.783938,0.000115,-2.356079,-0.003068,1.570120,0.790682
2.860000,0.001583,-0.783936,0.000117,-2.356096,-0.003069,1.570119,0.790685
2.870000,0.001585,-0.783936,0.000117,-2.356097,-0.003067,1.570119,0.790685
2.880000,0.001583,-0.783939,0.000116,-2.356075,-0.003068,1.570121,0.790686
2.890000,0.001582,-0.783941,0.000122,-2.356093,-0.003068,1.570119,0.790683
2.900000,0.001582,-0.783938,0.000118,-2.356099,-0.003068,1.570119,0.790687
2.910000,0.001582,-0.783941,0.000117,-2.356080,-0.003068,1.570121,0.790683
2.920000,0.001583,-0.783936,0.000117,-2.356099,-0.003069,1.570118,0.790688
2.930000,0.001583,-0.783938,0.000120,-2.356099,-0.003068,1.570119,0.790685
2.940000,0.001582,-0.783941,0.000118,-2.356078,-0.003068,1.570123,0.790684
2.950000,0.001585,-0.783936,0.000117,-2.356101,-0.003067,1.570119,0.790683
2.960000,0.001583,-0.783939,0.000118,-2.356081,-0.003067,1.570121,0.790686
2.970000,0.001582,-0.783938,0.000114,-2.356088,-0.003067,1.570119,0.790681
2.980000,0.001582,-0.783938,0.000120,-2.356092,-0.003069,1.570120,0.790679
2.990000,0.001580,-0.783936,0.000117,-2.356097,-0.003068,1.570119,0.790683
3.000000,0.001582,-0.783938,0.000122,-2.356088,-0.003069,1.570120,0.790690
3.010000,0.001582,-0.783937,0.000118,-2.356092,-0.003069,1.570120,0.790683
3.020000,0.001580,-0.783937,0.000120,-2.356101,-0.003068,1.570119,0.790688
3.030000,0.001582,-0.783941,0.000120,-2.356080,-0.003067,1.570120,0.790680
3.040000,0.001583,-0.783938,0.000117,-2.356083,-0.003069,1.570119,0.790680
3.050000,0.001582,-0.783936,0.000120,-2.356099,-0.003069,1.570118,0.790686
3.060000,0.001579,-0.783938,0.000117,-2.356081,-0.003068,1.570120,0.790680
3.070000,0.001579,-0.783939,0.000118,-2.356081,-0.003068,1.570120,0.790675
3.080000,0.001580,-0.783936,0.000117,-2.356099,-0.003068,1.570118,0.790676
3.090000,0.001580,-0.783939,0.000118,-2.356083,-0.003067,1.570120,0.790679
3.100000,0.001586,-0.783934,0.000116,-2.356085,-0.003069,1.570120,0.790678
3.110000,0.001581,-0.783936,0.000118,-2.356103,-0.003069,1.570119,0.790679
3.120000,0.001584,-0.783939,0.000122,-2.356085,-0.003069,1.570120,0.790679
3.130000,0.001579,-0.783936,0.000118,-2.356081,-0.003069,1.570120,0.790677
3.140000,0.001582,-0.783932,0.000120,-2.356102,-0.003069,1.570118,0.790680
3.150000,0.001586,-0.783938,0.000120,-2.356089,-0.003069,1.570121,0.790677
3.160000,0.001582,-0.783938,0.000118,-2.356081,-0.003068,1.570122,0.790680
3.170000,0.001584,-0.783938,0.000118,-2.356100,-0.003068,1.570118,0.790678
3.180000,0.001580,-0.783936,0.000120,-2.356081,-0.003069,1.570121,0.790681
3.190000,0.001580,-0.783939,0.000115,-2.356087,-0.003069,1.570120,0.790683
3.200000,0.001580,-0.783934,0.000118,-2.356104,-0.003068,1.570119,0.790680
3.210000,0.001582,-0.783938,0.000118,-2.356081,-0.003067,1.570120,0.790683
3.220000,0.001584,-0.783938,0.000117,-2.356081,-0.003068,1.570120,0.790681
3.230000,0.001582,-0.783938,0.000118,-2.356102,-0.003069,1.570119,0.790686
3.240000,0.001582,-0.783934,0.000120,-2.356089,-0.003069,1.570120,0.790679
3.250000,0.001582,-0.783938,0.000118,-2.356102,-0.003069,1.570118,0.790683
3.260000,0.001586,-0.783938,0.000120,-2.356106,-0.003068,1.570120,0.790682
3.270000,0.001582,-0.783936,0.000117,-2.356087,-0.003069,1.570120,0.790682
3.280000,0.001580,-0.783938,0.000118,-2.356081,-0.003070,1.570120,0.790677
3.290000,0.001580,-0.783938,0.000120,-2.356103,-0.003069,1.570118,0.790681
3.300000,0.001580,-0.783936,0.000118,-2.356093,-0.003067,1.570120,0.790679
3.310000,0.001583,-0.783938,0.000115,-2.356080,-0.003069,1.570121,0.790681
3.320000,0.001582,-0.783936,0.000120,-2.356106,-0.003069,1.570119,0.790682
3.330000,0.001584,-0.783938,0.000118,-2.356094,-0.003067,1.570120,0.790675
3.340000,0.001580,-0.783938,0.000120,-2.356078,-0.003069,1.570120,0.790676
3.350000,0.001582,-0.783938,0.000120,-2.356101,-0.003069,1.570120,0.790684
3.360000,0.001582,-0.783938,0.000118,-2.356095,-0.003068,1.570120,0.790678
3.370000,0.001580,-0.783938,0.000120,-2.356081,-0.003069,1.570122,0.790678
3.380000,0.001581,-0.783936,0.000118,-2.356101,-0.003068,1.570118,0.790682
3.390000,0.001582,-0.783939,0.000117,-2.356078,-0.003067,1.570121,0.790674
3.400000,0.001582,-0.783940,0.000117,-2.356081,-0.003069,1.570120,0.790678
3.410000,0.001580,-0.783936,0.000119,-2.356092,-0.003069,1.570120,0.790676
3.420000,0.001582,-0.783938,0.000118,-2.356097,-0.003069,1.570118,0.790676
3.430000,0.001580,-0.783939,0.000117,-2.356078,-0.003069,1.570120,0.790676
3.440000,0.001580,-0.783938,0.000120,-2.356099,-0.003067,1.570120,0.790672
3.450000,0.001584,-0.783938,0.000120,-2.356099,-0.003069,1.570120,0.790677
3.460000,0.001580,-0.783939,0.000117,-2.356080,-0.003069,1.570120,0.790673
3.470000,0.001586,-0.783938,0.000118,-2.356090,-0.003070,1.570120,0.790677
3.480000,0.001582,-0.783938,0.000118,-2.356098,-0.003065,1.570118,0.790676
3.490000,0.001584,-0.783941,0.000117,-2.356082,-0.003068,1.570120,0.790672
3.500000,0.001584,-0.783934,0.000118,-2.356100,-0.003067,1.570118,0.790674
3.510000,0.001586,-0.783934,0.000118,-2.356102,-0.003069,1.570119,0.790679
3.520000,0.001580,-0.783939,0.000120,-2.356078,-0.003067,1.570120,0.790676
3.530000,0.001582,-0.783936,0.000120,-2.356092,-0.003069,1.570119,0.790680
3.540000,0.001584,-0.783938,0.000118,-2.356100,-0.003067,1.570120,0.790679
3.550000,0.001580,-0.783938,0.000117,-2.356080,-0.003068,1.570120,0.790676
3.560000,0.001584,-0.783939,0.000118,-2.356090,-0.003068,1.570120,0.790675
3.570000,0.001582,-0.783934,0.000118,-2.356101,-0.003069,1.570119,0.790677
3.580000,0.001586,-0.783940,0.000118,-2.356081,-0.003068,1.570122,0.790668
3.590000,0.001580,-0.783936,0.000118,-2.356102,-0.003068,1.570120,0.790681
3.600000,0.001586,-0.783938,0.000118,-2.356101,-0.003069,1.570119,0.790679
3.610000,0.001586,-0.783943,0.000118,-2.356084,-0.003069,1.570120,0.790676
3.620000,0.001584,-0.783938,0.000118,-2.356100,-0.003068,1.570119,0.790675
3.630000,0.001580,-0.783934,0.000120,-2.356102,-0.003069,1.570118,0.790676
3.640000,0.001582,-0.783938,0.000118,-2.356082,-0.003064,1.570120,0.790675
3.650000,0.001580,-0.783938,0.000118,-2.356083,-0.003067,1.570120,0.790674
3.660000,0.001582,-0.783936,0.000117,-2.356106,-0.003068,1.570120,0.790675
3.670000,0.001582,-0.783940,0.000124,-2.356088,-0.003069,1.570121,0.790675
3.680000,0.001579,-0.783941,0.000115,-2.356085,-0.003069,1.570120,0.790668
3.690000,0.001582,-0.783934,0.000118,-2.356103,-0.003068,1.570115,0.790671
3.700000,0.001581,-0.783939,0.000118,-2.356092,-0.003065,1.570120,0.790671
3.710000,0.001582,-0.783939,0.000120,-2.356080,-0.003069,1.570120,0.790673
3.720000,0.001581,-0.783932,0.000118,-2.356103,-0.003069,1.570118,0.790673
3.730000,0.001580,-0.783938,0.000118,-2.356088,-0.003064,1.570120,0.790671
3.740000,0.001584,-0.783938,0.000120,-2.356102,-0.003066,1.570119,0.790668
3.750000,0.001582,-0.783938,0.000118,-2.356109,-0.003068,1.570119,0.790673
3.760000,0.001584,-0.783939,0.000114,-2.356090,-0.003068,1.570120,0.790669
3.770000,0.001580,-0.783938,0.000117,-2.356080,-0.003068,1.570120,0.790667
3.780000,0.001580,-0.783932,0.000118,-2.356099,-0.003068,1.570118,0.790671
3.790000,0.001582,-0.783941,0.000118,-2.356078,-0.003064,1.570121,0.790670
3.800000,0.001578,-0.783939,0.000117,-2.356081,-0.003068,1.570121,0.790667
3.810000,0.001582,-0.783936,0.000117,-2.356099,-0.003064,1.570116,0.790669
3.820000,0.001578,-0.783934,0.000117,-2.356095,-0.003065,1.570120,0.790674
3.830000,0.001580,-0.783938,0.000117,-2.356102,-0.003067,1.570120,0.790673
3.840000,0.001579,-0.783936,0.000118,-2.356104,-0.003065,1.570120,0.790670
3.850000,0.001579,-0.783938,0.000117,-2.356097,-0.003065,1.570120,0.790669
3.860000,0.001582,-0.783939,0.000120,-2.356076,-0.003066,1.570120,0.790672
3.870000,0.001580,-0.783941,0.000120,-2.356102,-0.003064,1.570119,0.790672
3.880000,0.001580,-0.783939,0.000120,-2.356080,-0.003067,1.570119,0.790673
3.890000,0.001582,-0.783939,0.000117,-2.356080,-0.003069,1.570121,0.790669
3.900000,0.001582,-0.783936,0.000120,-2.356099,-0.003064,1.570120,0.790672
3.910000,0.001580,-0.783938,0.000118,-2.356082,-0.003064,1.570124,0.790671
3.920000,0.001584,-0.783938,0.000120,-2.356098,-0.003066,1.570119,0.790670
3.930000,0.001578,-0.783936,0.000117,-2.356100,-0.003067,1.570118,0.790670
3.940000,0.001582,-0.783936,0.000117,-2.356097,-0.003064,1.570119,0.790669
3.950000,0.001578,-0.783939,0.000118,-2.356101,-0.003064,1.570118,0.790666
3.960000,0.001581,-0.783936,0.000117,-2.356101,-0.003067,1.570120,0.790668
3.970000,0.001582,-0.783934,0.000117,-2.356099,-0.003066,1.570120,0.790668
3.980000,0.001578,-0.783932,0.000118,-2.356094,-0.003068,1.570120,0.790668
3.990000,0.001577,-0.783938,0.000118,-2.356105,-0.003066,1.570119,0.790673
4.000000,0.001582,-0.783936,0.000120,-2.356099,-0.003065,1.570120,0.790667
4.010000,0.001587,-0.783941,0.000117,-2.356076,-0.003069,1.570120,0.790668
4.020000,0.001582,-0.783936,0.000118,-2.356100,-0.003064,1.570120,0.790666
4.030000,0.001580,-0.783932,0.000120,-2.356101,-0.003063,1.570119,0.790671
4.040000,0.001576,-0.783936,0.000120,-2.356080,-0.003065,1.570121,0.790668
4.050000,0.001581,-0.783941,0.000118,-2.356095,-0.003062,1.570119,0.790666
4.060000,0.001578,-0.783935,0.000120,-2.356106,-0.003067,1.570119,0.790671
4.070000,0.001578,-0.783939,0.000120,-2.356075,-0.003064,1.570121,0.790673
4.080000,0.001576,-0.783938,0.000118,-2.356091,-0.003069,1.570120,0.790668
4.090000,0.001580,-0.783940,0.000118,-2.356083,-0.003064,1.570120,0.790663
4.100000,0.001581,-0.783938,0.000120,-2.356081,-0.003063,1.570122,0.790665
4.110000,0.001577,-0.783938,0.000120,-2.356089,-0.003068,1.570121,0.790666
4.120000,0.001576,-0.783933,0.000118,-2.356108,-0.003063,1.570119,0.790670
4.130000,0.001577,-0.783938,0.000118,-2.356085,-0.003063,1.570121,0.790665
4.140000,0.001583,-0.783938,0.000118,-2.356091,-0.003066,1.570119,0.790668
4.150000,0.001580,-0.783934,0.000117,-2.356104,-0.003064,1.570120,0.790665
4.160000,0.001574,-0.783941,0.000117,-2.356088,-0.003067,1.570120,0.790664
4.170000,0.001579,-0.783939,0.000115,-2.356088,-0.003066,1.570120,0.790663
4.180000,0.001582,-0.783939,0.000118,-2.356102,-0.003065,1.570119,0.790666
4.190000,0.001579,-0.783943,0.000116,-2.356088,-0.003069,1.570120,0.790663
4.200000,0.001579,-0.783938,0.000118,-2.356086,-0.003064,1.570118,0.790665
4.210000,0.001584,-0.783936,0.000116,-2.356108,-0.003065,1.570118,0.790669
4.220000,0.001576,-0.783939,0.000118,-2.356086,-0.003065,1.570123,0.790667
4.230000,0.001579,-0.783936,0.000118,-2.356106,-0.003065,1.570118,0.790663
4.240000,0.001579,-0.783934,0.000118,-2.356106,-0.003064,1.570118,0.790663
4.250000,0.001579,-0.783940,0.000117,-2.356086,-0.003064,1.570117,0.790670
4.260000,0.001575,-0.783936,0.000117,-2.356085,-0.003064,1.570120,0.790665
4.270000,0.001578,-0.783936,0.000118,-2.356104,-0.003064,1.570118,0.790668
4.280000,0.001577,-0.783939,0.000115,-2.356092,-0.003065,1.570120,0.790665
4.290000,0.001575,-0.783938,0.000120,-2.356083,-0.003067,1.570120,0.790662
4.300000,0.001581,-0.783936,0.000119,-2.356104,-0.003063,1.570119,0.790664
4.310000,0.001579,-0.783936,0.000117,-2.356090,-0.003065,1.570120,0.790664
4.320000,0.001576,-0.783938,0.000117,-2.356082,-0.003063,1.570120,0.790666
4.330000,0.001575,-0.783936,0.000122,-2.356104,-0.003066,1.570119,0.790667
4.340000,0.001577,-0.783938,0.000118,-2.356093,-0.003065,1.570117,0.790668
4.350000,0.001579,-0.783939,0.000117,-2.356080,-0.003067,1.570121,0.790663
4.360000,0.001579,-0.783939,0.000118,-2.356102,-0.003066,1.570120,0.790670
4.370000,0.001579,-0.783939,0.000120,-2.356095,-0.003065,1.570120,0.790663
4.380000,0.001579,-0.783939,0.000117,-2.356079,-0.003063,1.570120,0.790664
4.390000,0.001579,-0.783936,0.000118,-2.356102,-0.003065,1.570119,0.790669
4.400000,0.001577,-0.783939,0.000118,-2.356095,-0.003063,1.570120,0.790665
4.410000,0.001577,-0.783939,0.000116,-2.356083,-0.003063,1.570120,0.790667
4.420000,0.001577,-0.783936,0.000117,-2.356102,-0.003063,1.570118,0.790665
4.430000,0.001584,-0.783939,0.000118,-2.356099,-0.003065,1.570118,0.790663
4.440000,0.001579,-0.783936,0.000116,-2.356099,-0.003064,1.570119,0.790661
4.450000,0.001579,-0.783936,0.000119,-2.356101,-0.003067,1.570119,0.790667
4.460000,0.001581,-0.783936,0.000120,-2.356104,-0.003063,1.570116,0.790662
4.470000,0.001581,-0.783938,0.000118,-2.356097,-0.003064,1.570120,0.790661
4.480000,0.001575,-0.783936,0.000118,-2.356095,-0.003063,1.570120,0.790668
4.490000,0.001581,-0.783944,0.000115,-2.356080,-0.003063,1.570120,0.790661
4.500000,0.001579,-0.783939,0.000118,-2.356082,-0.003065,1.570120,0.790663
4.510000,0.001579,-0.783936,0.000118,-2.356097,-0.003063,1.570119,0.790661
4.520000,0.001577,-0.783936,0.000118,-2.356102,-0.003064,1.570119,0.790660
4.530000,0.001579,-0.783939,0.000117,-2.356091,-0.003065,1.570122,0.790661
4.540000,0.001579,-0.783938,0.000118,-2.356096,-0.003065,1.570120,0.790658
4.550000,0.001581,-0.783932,0.000117,-2.356101,-0.003063,1.570120,0.790664
4.560000,0.001577,-0.783939,0.000118,-2.356085,-0.003063,1.570121,0.790661
4.570000,0.001579,-0.783939,0.000120,-2.356099,-0.003063,1.570119,0.790658
4.580000,0.001579,-0.783934,0.000117,-2.356102,-0.003065,1.570120,0.790661
4.590000,0.001577,-0.783941,0.000122,-2.356080,-0.003063,1.570120,0.790660
4.600000,0.001577,-0.783938,0.000118,-2.356093,-0.003065,1.570119,0.790663
4.610000,0.001579,-0.783938,0.000118,-2.356104,-0.003063,1.570118,0.790661
4.620000,0.001581,-0.783941,0.000116,-2.356085,-0.003064,1.570119,0.790659
4.630000,0.001577,-0.783936,0.000122,-2.356095,-0.003064,1.570117,0.790660
4.640000,0.001581,-0.783936,0.000118,-2.356104,-0.003061,1.570116,0.790663
4.650000,0.001581,-0.783938,0.000117,-2.356092,-0.003064,1.570120,0.790659
4.660000,0.001577,-0.783938,0.000116,-2.356095,-0.003063,1.570120,0.790664
4.670000,0.001579,-0.783934,0.000118,-2.356108,-0.003064,1.570119,0.790660
4.680000,0.001579,-0.783938,0.000118,-2.356090,-0.003063,1.570120,0.790663
4.690000,0.001579,-0.783939,0.000118,-2.356090,-0.003065,1.570118,0.790661
4.700000,0.001579,-0.783936,0.000120,-2.356104,-0.003061,1.570117,0.790658
4.710000,0.001581,-0.783944,0.000118,-2.356080,-0.003065,1.570120,0.790663
4.720000,0.001577,-0.783936,0.000118,-2.356090,-0.003065,1.570120,0.790660
4.730000,0.001579,-0.783934,0.000118,-2.356106,-0.003064,1.570116,0.790661
4.740000,0.001575,-0.783939,0.000118,-2.356085,-0.003064,1.570121,0.790661
4.750000,0.001579,-0.783936,0.000118,-2.356088,-0.003063,1.570119,0.790662
4.760000,0.001581,-0.783936,0.000118,-2.356108,-0.003064,1.570117,0.790663
4.770000,0.001579,-0.783936,0.000117,-2.356088,-0.003063,1.570119,0.790658
4.780000,0.001577,-0.783938,0.000117,-2.356086,-0.003065,1.570120,0.790663
4.790000,0.001579,-0.783936,0.000120,-2.356104,-0.003065,1.570119,0.790661
4.800000,0.001579,-0.783936,0.000118,-2.356090,-0.003065,1.570120,0.790659
4.810000,0.001579,-0.783934,0.000118,-2.356081,-0.003064,1.570120,0.790663
4.820000,0.001577,-0.783934,0.000115,-2.356104,-0.003063,1.570117,0.790659
4.830000,0.001579,-0.783938,0.000115,-2.356092,-0.003064,1.570117,0.790656
4.840000,0.001579,-0.783939,0.000115,-2.356084,-0.003065,1.570122,0.790663
4.850000,0.001577,-0.783938,0.000120,-2.356095,-0.003064,1.570117,0.790663
4.860000,0.001579,-0.783937,0.000120,-2.356093,-0.003063,1.570116,0.790656
4.870000,0.001579,-0.783938,0.000115,-2.356079,-0.003063,1.570120,0.790661
4.880000,0.001579,-0.783934,0.000113,-2.356102,-0.003063,1.570115,0.790659
4.890000,0.001577,-0.783934,0.000118,-2.356099,-0.003063,1.570119,0.790658
4.900000,0.001577,-0.783936,0.000117,-2.356101,-0.003063,1.570119,0.790658
4.910000,0.001577,-0.783936,0.000117,-2.356093,-0.003063,1.570115,0.790658
4.920000,0.001579,-0.783938,0.000118,-2.356095,-0.003064,1.570114,0.790652
4.930000,0.001581,-0.783939,0.000117,-2.356083,-0.003065,1.570120,0.790659
4.940000,0.001579,-0.783936,0.000116,-2.356101,-0.003063,1.570115,0.790665
4.950000,0.001577,-0.783938,0.000114,-2.356097,-0.003063,1.570119,0.790659
4.960000,0.001579,-0.783944,0.000118,-2.356081,-0.003064,1.570120,0.790657
4.970000,0.001579,-0.783936,0.000122,-2.356102,-0.003063,1.570119,0.790660
4.980000,0.001579,-0.783934,0.000118,-2.356099,-0.003064,1.570120,0.790654
4.990000,0.001582,-0.783934,0.000122,-2.356101,-0.003063,1.570115,0.790652
5.000000,0.001579,-0.783936,0.000120,-2.356099,-0.003063,1.570118,0.790661
5.010000,0.001581,-0.783939,0.000115,-2.356105,-0.003064,1.570118,0.790654
5.020000,0.001581,-0.783938,0.000117,-2.356083,-0.003065,1.570122,0.790657
5.030000,0.001579,-0.783938,0.000117,-2.356101,-0.003063,1.570117,0.790659
5.040000,0.001579,-0.783934,0.000118,-2.356101,-0.003063,1.570118,0.790659
5.050000,0.001581,-0.783943,0.000122,-2.356081,-0.003063,1.570120,0.790652
5.060000,0.001577,-0.783940,0.000120,-2.356095,-0.003063,1.570119,0.790655
5.070000,0.001581,-0.783938,0.000117,-2.356080,-0.003064,1.570122,0.790659
5.080000,0.001581,-0.783938,0.000115,-2.356078,-0.003063,1.570119,0.790654
5.090000,0.001575,-0.783940,0.000118,-2.356093,-0.003064,1.570117,0.790656
5.100000,0.001579,-0.783942,0.000117,-2.356085,-0.003063,1.570116,0.790659
5.110000,0.001575,-0.783941,0.000120,-2.356081,-0.003063,1.570118,0.790654
5.120000,0.001579,-0.783938,0.000116,-2.356090,-0.003065,1.570120,0.790659
5.130000,0.001577,-0.783940,0.000124,-2.356108,-0.003063,1.570116,0.790652
5.140000,0.001575,-0.783939,0.000118,-2.356083,-0.003063,1.570117,0.790656
5.150000,0.001575,-0.783941,0.000115,-2.356090,-0.003065,1.570117,0.790658
5.160000,0.001581,-0.783938,0.000118,-2.356106,-0.003064,1.570115,0.790656
5.170000,0.001578,-0.783940,0.000118,-2.356085,-0.003063,1.570121,0.790659
5.180000,0.001579,-0.783939,0.000118,-2.356103,-0.003063,1.570116,0.790652
5.190000,0.001579,-0.783936,0.000118,-2.356105,-0.003064,1.570118,0.790656
5.200000,0.001577,-0.783939,0.000117,-2.356086,-0.003064,1.570117,0.790655
5.210000,0.001575,-0.783939,0.000118,-2.356088,-0.003065,1.570119,0.790656
5.220000,0.001577,-0.783937,0.000115,-2.356105,-0.003063,1.570117,0.790654
5.230000,0.001577,-0.783938,0.000116,-2.356088,-0.003064,1.570119,0.790656
5.240000,0.001577,-0.783938,0.000117,-2.356086,-0.003063,1.570116,0.790656
5.250000,0.001576,-0.783934,0.000118,-2.356106,-0.003063,1.570117,0.790657
5.260000,0.001579,-0.783938,0.000118,-2.356085,-0.003064,1.570115,0.790653
5.270000,0.001579,-0.783938,0.000117,-2.356088,-0.003063,1.570119,0.790658
5.280000,0.001577,-0.783940,0.000116,-2.356104,-0.003063,1.570117,0.790656
5.290000,0.001579,-0.783938,0.000120,-2.356086,-0.003063,1.570118,0.790658
5.300000,0.001577,-0.783938,0.000118,-2.356086,-0.003064,1.570120,0.790655
5.310000,0.001579,-0.783938,0.000115,-2.356108,-0.003063,1.570117,0.790657
5.320000,0.001579,-0.783936,0.000117,-2.356088,-0.003065,1.570117,0.790659
5.330000,0.001579,-0.783940,0.000120,-2.356085,-0.003064,1.570119,0.790656
5.340000,0.001575,-0.783940,0.000117,-2.356107,-0.003063,1.570115,0.790653
5.350000,0.001581,-0.783941,0.000122,-2.356090,-0.003064,1.570116,0.790654
5.360000,0.001579,-0.783938,0.000118,-2.356081,-0.003064,1.570121,0.790656
5.370000,0.001580,-0.783938,0.000118,-2.356097,-0.003064,1.570115,0.790656
5.380000,0.001575,-0.783938,0.000118,-2.356093,-0.003063,1.570115,0.790651
5.390000,0.001579,-0.783940,0.000118,-2.356085,-0.003064,1.570121,0.790655
5.400000,0.001579,-0.783934,0.000118,-2.356096,-0.003064,1.570115,0.790657
5.410000,0.001578,-0.783938,0.000120,-2.356092,-0.003064,1.570119,0.790655
5.420000,0.001577,-0.783941,0.000118,-2.356081,-0.003064,1.570120,0.790650
5.430000,0.001578,-0.783936,0.000122,-2.356104,-0.003064,1.570114,0.790652
5.440000,0.001580,-0.783936,0.000120,-2.356098,-0.003065,1.570118,0.790654
5.450000,0.001579,-0.783939,0.000117,-2.356083,-0.003063,1.570120,0.790654
5.460000,0.001577,-0.783936,0.000118,-2.356098,-0.003062,1.570115,0.790652
5.470000,0.001577,-0.783936,0.000117,-2.356097,-0.003063,1.570115,0.790651
5.480000,0.001579,-0.783941,0.000116,-2.356081,-0.003064,1.570117,0.790654
5.490000,0.001577,-0.783938,0.000118,-2.356103,-0.003063,1.570119,0.790650
5.500000,0.001579,-0.783932,0.000118,-2.356105,-0.003062,1.570113,0.790655
5.510000,0.001578,-0.783939,0.000118,-2.356083,-0.003064,1.570118,0.790655
5.520000,0.001577,-0.783934,0.000117,-2.356101,-0.003063,1.570114,0.790652
5.530000,0.001580,-0.783934,0.000116,-2.356107,-0.003064,1.570116,0.790651
5.540000,0.001575,-0.783942,0.000115,-2.356083,-0.003065,1.570120,0.790649
5.550000,0.001575,-0.783938,0.000118,-2.356095,-0.003064,1.570116,0.790650
5.560000,0.001577,-0.783936,0.000120,-2.356103,-0.003063,1.570115,0.790649
5.570000,0.001580,-0.783938,0.000117,-2.356083,-0.003063,1.570116,0.790648
5.580000,0.001578,-0.783936,0.000118,-2.356105,-0.003063,1.570115,0.790652
5.590000,0.001576,-0.783938,0.000117,-2.356102,-0.003063,1.570118,0.790654
5.600000,0.001579,-0.783938,0.000122,-2.356092,-0.003063,1.570120,0.790654
5.610000,0.001579,-0.783934,0.000113,-2.356092,-0.003063,1.570117,0.790648
5.620000,0.001574,-0.783936,0.000115,-2.356107,-0.003062,1.570115,0.790650
5.630000,0.001576,-0.783938,0.000117,-2.356085,-0.003064,1.570118,0.790654
5.640000,0.001580,-0.783938,0.000118,-2.356108,-0.003064,1.570116,0.790654
5.650000,0.001578,-0.783935,0.000117,-2.356105,-0.003064,1.570114,0.790651
5.660000,0.001575,-0.783941,0.000118,-2.356088,-0.003065,1.570116,0.790652
5.670000,0.001575,-0.783938,0.000120,-2.356090,-0.003064,1.570119,0.790648
5.680000,0.001579,-0.783936,0.000118,-2.356109,-0.003063,1.570115,0.790653
5.690000,0.001578,-0.783938,0.000118,-2.356088,-0.003063,1.570117,0.790654
5.700000,0.001577,-0.783939,0.000118,-2.356088,-0.003065,1.570115,0.790649
5.710000,0.001578,-0.783938,0.000117,-2.356110,-0.003063,1.570113,0.790649
5.720000,0.001577,-0.783936,0.000120,-2.356090,-0.003064,1.570118,0.790650
5.730000,0.001575,-0.783936,0.000120,-2.356108,-0.003063,1.570115,0.790652
5.740000,0.001580,-0.783938,0.000118,-2.356108,-0.003063,1.570117,0.790653
5.750000,0.001576,-0.783938,0.000117,-2.356090,-0.003065,1.570118,0.790654
5.760000,0.001578,-0.783939,0.000118,-2.356085,-0.003063,1.570117,0.790645
5.770000,0.001576,-0.783939,0.000118,-2.356108,-0.003063,1.570114,0.790652
5.780000,0.001574,-0.783937,0.000118,-2.356088,-0.003065,1.570116,0.790650
5.790000,0.001576,-0.783938,0.000118,-2.356086,-0.003065,1.570117,0.790652
5.800000,0.001574,-0.783934,0.000117,-2.356111,-0.003063,1.570117,0.790646
5.810000,0.001576,-0.783941,0.000118,-2.356094,-0.003063,1.570119,0.790652
5.820000,0.001578,-0.783936,0.000118,-2.356086,-0.003063,1.570118,0.790649
5.830000,0.001575,-0.783938,0.000118,-2.356107,-0.003064,1.570115,0.790647
5.840000,0.001574,-0.783939,0.000117,-2.356098,-0.003065,1.570115,0.790646
5.850000,0.001576,-0.783938,0.000118,-2.356086,-0.003063,1.570119,0.790646
5.860000,0.001578,-0.783934,0.000118,-2.356106,-0.003064,1.570114,0.790642
5.870000,0.001578,-0.783940,0.000118,-2.356081,-0.003062,1.570118,0.790646
5.880000,0.001580,-0.783938,0.000116,-2.356085,-0.003063,1.570116,0.790652
5.890000,0.001574,-0.783938,0.000118,-2.356105,-0.003063,1.570114,0.790647
5.900000,0.001574,-0.783936,0.000117,-2.356099,-0.003063,1.570115,0.790649
5.910000,0.001576,-0.783936,0.000118,-2.356083,-0.003063,1.570117,0.790642
5.920000,0.001576,-0.783936,0.000120,-2.356097,-0.003063,1.570116,0.790647
5.930000,0.001576,-0.783938,0.000117,-2.356096,-0.003063,1.570114,0.790649
5.940000,0.001578,-0.783938,0.000118,-2.356082,-0.003064,1.570119,0.790651
5.950000,0.001576,-0.783938,0.000118,-2.356100,-0.003063,1.570115,0.790651
5.960000,0.001576,-0.783941,0.000113,-2.356098,-0.003064,1.570118,0.790645
5.970000,0.001579,-0.783939,0.000120,-2.356087,-0.003063,1.570116,0.790642
5.980000,0.001578,-0.783938,0.000117,-2.356100,-0.003064,1.570114,0.790646
5.990000,0.001576,-0.783936,0.000118,-2.356100,-0.003059,1.570114,0.790652
6.000000,0.001576,-0.783936,0.000120,-2.356081,-0.003064,1.570117,0.790643
6.010000,0.001576,-0.783936,0.000117,-2.356102,-0.003063,1.570117,0.790646
6.020000,0.001578,-0.783940,0.000118,-2.356101,-0.003064,1.570115,0.790646
6.030000,0.001576,-0.783941,0.000118,-2.356081,-0.003063,1.570118,0.790651
6.040000,0.001574,-0.783936,0.000122,-2.356102,-0.003062,1.570115,0.790648
6.050000,0.001575,-0.783936,0.000116,-2.356102,-0.003061,1.570115,0.790648
6.060000,0.001576,-0.783941,0.000117,-2.356082,-0.003063,1.570120,0.790648
6.070000,0.001574,-0.783938,0.000118,-2.356102,-0.003061,1.570116,0.790644
6.080000,0.001574,-0.783936,0.000118,-2.356105,-0.003063,1.570114,0.790648
6.090000,0.001574,-0.783941,0.000115,-2.356085,-0.003064,1.570116,0.790648
6.100000,0.001576,-0.783938,0.000118,-2.356107,-0.003062,1.570116,0.790649
6.110000,0.001574,-0.783936,0.000118,-2.356104,-0.003062,1.570115,0.790649
6.120000,0.001576,-0.783939,0.000118,-2.356080,-0.003063,1.570116,0.790649
6.130000,0.001578,-0.783938,0.000117,-2.356104,-0.003063,1.570116,0.790644
6.140000,0.001576,-0.783939,0.000118,-2.356107,-0.003060,1.570116,0.790643
6.150000,0.001578,-0.783938,0.000118,-2.356080,-0.003063,1.570117,0.790646
6.160000,0.001574,-0.783938,0.000122,-2.356092,-0.003063,1.570117,0.790649
6.170000,0.001578,-0.783939,0.000117,-2.356109,-0.003064,1.570115,0.790645
6.180000,0.001574,-0.783939,0.000118,-2.356086,-0.003064,1.570115,0.790644
6.190000,0.001578,-0.783942,0.000116,-2.356094,-0.003064,1.570117,0.790648
6.200000,0.001578,-0.783938,0.000120,-2.356107,-0.003063,1.570115,0.790648
6.210000,0.001574,-0.783938,0.000119,-2.356088,-0.003063,1.570116,0.790648
6.220000,0.001578,-0.783936,0.000118,-2.356093,-0.003063,1.570115,0.790643
6.230000,0.001574,-0.783934,0.000118,-2.356109,-0.003064,1.570115,0.790646
6.240000,0.001576,-0.783940,0.000115,-2.356083,-0.003063,1.570118,0.790646
6.250000,0.001576,-0.783938,0.000120,-2.356094,-0.003063,1.570120,0.790649
6.260000,0.001576,-0.783938,0.000115,-2.356088,-0.003064,1.570115,0.790642
6.270000,0.001578,-0.783939,0.000117,-2.356088,-0.003063,1.570115,0.790647
6.280000,0.001572,-0.783936,0.000117,-2.356092,-0.003065,1.570116,0.790644
6.290000,0.001578,-0.783938,0.000118,-2.356109,-0.003063,1.570115,0.790650
6.300000,0.001576,-0.783940,0.000117,-2.356090,-0.003061,1.570116,0.790643
6.310000,0.001578,-0.783941,0.000118,-2.356089,-0.003064,1.570116,0.790638
6.320000,0.001574,-0.783938,0.000120,-2.356107,-0.003061,1.570113,0.790641
6.330000,0.001574,-0.783938,0.000118,-2.356085,-0.003065,1.570116,0.790639
6.340000,0.001576,-0.783938,0.000118,-2.356087,-0.003065,1.570115,0.790640
6.350000,0.001574,-0.783939,0.000118,-2.356107,-0.003063,1.570114,0.790644
6.360000,0.001576,-0.783940,0.000115,-2.356085,-0.003065,1.570115,0.790644
6.370000,0.001574,-0.783937,0.000120,-2.356084,-0.003064,1.570116,0.790647
6.380000,0.001577,-0.783936,0.000118,-2.356109,-0.003063,1.570114,0.790641
6.390000,0.001576,-0.783939,0.000120,-2.356093,-0.003062,1.570116,0.790644
6.400000,0.001574,-0.783938,0.000118,-2.356089,-0.003064,1.570119,0.790643
6.410000,0.001578,-0.783938,0.000117,-2.356105,-0.003060,1.570114,0.790641
6.420000,0.001576,-0.783940,0.000118,-2.356093,-0.003064,1.570116,0.790646
6.430000,0.001576,-0.783941,0.000118,-2.356086,-0.003063,1.570117,0.790639
6.440000,0.001578,-0.783938,0.000120,-2.356097,-0.003063,1.570115,0.790639
6.450000,0.001576,-0.783936,0.000118,-2.356100,-0.003064,1.570117,0.790641
6.460000,0.001576,-0.783942,0.000117,-2.356083,-0.003064,1.570118,0.790641
6.470000,0.001574,-0.783937,0.000118,-2.356100,-0.003064,1.570116,0.790641
6.480000,0.001578,-0.783936,0.000118,-2.356101,-0.003064,1.570115,0.790639
6.490000,0.001573,-0.783936,0.000117,-2.356084,-0.003064,1.570117,0.790643
6.500000,0.001575,-0.783938,0.000118,-2.356105,-0.003062,1.570114,0.790644
6.510000,0.001578,-0.783938,0.000121,-2.356107,-0.003061,1.570114,0.790644
6.520000,0.001576,-0.783939,0.000118,-2.356100,-0.003064,1.570113,0.790641
6.530000,0.001572,-0.783934,0.000120,-2.356104,-0.003064,1.570115,0.790637
6.540000,0.001572,-0.783936,0.000120,-2.356105,-0.003063,1.570113,0.790643
6.550000,0.001576,-0.783943,0.000115,-2.356080,-0.003063,1.570117,0.790638
6.560000,0.001576,-0.783939,0.000124,-2.356096,-0.003063,1.570115,0.790642
6.570000,0.001576,-0.783936,0.000115,-2.356104,-0.003062,1.570114,0.790638
6.580000,0.001572,-0.783938,0.000118,-2.356088,-0.003062,1.570116,0.790645
6.590000,0.001575,-0.783938,0.000118,-2.356107,-0.003063,1.570114,0.790645
6.600000,0.001575,-0.783936,0.000118,-2.356104,-0.003063,1.570114,0.790644
6.610000,0.001570,-0.783942,0.000117,-2.356084,-0.003063,1.570115,0.790644
6.620000,0.001575,-0.783939,0.000118,-2.356096,-0.003065,1.570114,0.790640
6.630000,0.001574,-0.783934,0.000118,-2.356107,-0.003064,1.570114,0.790640
6.640000,0.001578,-0.783938,0.000116,-2.356087,-0.003062,1.570115,0.790646
6.650000,0.001576,-0.783938,0.000116,-2.356094,-0.003061,1.570116,0.790639
6.660000,0.001576,-0.783934,0.000121,-2.356104,-0.003064,1.570114,0.790639
6.670000,0.001574,-0.783940,0.000120,-2.356092,-0.003059,1.570114,0.790638
6.680000,0.001575,-0.783939,0.000118,-2.356096,-0.003060,1.570117,0.790641
6.690000,0.001573,-0.783936,0.000118,-2.356109,-0.003060,1.570113,0.790639
6.700000,0.001569,-0.783936,0.000115,-2.356086,-0.003061,1.570116,0.790644
6.710000,0.001574,-0.783938,0.000118,-2.356090,-0.003063,1.570116,0.790640
6.720000,0.001575,-0.783938,0.000117,-2.356109,-0.003064,1.570113,0.790638
6.730000,0.001574,-0.783939,0.000117,-2.356093,-0.003062,1.570118,0.790644
6.740000,0.001576,-0.783939,0.000117,-2.356093,-0.003061,1.570115,0.790639
6.750000,0.001571,-0.783936,0.000120,-2.356107,-0.003060,1.570117,0.790641
6.760000,0.001573,-0.783938,0.000117,-2.356088,-0.003062,1.570116,0.790633
6.770000,0.001575,-0.783939,0.000122,-2.356087,-0.003059,1.570117,0.790638
6.780000,0.001574,-0.783938,0.000121,-2.356111,-0.003059,1.570114,0.790639
6.790000,0.001571,-0.783938,0.000117,-2.356086,-0.003063,1.570117,0.790639
6.800000,0.001571,-0.783934,0.000117,-2.356109,-0.003061,1.570114,0.790643
6.810000,0.001575,-0.783936,0.000120,-2.356109,-0.003058,1.570114,0.790636
6.820000,0.001576,-0.783936,0.000120,-2.356093,-0.003060,1.570117,0.790634
6.830000,0.001571,-0.783938,0.000116,-2.356088,-0.003062,1.570117,0.790641
6.840000,0.001571,-0.783936,0.000117,-2.356107,-0.003064,1.570113,0.790638
6.850000,0.001574,-0.783934,0.000118,-2.356093,-0.003057,1.570116,0.790637
6.860000,0.001572,-0.783941,0.000115,-2.356081,-0.003060,1.570116,0.790634
6.870000,0.001572,-0.783936,0.000118,-2.356105,-0.003062,1.570115,0.790641
6.880000,0.001575,-0.783936,0.000117,-2.356098,-0.003059,1.570114,0.790634
6.890000,0.001571,-0.783938,0.000117,-2.356107,-0.003059,1.570115,0.790638
6.900000,0.001572,-0.783934,0.000118,-2.356107,-0.003058,1.570113,0.790637
6.910000,0.001573,-0.783938,0.000116,-2.356100,-0.003062,1.570114,0.790635
6.920000,0.001577,-0.783941,0.000118,-2.356086,-0.003063,1.570117,0.790634
6.930000,0.001574,-0.783934,0.000118,-2.356107,-0.003061,1.570115,0.790637
6.940000,0.001573,-0.783938,0.000118,-2.356100,-0.003059,1.570114,0.790634
6.950000,0.001575,-0.783938,0.000118,-2.356082,-0.003062,1.570116,0.790635
6.960000,0.001573,-0.783936,0.000117,-2.356105,-0.003060,1.570114,0.790637
6.970000,0.001577,-0.783939,0.000120,-2.356104,-0.003059,1.570113,0.790639
6.980000,0.001569,-0.783939,0.000118,-2.356086,-0.003063,1.570117,0.790636
6.990000,0.001577,-0.783938,0.000118,-2.356098,-0.003058,1.570116,0.790639
7.000000,0.001574,-0.783936,0.000118,-2.356100,-0.003063,1.570115,0.790636
7.010000,0.001569,-0.783938,0.000115,-2.356088,-0.003062,1.570116,0.790634
7.020000,0.001575,-0.783937,0.000117,-2.356102,-0.003059,1.570115,0.790638
7.030000,0.001575,-0.783938,0.000116,-2.356083,-0.003059,1.570115,0.790639
7.040000,0.001577,-0.783938,0.000118,-2.356086,-0.003060,1.570116,0.790637
7.050000,0.001571,-0.783936,0.000117,-2.356102,-0.003060,1.570115,0.790639
7.060000,0.001569,-0.783934,0.000120,-2.356104,-0.003059,1.570115,0.790635
7.070000,0.001573,-0.783941,0.000118,-2.356088,-0.003061,1.570116,0.790633
7.080000,0.001575,-0.783938,0.000118,-2.356096,-0.003058,1.570115,0.790639
7.090000,0.001575,-0.783936,0.000119,-2.356104,-0.003059,1.570114,0.790637
7.100000,0.001571,-0.783939,0.000115,-2.356084,-0.003061,1.570118,0.790634
7.110000,0.001574,-0.783934,0.000118,-2.356098,-0.003060,1.570116,0.790641
7.120000,0.001573,-0.783936,0.000120,-2.356107,-0.003058,1.570116,0.790639
7.130000,0.001573,-0.783938,0.000117,-2.356084,-0.003059,1.570115,0.790634
7.140000,0.001572,-0.783936,0.000118,-2.356097,-0.003060,1.570116,0.790638
7.150000,0.001573,-0.783938,0.000120,-2.356109,-0.003060,1.570114,0.790634
7.160000,0.001572,-0.783938,0.000120,-2.356086,-0.003059,1.570116,0.790634
7.170000,0.001573,-0.783938,0.000115,-2.356095,-0.003059,1.570116,0.790633
7.180000,0.001571,-0.783936,0.000118,-2.356107,-0.003063,1.570114,0.790638
7.190000,0.001571,-0.783939,0.000118,-2.356088,-0.003060,1.570116,0.790633
7.200000,0.001572,-0.783940,0.000116,-2.356090,-0.003059,1.570116,0.790637
7.210000,0.001574,-0.783938,0.000118,-2.356109,-0.003063,1.570113,0.790635
7.220000,0.001573,-0.783938,0.000120,-2.356090,-0.003062,1.570116,0.790634
7.230000,0.001571,-0.783938,0.000118,-2.356089,-0.003063,1.570116,0.790636
7.240000,0.001573,-0.783936,0.000120,-2.356111,-0.003061,1.570113,0.790631
7.250000,0.001572,-0.783939,0.000116,-2.356093,-0.003059,1.570116,0.790636
7.260000,0.001574,-0.783938,0.000118,-2.356086,-0.003059,1.570116,0.790633
7.270000,0.001572,-0.783938,0.000118,-2.356095,-0.003057,1.570116,0.790633
7.280000,0.001574,-0.783938,0.000118,-2.356095,-0.003058,1.570116,0.790632
7.290000,0.001574,-0.783940,0.000117,-2.356088,-0.003059,1.570116,0.790637
7.300000,0.001574,-0.783934,0.000118,-2.356107,-0.003061,1.570118,0.790628
7.310000,0.001569,-0.783938,0.000115,-2.356098,-0.003059,1.570116,0.790631
7.320000,0.001574,-0.783938,0.000116,-2.356086,-0.003058,1.570117,0.790631
7.330000,0.001571,-0.783936,0.000120,-2.356104,-0.003058,1.570114,0.790640
7.340000,0.001573,-0.783941,0.000118,-2.356086,-0.003059,1.570117,0.790632
7.350000,0.001569,-0.783933,0.000117,-2.356107,-0.003060,1.570113,0.790632
7.360000,0.001572,-0.783936,0.000118,-2.356111,-0.003059,1.570114,0.790636
7.370000,0.001572,-0.783938,0.000115,-2.356098,-0.003059,1.570114,0.790633
7.380000,0.001571,-0.783938,0.000118,-2.356105,-0.003062,1.570113,0.790634
7.390000,0.001572,-0.783934,0.000117,-2.356107,-0.003059,1.570114,0.790636
7.400000,0.001572,-0.783939,0.000116,-2.356098,-0.003062,1.570114,0.790635
7.410000,0.001571,-0.783934,0.000117,-2.356104,-0.003058,1.570115,0.790630
7.420000,0.001572,-0.783939,0.000117,-2.356104,-0.003057,1.570116,0.790631
7.430000,0.001572,-0.783936,0.000116,-2.356098,-0.003059,1.570116,0.790631
7.440000,0.001572,-0.783940,0.000117,-2.356084,-0.003060,1.570116,0.790636
7.450000,0.001574,-0.783934,0.000118,-2.356105,-0.003058,1.570116,0.790636
7.460000,0.001576,-0.783936,0.000118,-2.356102,-0.003058,1.570114,0.790635
7.470000,0.001570,-0.783939,0.000114,-2.356084,-0.003059,1.570116,0.790629
7.480000,0.001573,-0.783936,0.000117,-2.356105,-0.003059,1.570113,0.790635
7.490000,0.001573,-0.783934,0.000117,-2.356102,-0.003058,1.570114,0.790633
7.500000,0.001571,-0.783939,0.000118,-2.356083,-0.003060,1.570115,0.790630
7.510000,0.001569,-0.783937,0.000116,-2.356102,-0.003058,1.570113,0.790633
7.520000,0.001574,-0.783937,0.000117,-2.356102,-0.003059,1.570116,0.790635
7.530000,0.001573,-0.783934,0.000120,-2.356100,-0.003059,1.570115,0.790635
7.540000,0.001569,-0.783938,0.000118,-2.356100,-0.003059,1.570115,0.790630
7.550000,0.001572,-0.783938,0.000117,-2.356105,-0.003059,1.570116,0.790632
7.560000,0.001571,-0.783940,0.000117,-2.356084,-0.003058,1.570117,0.790631
7.570000,0.001571,-0.783936,0.000120,-2.356098,-0.003059,1.570116,0.790633
7.580000,0.001571,-0.783936,0.000120,-2.356111,-0.003056,1.570116,0.790635
7.590000,0.001572,-0.783943,0.000117,-2.356088,-0.003058,1.570117,0.790630
7.600000,0.001571,-0.783936,0.000118,-2.356105,-0.003058,1.570113,0.790629
7.610000,0.001572,-0.783936,0.000118,-2.356109,-0.003058,1.570113,0.790630
7.620000,0.001572,-0.783939,0.000120,-2.356088,-0.003058,1.570116,0.790633
7.630000,0.001573,-0.783934,0.000118,-2.356110,-0.003059,1.570115,0.790633
7.640000,0.001571,-0.783936,0.000117,-2.356105,-0.003059,1.570115,0.790634
7.650000,0.001571,-0.783941,0.000115,-2.356090,-0.003060,1.570116,0.790638
7.660000,0.001574,-0.783936,0.000118,-2.356107,-0.003059,1.570113,0.790630
7.670000,0.001571,-0.783938,0.000118,-2.356109,-0.003057,1.570114,0.790633
7.680000,0.001572,-0.783938,0.000118,-2.356086,-0.003058,1.570116,0.790635
7.690000,0.001576,-0.783932,0.000118,-2.356109,-0.003058,1.570114,0.790630
7.700000,0.001574,-0.783936,0.000120,-2.356104,-0.003058,1.570116,0.790636
7.710000,0.001576,-0.783938,0.000117,-2.356090,-0.003060,1.570115,0.790629
7.720000,0.001576,-0.783938,0.000119,-2.356107,-0.003060,1.570116,0.790631
7.730000,0.001569,-0.783938,0.000118,-2.356106,-0.003058,1.570113,0.790631
7.740000,0.001572,-0.783936,0.000117,-2.356090,-0.003059,1.570116,0.790626
7.750000,0.001571,-0.783939,0.000118,-2.356093,-0.003058,1.570116,0.790630
7.760000,0.001572,-0.783936,0.000118,-2.356111,-0.003058,1.570115,0.790628
7.770000,0.001569,-0.783941,0.000115,-2.356098,-0.003059,1.570116,0.790628
7.780000,0.001569,-0.783940,0.000115,-2.356091,-0.003057,1.570116,0.790624
7.790000,0.001571,-0.783934,0.000120,-2.356109,-0.003058,1.570114,0.790632
7.800000,0.001572,-0.783938,0.000115,-2.356091,-0.003059,1.570116,0.790629
7.810000,0.001572,-0.783938,0.000118,-2.356093,-0.003060,1.570115,0.790626
7.820000,0.001572,-0.783934,0.000118,-2.356110,-0.003058,1.570113,0.790630
7.830000,0.001572,-0.783938,0.000118,-2.356091,-0.003059,1.570115,0.790631
7.840000,0.001572,-0.783936,0.000116,-2.356086,-0.003061,1.570116,0.790629
7.850000,0.001570,-0.783936,0.000120,-2.356111,-0.003058,1.570114,0.790632
7.860000,0.001572,-0.783932,0.000116,-2.356097,-0.003059,1.570115,0.790632
7.870000,0.001572,-0.783941,0.000120,-2.356083,-0.003058,1.570116,0.790626
7.880000,0.001572,-0.783934,0.000120,-2.356097,-0.003058,1.570114,0.790630
7.890000,0.001571,-0.783939,0.000113,-2.356091,-0.003058,1.570114,0.790632
7.900000,0.001572,-0.783939,0.000118,-2.356086,-0.003059,1.570116,0.790626
7.910000,0.001574,-0.783938,0.000118,-2.356105,-0.003059,1.570115,0.790627
7.920000,0.001572,-0.783942,0.000119,-2.356083,-0.003059,1.570116,0.790623
7.930000,0.001574,-0.783940,0.000118,-2.356084,-0.003059,1.570116,0.790628
7.940000,0.001571,-0.783936,0.000118,-2.356104,-0.003058,1.570115,0.790626
7.950000,0.001572,-0.783938,0.000120,-2.356103,-0.003059,1.570116,0.790629
7.960000,0.001574,-0.783938,0.000118,-2.356084,-0.003060,1.570117,0.790627
7.970000,0.001572,-0.783938,0.000122,-2.356104,-0.003059,1.570115,0.790627
7.980000,0.001572,-0.783938,0.000118,-2.356106,-0.003058,1.570116,0.790630
7.990000,0.001572,-0.783940,0.000118,-2.356084,-0.003059,1.570117,0.790627
8.000000,0.001572,-0.783939,0.000118,-2.356104,-0.003058,1.570115,0.790629
8.010000,0.001572,-0.783940,0.000120,-2.356088,-0.003058,1.570117,0.790631
8.020000,0.001572,-0.783940,0.000120,-2.356088,-0.003059,1.570115,0.790625
8.030000,0.001571,-0.783936,0.000115,-2.356100,-0.003058,1.570116,0.790627
8.040000,0.001571,-0.783936,0.000118,-2.356101,-0.003058,1.570117,0.790627
8.050000,0.001572,-0.783939,0.000118,-2.356086,-0.003058,1.570117,0.790626
8.060000,0.001572,-0.783939,0.000118,-2.356102,-0.003060,1.570114,0.790629
8.070000,0.001576,-0.783934,0.000117,-2.356108,-0.003058,1.570114,0.790626
8.080000,0.001572,-0.783939,0.000120,-2.356088,-0.003060,1.570116,0.790630
8.090000,0.001572,-0.783939,0.000122,-2.356098,-0.003059,1.570115,0.790632
8.100000,0.001572,-0.783937,0.000120,-2.356107,-0.003059,1.570115,0.790626
8.110000,0.001572,-0.783938,0.000118,-2.356086,-0.003058,1.570116,0.790628
8.120000,0.001569,-0.783940,0.000118,-2.356102,-0.003060,1.570115,0.790630
8.130000,0.001572,-0.783934,0.000120,-2.356110,-0.003058,1.570113,0.790630
8.140000,0.001571,-0.783938,0.000116,-2.356086,-0.003058,1.570117,0.790627
8.150000,0.001571,-0.783939,0.000118,-2.356091,-0.003059,1.570116,0.790628
8.160000,0.001571,-0.783941,0.000115,-2.356110,-0.003057,1.570113,0.790630
8.170000,0.001572,-0.783939,0.000115,-2.356090,-0.003060,1.570116,0.790626
8.180000,0.001574,-0.783939,0.000118,-2.356095,-0.003059,1.570116,0.790628
8.190000,0.001574,-0.783936,0.000122,-2.356111,-0.003057,1.570113,0.790626
8.200000,0.001571,-0.783937,0.000120,-2.356090,-0.003059,1.570115,0.790631
8.210000,0.001572,-0.783939,0.000115,-2.356093,-0.003059,1.570116,0.790628
8.220000,0.001574,-0.783936,0.000120,-2.356110,-0.003058,1.570113,0.790626
8.230000,0.001574,-0.783938,0.000115,-2.356090,-0.003058,1.570115,0.790632
8.240000,0.001569,-0.783939,0.000117,-2.356090,-0.003058,1.570118,0.790630
8.250000,0.001567,-0.783936,0.000118,-2.356111,-0.003058,1.570115,0.790626
8.260000,0.001572,-0.783936,0.000118,-2.356096,-0.003059,1.570115,0.790630
8.270000,0.001574,-0.783938,0.000118,-2.356091,-0.003058,1.570116,0.790628
8.280000,0.001571,-0.783938,0.000120,-2.356108,-0.003058,1.570114,0.790631
8.290000,0.001571,-0.783944,0.000117,-2.356088,-0.003059,1.570117,0.790629
8.300000,0.001572,-0.783935,0.000118,-2.356088,-0.003058,1.570116,0.790629
8.310000,0.001572,-0.783937,0.000120,-2.356106,-0.003058,1.570116,0.790625
8.320000,0.001574,-0.783940,0.000118,-2.356097,-0.003058,1.570116,0.790629
8.330000,0.001569,-0.783940,0.000120,-2.356090,-0.003059,1.570116,0.790627
8.340000,0.001571,-0.783936,0.000120,-2.356108,-0.003059,1.570113,0.790630
8.350000,0.001574,-0.783939,0.000116,-2.356097,-0.003058,1.570116,0.790623
8.360000,0.001574,-0.783937,0.000118,-2.356088,-0.003059,1.570116,0.790629
8.370000,0.001572,-0.783938,0.000117,-2.356108,-0.003059,1.570115,0.790625
8.380000,0.001571,-0.783938,0.000116,-2.356100,-0.003059,1.570116,0.790627
8.390000,0.001572,-0.783939,0.000118,-2.356084,-0.003060,1.570117,0.790624
8.400000,0.001572,-0.783937,0.000117,-2.356095,-0.003058,1.570114,0.790621
8.410000,0.001570,-0.783940,0.000117,-2.356097,-0.003059,1.570116,0.790620
8.420000,0.001575,-0.783939,0.000118,-2.356084,-0.003058,1.570115,0.790627
8.430000,0.001569,-0.783934,0.000118,-2.356108,-0.003058,1.570115,0.790625
8.440000,0.001567,-0.783938,0.000118,-2.356102,-0.003059,1.570116,0.790623
8.450000,0.001572,-0.783939,0.000117,-2.356083,-0.003059,1.570119,0.790626
8.460000,0.001572,-0.783938,0.000117,-2.356107,-0.003059,1.570116,0.790619
8.470000,0.001569,-0.783940,0.000118,-2.356103,-0.003058,1.570116,0.790625
8.480000,0.001568,-0.783939,0.000116,-2.356086,-0.003058,1.570116,0.790622
8.490000,0.001572,-0.783934,0.000120,-2.356102,-0.003060,1.570115,0.790621
8.500000,0.001574,-0.783938,0.000118,-2.356107,-0.003058,1.570115,0.790621
8.510000,0.001572,-0.783941,0.000117,-2.356086,-0.003060,1.570116,0.790620
8.520000,0.001571,-0.783938,0.000118,-2.356100,-0.003059,1.570116,0.790624
8.530000,0.001574,-0.783937,0.000120,-2.356105,-0.003057,1.570115,0.790618
8.540000,0.001572,-0.783939,0.000118,-2.356083,-0.003059,1.570116,0.790623
8.550000,0.001571,-0.783938,0.000120,-2.356100,-0.003059,1.570115,0.790619
8.560000,0.001572,-0.783939,0.000118,-2.356088,-0.003060,1.570116,0.790622
8.570000,0.001572,-0.783938,0.000119,-2.356095,-0.003058,1.570116,0.790625
8.580000,0.001571,-0.783938,0.000115,-2.356102,-0.003060,1.570114,0.790625
8.590000,0.001572,-0.783934,0.000120,-2.356106,-0.003059,1.570116,0.790619
8.600000,0.001572,-0.783939,0.000120,-2.356088,-0.003059,1.570117,0.790621
8.610000,0.001575,-0.783939,0.000120,-2.356098,-0.003060,1.570116,0.790619
8.620000,0.001572,-0.783938,0.000118,-2.356107,-0.003058,1.570116,0.790625
8.630000,0.001572,-0.783939,0.000118,-2.356090,-0.003058,1.570116,0.790619
8.640000,0.001571,-0.783940,0.000120,-2.356095,-0.003059,1.570115,0.790625
8.650000,0.001569,-0.783936,0.000118,-2.356109,-0.003058,1.570116,0.790621
8.660000,0.001570,-0.783936,0.000117,-2.356095,-0.003060,1.570116,0.790620
8.670000,0.001572,-0.783936,0.000115,-2.356093,-0.003060,1.570116,0.790626
8.680000,0.001571,-0.783938,0.000120,-2.356108,-0.003059,1.570115,0.790625
8.690000,0.001572,-0.783938,0.000119,-2.356090,-0.003058,1.570115,0.790624
8.700000,0.001569,-0.783939,0.000117,-2.356090,-0.003059,1.570116,0.790626
8.710000,0.001572,-0.783938,0.000120,-2.356112,-0.003059,1.570113,0.790622
8.720000,0.001572,-0.783937,0.000122,-2.356093,-0.003059,1.570117,0.790624
8.730000,0.001568,-0.783936,0.000120,-2.356108,-0.003058,1.570116,0.790624
8.740000,0.001571,-0.783936,0.000118,-2.356111,-0.003058,1.570115,0.790625
8.750000,0.001568,-0.783939,0.000119,-2.356093,-0.003058,1.570116,0.790623
8.760000,0.001572,-0.783940,0.000117,-2.356090,-0.003058,1.570116,0.790622
8.770000,0.001571,-0.783939,0.000121,-2.356093,-0.003059,1.570116,0.790622
8.780000,0.001572,-0.783938,0.000118,-2.356090,-0.003059,1.570118,0.790628
8.790000,0.001568,-0.783940,0.000118,-2.356088,-0.003058,1.570116,0.790624
8.800000,0.001571,-0.783938,0.000117,-2.356112,-0.003057,1.570114,0.790626
8.810000,0.001570,-0.783940,0.000116,-2.356095,-0.003059,1.570116,0.790624
8.820000,0.001571,-0.783936,0.000117,-2.356088,-0.003058,1.570116,0.790621
8.830000,0.001570,-0.783938,0.000117,-2.356109,-0.003058,1.570116,0.790622
8.840000,0.001572,-0.783936,0.000115,-2.356086,-0.003060,1.570116,0.790624
8.850000,0.001572,-0.783939,0.000114,-2.356088,-0.003059,1.570117,0.790626
8.860000,0.001572,-0.783934,0.000118,-2.356112,-0.003060,1.570115,0.790624
8.870000,0.001568,-0.783938,0.000120,-2.356097,-0.003059,1.570116,0.790623
8.880000,0.001572,-0.783940,0.000118,-2.356084,-0.003058,1.570116,0.790619
8.890000,0.001568,-0.783936,0.000120,-2.356107,-0.003058,1.570114,0.790620
8.900000,0.001569,-0.783936,0.000120,-2.356100,-0.003058,1.570116,0.790619
8.910000,0.001571,-0.783940,0.000119,-2.356084,-0.003059,1.570117,0.790622
8.920000,0.001570,-0.783936,0.000122,-2.356106,-0.003058,1.570115,0.790622
8.930000,0.001570,-0.783939,0.000120,-2.356101,-0.003059,1.570115,0.790624
8.940000,0.001569,-0.783938,0.000117,-2.356084,-0.003058,1.570116,0.790622
8.950000,0.001568,-0.783936,0.000117,-2.356105,-0.003057,1.570115,0.790625
8.960000,0.001571,-0.783936,0.000118,-2.356101,-0.003057,1.570114,0.790621
8.970000,0.001569,-0.783938,0.000117,-2.356088,-0.003060,1.570118,0.790620
8.980000,0.001572,-0.783940,0.000115,-2.356107,-0.003058,1.570113,0.790623
8.990000,0.001568,-0.783939,0.000122,-2.356103,-0.003058,1.570116,0.790620
9.000000,0.001567,-0.783944,0.000115,-2.356086,-0.003060,1.570117,0.790619
9.010000,0.001566,-0.783936,0.000118,-2.356104,-0.003058,1.570115,0.790614
9.020000,0.001569,-0.783937,0.000120,-2.356107,-0.003058,1.570116,0.790617
9.030000,0.001572,-0.783936,0.000118,-2.356102,-0.003059,1.570114,0.790623
9.040000,0.001568,-0.783938,0.000118,-2.356102,-0.003058,1.570115,0.790620
9.050000,0.001570,-0.783936,0.000119,-2.356107,-0.003058,1.570114,0.790616
9.060000,0.001568,-0.783939,0.000118,-2.356086,-0.003059,1.570117,0.790622
9.070000,0.001572,-0.783938,0.000117,-2.356103,-0.003060,1.570114,0.790616
9.080000,0.001570,-0.783936,0.000120,-2.356105,-0.003057,1.570116,0.790621
9.090000,0.001570,-0.783940,0.000117,-2.356086,-0.003058,1.570117,0.790618
9.100000,0.001571,-0.783938,0.000118,-2.356100,-0.003058,1.570115,0.790619
9.110000,0.001571,-0.783939,0.000117,-2.356104,-0.003058,1.570113,0.790617
9.120000,0.001571,-0.783938,0.000118,-2.356101,-0.003058,1.570114,0.790621
9.130000,0.001567,-0.783940,0.000120,-2.356099,-0.003060,1.570116,0.790617
9.140000,0.001569,-0.783941,0.000120,-2.356086,-0.003059,1.570116,0.790620
9.150000,0.001566,-0.783939,0.000118,-2.356086,-0.003057,1.570116,0.790620
9.160000,0.001568,-0.783936,0.000120,-2.356099,-0.003058,1.570116,0.790618
9.170000,0.001571,-0.783934,0.000116,-2.356109,-0.003058,1.570114,0.790619
9.180000,0.001569,-0.783938,0.000114,-2.356086,-0.003058,1.570117,0.790617
9.190000,0.001572,-0.783938,0.000120,-2.356093,-0.003058,1.570117,0.790614
9.200000,0.001570,-0.783934,0.000120,-2.356111,-0.003058,1.570115,0.790617
9.210000,0.001572,-0.783943,0.000116,-2.356088,-0.003058,1.570116,0.790614
9.220000,0.001572,-0.783942,0.000118,-2.356093,-0.003059,1.570116,0.790620
9.230000,0.001572,-0.783936,0.000115,-2.356112,-0.003060,1.570114,0.790617
9.240000,0.001569,-0.783939,0.000117,-2.356088,-0.003058,1.570116,0.790619
9.250000,0.001573,-0.783938,0.000118,-2.356091,-0.003058,1.570117,0.790617
9.260000,0.001570,-0.783937,0.000118,-2.356114,-0.003056,1.570113,0.790622
9.270000,0.001574,-0.783938,0.000118,-2.356097,-0.003058,1.570115,0.790617
9.280000,0.001570,-0.783939,0.000120,-2.356088,-0.003059,1.570116,0.790617
9.290000,0.001568,-0.783938,0.000117,-2.356112,-0.003058,1.570114,0.790619
9.300000,0.001572,-0.783937,0.000115,-2.356095,-0.003057,1.570115,0.790618
9.310000,0.001569,-0.783941,0.000118,-2.356084,-0.003059,1.570117,0.790613
9.320000,0.001571,-0.783939,0.000118,-2.356103,-0.003055,1.570114,0.790615
9.330000,0.001572,-0.783939,0.000115,-2.356098,-0.003057,1.570116,0.790618
9.340000,0.001569,-0.783936,0.000118,-2.356086,-0.003058,1.570117,0.790612
9.350000,0.001571,-0.783936,0.000118,-2.356102,-0.003058,1.570115,0.790617
9.360000,0.001568,-0.783938,0.000120,-2.356102,-0.003060,1.570116,0.790617
9.370000,0.001566,-0.783939,0.000117,-2.356089,-0.003060,1.570116,0.790616
9.380000,0.001568,-0.783938,0.000118,-2.356109,-0.003059,1.570115,0.790620
9.390000,0.001568,-0.783938,0.000118,-2.356102,-0.003058,1.570116,0.790621
9.400000,0.001569,-0.783939,0.000118,-2.356083,-0.003060,1.570116,0.790612
9.410000,0.001571,-0.783939,0.000115,-2.356108,-0.003060,1.570114,0.790617
9.420000,0.001571,-0.783939,0.000117,-2.356103,-0.003058,1.570115,0.790616
9.430000,0.001572,-0.783934,0.000118,-2.356103,-0.003059,1.570116,0.790611
9.440000,0.001568,-0.783938,0.000117,-2.356107,-0.003058,1.570116,0.790614
9.450000,0.001569,-0.783934,0.000120,-2.356102,-0.003058,1.570116,0.790616
9.460000,0.001569,-0.783940,0.000118,-2.356084,-0.003058,1.570117,0.790612
9.470000,0.001571,-0.783940,0.000115,-2.356108,-0.003058,1.570116,0.790618
9.480000,0.001570,-0.783938,0.000117,-2.356105,-0.003059,1.570115,0.790616
9.490000,0.001567,-0.783941,0.000117,-2.356084,-0.003058,1.570117,0.790617
9.500000,0.001571,-0.783938,0.000120,-2.356102,-0.003058,1.570115,0.790614
9.510000,0.001569,-0.783938,0.000113,-2.356107,-0.003059,1.570114,0.790615
9.520000,0.001569,-0.783938,0.000120,-2.356102,-0.003057,1.570114,0.790616
9.530000,0.001571,-0.783936,0.000118,-2.356107,-0.003058,1.570116,0.790618
9.540000,0.001568,-0.783936,0.000119,-2.356109,-0.003058,1.570115,0.790615
9.550000,0.001570,-0.783937,0.000120,-2.356098,-0.003059,1.570115,0.790615
9.560000,0.001570,-0.783936,0.000118,-2.356099,-0.003058,1.570113,0.790612
9.570000,0.001569,-0.783939,0.000118,-2.356091,-0.003059,1.570116,0.790615
9.580000,0.001569,-0.783941,0.000118,-2.356085,-0.003055,1.570116,0.790615
9.590000,0.001573,-0.783934,0.000120,-2.356096,-0.003059,1.570116,0.790613
9.600000,0.001571,-0.783938,0.000118,-2.356092,-0.003057,1.570116,0.790612
9.610000,0.001567,-0.783939,0.000118,-2.356089,-0.003058,1.570115,0.790613
9.620000,0.001569,-0.783938,0.000120,-2.356093,-0.003059,1.570116,0.790615
9.630000,0.001569,-0.783938,0.000118,-2.356112,-0.003059,1.570113,0.790614
9.640000,0.001569,-0.783938,0.000120,-2.356087,-0.003057,1.570116,0.790615
9.650000,0.001568,-0.783938,0.000120,-2.356112,-0.003059,1.570114,0.790617
9.660000,0.001571,-0.783938,0.000118,-2.356111,-0.003058,1.570115,0.790615
9.670000,0.001569,-0.783936,0.000115,-2.356090,-0.003058,1.570116,0.790613
9.680000,0.001568,-0.783939,0.000120,-2.356096,-0.003059,1.570116,0.790615
9.690000,0.001566,-0.783936,0.000118,-2.356111,-0.003058,1.570114,0.790615
9.700000,0.001566,-0.783940,0.000120,-2.356093,-0.003055,1.570114,0.790612
9.710000,0.001568,-0.783938,0.000120,-2.356094,-0.003058,1.570115,0.790616
9.720000,0.001567,-0.783934,0.000117,-2.356112,-0.003056,1.570115,0.790615
9.730000,0.001568,-0.783939,0.000120,-2.356096,-0.003060,1.570116,0.790615
9.740000,0.001568,-0.783936,0.000120,-2.356090,-0.003059,1.570116,0.790615
9.750000,0.001569,-0.783937,0.000120,-2.356112,-0.003053,1.570114,0.790615
9.760000,0.001570,-0.783936,0.000120,-2.356086,-0.003060,1.570116,0.790610
9.770000,0.001569,-0.783938,0.000115,-2.356088,-0.003059,1.570116,0.790615
9.780000,0.001570,-0.783934,0.000118,-2.356112,-0.003059,1.570113,0.790609
9.790000,0.001569,-0.783941,0.000115,-2.356095,-0.003057,1.570115,0.790615
9.800000,0.001568,-0.783938,0.000120,-2.356090,-0.003058,1.570115,0.790609
9.810000,0.001571,-0.783934,0.000120,-2.356109,-0.003059,1.570114,0.790615
9.820000,0.001568,-0.783936,0.000118,-2.356098,-0.003059,1.570113,0.790611
9.830000,0.001569,-0.783939,0.000117,-2.356086,-0.003056,1.570116,0.790607
9.840000,0.001572,-0.783938,0.000116,-2.356102,-0.003057,1.570116,0.790613
9.850000,0.001569,-0.783938,0.000118,-2.356098,-0.003059,1.570115,0.790612
9.860000,0.001573,-0.783934,0.000120,-2.356107,-0.003059,1.570115,0.790612
9.870000,0.001569,-0.783939,0.000120,-2.356100,-0.003059,1.570116,0.790610
9.880000,0.001566,-0.783938,0.000118,-2.356100,-0.003059,1.570116,0.790615
9.890000,0.001569,-0.783941,0.000117,-2.356088,-0.003054,1.570116,0.790616
9.900000,0.001570,-0.783936,0.000118,-2.356112,-0.003057,1.570113,0.790613
9.910000,0.001571,-0.783936,0.000122,-2.356099,-0.003058,1.570114,0.790612
9.920000,0.001568,-0.783934,0.000120,-2.356107,-0.003056,1.570115,0.790607
9.930000,0.001568,-0.783936,0.000115,-2.356109,-0.003057,1.570114,0.790605
9.940000,0.001568,-0.783938,0.000118,-2.356105,-0.003056,1.570113,0.790612
9.950000,0.001569,-0.783940,0.000120,-2.356105,-0.003055,1.570115,0.790614
9.960000,0.001566,-0.783937,0.000122,-2.356109,-0.003057,1.570114,0.790610
9.970000,0.001568,-0.783939,0.000118,-2.356103,-0.003060,1.570114,0.790608
9.980000,0.001568,-0.783941,0.000115,-2.356085,-0.003058,1.570117,0.790604
9.990000,0.001569,-0.783938,0.000118,-2.356105,-0.003059,1.570115,0.790611
10.000000,0.001569,-0.783941,0.000118,-2.356086,-0.003057,1.570116,0.790607
